(G-CODE GENERATED BY FLATCAM v8.994 - www.flatcam.org - Version Date: 2020/11/7)

(Name: hub_exterior-B_Cu.gbr_cutout_cnc)
(Type: G-code from Geometry)
(Units: MM)

(Created on Wednesday, 24 August 2022 at 18:37)

(This preprocessor is the default preprocessor used by FlatCAM.)
(It is made to work with MACH3 compatible motion controllers.)

(TOOL DIAMETER: 5.0 mm)
(Feedrate_XY: 400.0 mm/min)
(Feedrate_Z: 60.0 mm/min)
(Feedrate rapids 1500.0 mm/min)

(Z_Cut: -2.0 mm)
(Z_Move: 5.0 mm)
(Z Start: None mm)
(Z End: 15.0 mm)
(X,Y End: None mm)
(Steps per circle: 64)
(Preprocessor Geometry: default)

(X range:   -2.1995 ...   52.1995  mm)
(Y range:   -2.1995 ...   52.3953  mm)

(Spindle Speed: 0.0 RPM)
G21
G90
G94

G01 F400.00

M5
G00 Z15.0000
G00 X0.0000 Y0.0000
T1
M6    
(MSG, Change to Tool Dia = 5.0000)
M0
G00 Z15.0000

M03
G01 F400.00
G00 X22.0000 Y-2.1995
G01 F60.00
G01 Z-2.0000
G01 F400.00
G01 X0.8005 Y-2.1995
G01 X0.5064 Y-2.1851
G01 X0.2152 Y-2.1419
G01 X-0.0704 Y-2.0703
G01 X-0.3476 Y-1.9711
G01 X-0.6137 Y-1.8453
G01 X-0.8662 Y-1.6939
G01 X-1.1027 Y-1.5185
G01 X-1.3208 Y-1.3208
G01 X-1.5185 Y-1.1027
G01 X-1.6939 Y-0.8662
G01 X-1.8453 Y-0.6137
G01 X-1.9711 Y-0.3476
G01 X-2.0703 Y-0.0704
G01 X-2.1419 Y0.2152
G01 X-2.1851 Y0.5064
G01 X-2.1995 Y0.8005
G01 X-2.1995 Y22.0979
G00 Z5.0000
G00 X-2.1995 Y29.0979
G01 F60.00
G01 Z-2.0000
G01 F400.00
G01 X-2.1995 Y49.3953
G01 X-2.1851 Y49.6893
G01 X-2.1419 Y49.9805
G01 X-2.0703 Y50.2661
G01 X-1.9711 Y50.5433
G01 X-1.8453 Y50.8094
G01 X-1.6939 Y51.0620
G01 X-1.5185 Y51.2984
G01 X-1.3208 Y51.5166
G01 X-1.1027 Y51.7143
G01 X-0.8662 Y51.8897
G01 X-0.6137 Y52.0410
G01 X-0.3476 Y52.1669
G01 X-0.0704 Y52.2661
G01 X0.2152 Y52.3376
G01 X0.5064 Y52.3808
G01 X0.8005 Y52.3953
G01 X22.0000 Y52.3953
G00 Z5.0000
G00 X29.0000 Y52.3953
G01 F60.00
G01 Z-2.0000
G01 F400.00
G01 X49.1995 Y52.3953
G01 X49.4936 Y52.3808
G01 X49.7848 Y52.3376
G01 X50.0704 Y52.2661
G01 X50.3476 Y52.1669
G01 X50.6137 Y52.0410
G01 X50.8662 Y51.8897
G01 X51.1027 Y51.7143
G01 X51.3208 Y51.5166
G01 X51.5185 Y51.2984
G01 X51.6939 Y51.0620
G01 X51.8453 Y50.8094
G01 X51.9711 Y50.5433
G01 X52.0703 Y50.2661
G01 X52.1419 Y49.9805
G01 X52.1851 Y49.6893
G01 X52.1995 Y49.3953
G01 X52.1995 Y29.0979
G00 Z5.0000
G00 X52.1995 Y22.0979
G01 F60.00
G01 Z-2.0000
G01 F400.00
G01 X52.1995 Y0.8005
G01 X52.1851 Y0.5064
G01 X52.1419 Y0.2152
G01 X52.0703 Y-0.0704
G01 X51.9711 Y-0.3476
G01 X51.8453 Y-0.6137
G01 X51.6939 Y-0.8662
G01 X51.5185 Y-1.1027
G01 X51.3208 Y-1.3208
G01 X51.1027 Y-1.5185
G01 X50.8662 Y-1.6939
G01 X50.6137 Y-1.8453
G01 X50.3476 Y-1.9711
G01 X50.0704 Y-2.0703
G01 X49.7848 Y-2.1419
G01 X49.4936 Y-2.1851
G01 X49.1995 Y-2.1995
G01 X29.0000 Y-2.1995
G00 Z5.0000
M05
G00 Z5.0000
G00 Z15.00


