(G-CODE GENERATED BY FLATCAM v8.994 - www.flatcam.org - Version Date: 2020/11/7)

(Name: hub_exterior-B_Cu.gbr_iso_combined_cnc)
(Type: G-code from Geometry)
(Units: MM)

(Created on Wednesday, 24 August 2022 at 18:34)

(This preprocessor is the default preprocessor used by FlatCAM.)
(It is made to work with MACH3 compatible motion controllers.)

(TOOL DIAMETER: 0.5 mm)
(Feedrate_XY: 300.0 mm/min)
(Feedrate_Z: 60.0 mm/min)
(Feedrate rapids 1500.0 mm/min)

(Z_Cut: -0.1 mm)
(Z_Move: 5.0 mm)
(Z Start: None mm)
(Z End: 15.0 mm)
(X,Y End: None mm)
(Steps per circle: 64)
(Preprocessor Geometry: default)

(X range:    0.5505 ...   49.4495  mm)
(Y range:    0.5505 ...   49.6453  mm)

(Spindle Speed: 0.0 RPM)
G21
G90
G94

G01 F300.00

M5
G00 Z15.0000
G00 X0.0000 Y0.0000
T1
M6    
(MSG, Change to Tool Dia = 0.5000)
M0
G00 Z15.0000

M03
G01 F300.00
G00 X6.0400 Y10.3150
G01 F60.00
G01 Z-0.1000
G01 F300.00
G01 X5.8758 Y10.3151
G01 X5.6945 Y10.3279
G01 X5.4489 Y10.3808
G01 X5.2165 Y10.4668
G01 X5.0014 Y10.5828
G01 X4.9210 Y10.6418
G01 X4.9114 Y10.6483
G01 X4.9015 Y10.6542
G01 X4.8862 Y10.6623
G01 X4.7873 Y10.7103
G01 X4.7761 Y10.7154
G01 X4.7646 Y10.7199
G01 X4.7471 Y10.7256
G01 X4.7352 Y10.7287
G01 X4.7170 Y10.7323
G01 X4.6987 Y10.7345
G01 X4.5892 Y10.7434
G01 X4.5769 Y10.7441
G01 X4.5584 Y10.7441
G01 X4.5461 Y10.7433
G01 X4.5339 Y10.7418
G01 X4.5157 Y10.7386
G01 X4.4978 Y10.7340
G01 X4.3924 Y10.7028
G01 X4.3807 Y10.6990
G01 X4.3692 Y10.6947
G01 X4.3523 Y10.6871
G01 X4.3414 Y10.6813
G01 X4.3308 Y10.6751
G01 X4.3155 Y10.6647
G01 X4.2236 Y10.5938
G01 X4.2141 Y10.5861
G01 X4.2049 Y10.5778
G01 X4.1962 Y10.5692
G01 X4.1878 Y10.5601
G01 X4.1800 Y10.5506
G01 X4.1726 Y10.5407
G01 X4.1657 Y10.5305
G01 X4.1025 Y10.4260
G01 X4.0968 Y10.4153
G01 X4.0891 Y10.3988
G01 X4.0847 Y10.3875
G01 X4.0791 Y10.3702
G01 X4.0760 Y10.3584
G01 X4.0736 Y10.3465
G01 X4.0535 Y10.2352
G01 X4.0512 Y10.2161
G01 X4.0505 Y10.1969
G01 X4.0505 Y5.3175
G01 X4.0511 Y5.3002
G01 X4.0522 Y5.2887
G01 X4.0538 Y5.2773
G01 X4.0749 Y5.1636
G01 X4.0775 Y5.1515
G01 X4.0807 Y5.1396
G01 X4.0865 Y5.1221
G01 X4.0936 Y5.1050
G01 X4.0990 Y5.0940
G01 X4.1050 Y5.0832
G01 X4.1660 Y4.9845
G01 X4.1731 Y4.9736
G01 X4.1808 Y4.9631
G01 X4.1933 Y4.9482
G01 X4.2073 Y4.9335
G01 X4.2743 Y4.8663
G01 X4.2870 Y4.8545
G01 X4.3005 Y4.8436
G01 X4.4005 Y4.7747
G01 X4.4161 Y4.7649
G01 X4.4324 Y4.7562
G01 X4.4436 Y4.7511
G01 X4.4551 Y4.7465
G01 X4.4726 Y4.7407
G01 X4.4845 Y4.7376
G01 X4.5915 Y4.7125
G01 X4.6042 Y4.7098
G01 X4.6170 Y4.7078
G01 X4.6300 Y4.7065
G01 X4.6625 Y4.7055
G01 X11.3685 Y4.7055
G01 X11.3858 Y4.7061
G01 X11.3973 Y4.7072
G01 X11.4088 Y4.7088
G01 X11.5285 Y4.7312
G01 X11.5464 Y4.7357
G01 X11.5582 Y4.7394
G01 X11.5697 Y4.7437
G01 X11.5866 Y4.7512
G01 X11.5975 Y4.7569
G01 X11.6082 Y4.7631
G01 X11.7068 Y4.8243
G01 X11.7219 Y4.8350
G01 X11.7361 Y4.8467
G01 X11.7451 Y4.8551
G01 X11.7537 Y4.8640
G01 X11.7657 Y4.8780
G01 X11.8393 Y4.9755
G01 X11.8496 Y4.9909
G01 X11.8586 Y5.0070
G01 X11.8664 Y5.0238
G01 X11.8730 Y5.0410
G01 X11.8766 Y5.0528
G01 X11.9083 Y5.1644
G01 X11.9123 Y5.1825
G01 X11.9149 Y5.2008
G01 X11.9159 Y5.2131
G01 X11.9163 Y5.2254
G01 X11.9160 Y5.2377
G01 X11.9152 Y5.2500
G01 X11.9044 Y5.3654
G01 X11.9027 Y5.3773
G01 X11.8992 Y5.3949
G01 X11.8961 Y5.4065
G01 X11.8904 Y5.4236
G01 X11.8628 Y5.4926
G01 X11.8544 Y5.5101
G01 X11.8349 Y5.5472
G01 X11.7628 Y5.7558
G01 X11.7227 Y5.9758
G01 X11.7195 Y6.0361
G01 X11.7195 Y7.9813
G01 X11.7320 Y8.1450
G01 X11.7818 Y8.3600
G01 X11.8636 Y8.5650
G01 X11.9754 Y8.7553
G01 X12.1147 Y8.9264
G01 X12.2784 Y9.0745
G01 X12.4625 Y9.1961
G01 X12.6629 Y9.2885
G01 X12.8750 Y9.3496
G01 X13.0939 Y9.3778
G01 X13.3145 Y9.3726
G01 X13.5318 Y9.3341
G01 X13.7408 Y9.2631
G01 X13.8574 Y9.2025
G01 X13.8731 Y9.1951
G01 X13.8838 Y9.1907
G01 X13.9002 Y9.1851
G01 X14.0053 Y9.1533
G01 X14.0232 Y9.1486
G01 X14.0353 Y9.1462
G01 X14.0536 Y9.1437
G01 X14.0720 Y9.1426
G01 X14.0905 Y9.1428
G01 X14.2062 Y9.1515
G01 X14.2185 Y9.1527
G01 X14.2306 Y9.1546
G01 X14.2427 Y9.1570
G01 X14.2547 Y9.1600
G01 X14.2664 Y9.1636
G01 X14.2780 Y9.1678
G01 X14.2894 Y9.1725
G01 X14.3942 Y9.2224
G01 X14.4052 Y9.2280
G01 X14.4159 Y9.2341
G01 X14.4313 Y9.2442
G01 X14.4460 Y9.2555
G01 X14.4553 Y9.2636
G01 X14.4641 Y9.2721
G01 X14.5438 Y9.3564
G01 X14.5521 Y9.3656
G01 X14.5598 Y9.3752
G01 X14.5671 Y9.3851
G01 X14.5739 Y9.3954
G01 X14.5802 Y9.4060
G01 X14.5886 Y9.4224
G01 X14.5935 Y9.4337
G01 X14.6350 Y9.5355
G01 X14.6411 Y9.5523
G01 X14.6460 Y9.5694
G01 X14.6486 Y9.5810
G01 X14.6507 Y9.5928
G01 X14.6522 Y9.6046
G01 X14.6588 Y9.6708
G01 X14.6595 Y9.6897
G01 X14.6594 Y10.3748
G01 X14.6584 Y10.3921
G01 X14.6562 Y10.4092
G01 X14.6351 Y10.5229
G01 X14.6325 Y10.5350
G01 X14.6275 Y10.5528
G01 X14.6213 Y10.5702
G01 X14.6164 Y10.5815
G01 X14.6081 Y10.5980
G01 X14.6019 Y10.6086
G01 X14.5440 Y10.7020
G01 X14.5373 Y10.7124
G01 X14.5262 Y10.7272
G01 X14.5183 Y10.7366
G01 X14.5099 Y10.7456
G01 X14.5010 Y10.7541
G01 X14.4870 Y10.7662
G01 X14.3944 Y10.8362
G01 X14.3844 Y10.8433
G01 X14.3741 Y10.8500
G01 X14.3634 Y10.8562
G01 X14.3524 Y10.8618
G01 X14.3412 Y10.8669
G01 X14.3240 Y10.8734
G01 X14.3122 Y10.8771
G01 X14.2003 Y10.9089
G01 X14.1878 Y10.9117
G01 X14.1688 Y10.9148
G01 X14.1560 Y10.9161
G01 X14.1220 Y10.9177
G01 X14.1105 Y10.9180
G01 X12.6503 Y10.9180
G01 X12.6503 Y11.0667
G01 X12.6833 Y11.0912
G01 X12.6977 Y11.1027
G01 X12.7750 Y11.1727
G01 X12.7882 Y11.1855
G01 X12.8582 Y11.2627
G01 X12.8663 Y11.2720
G01 X12.8738 Y11.2817
G01 X12.9359 Y11.3655
G01 X12.9459 Y11.3809
G01 X12.9964 Y11.4651
G01 X13.0024 Y11.4758
G01 X13.0079 Y11.4867
G01 X13.0499 Y11.5754
G01 X13.0548 Y11.5866
G01 X13.0593 Y11.5981
G01 X13.0923 Y11.6905
G01 X13.0962 Y11.7021
G01 X13.0994 Y11.7140
G01 X13.1233 Y11.8092
G01 X13.1260 Y11.8211
G01 X13.1281 Y11.8332
G01 X13.1425 Y11.9303
G01 X13.1440 Y11.9425
G01 X13.1449 Y11.9547
G01 X13.1497 Y12.0527
G01 X13.1500 Y12.0650
G01 X13.1497 Y12.0773
G01 X13.1449 Y12.1753
G01 X13.1440 Y12.1875
G01 X13.1425 Y12.1997
G01 X13.1281 Y12.2968
G01 X13.1260 Y12.3089
G01 X13.1233 Y12.3208
G01 X13.0979 Y12.4220
G01 X13.0923 Y12.4395
G01 X13.0593 Y12.5319
G01 X13.0548 Y12.5434
G01 X13.0499 Y12.5546
G01 X13.0079 Y12.6433
G01 X13.0024 Y12.6542
G01 X12.9964 Y12.6649
G01 X12.9459 Y12.7491
G01 X12.9393 Y12.7595
G01 X12.9323 Y12.7695
G01 X12.8738 Y12.8483
G01 X12.8663 Y12.8580
G01 X12.8582 Y12.8673
G01 X12.7923 Y12.9400
G01 X12.7839 Y12.9489
G01 X12.7750 Y12.9573
G01 X12.7023 Y13.0232
G01 X12.6930 Y13.0313
G01 X12.6833 Y13.0388
G01 X12.6045 Y13.0973
G01 X12.5945 Y13.1043
G01 X12.5841 Y13.1109
G01 X12.4999 Y13.1614
G01 X12.4892 Y13.1674
G01 X12.4783 Y13.1729
G01 X12.3896 Y13.2149
G01 X12.3784 Y13.2198
G01 X12.3669 Y13.2243
G01 X12.2745 Y13.2573
G01 X12.2629 Y13.2612
G01 X12.2510 Y13.2644
G01 X12.1558 Y13.2883
G01 X12.1439 Y13.2910
G01 X12.1318 Y13.2931
G01 X12.0347 Y13.3075
G01 X12.0164 Y13.3095
G01 X11.9123 Y13.3147
G01 X11.9000 Y13.3150
G01 X11.8877 Y13.3147
G01 X11.7897 Y13.3099
G01 X11.7775 Y13.3090
G01 X11.7653 Y13.3075
G01 X11.6682 Y13.2931
G01 X11.6561 Y13.2910
G01 X11.6442 Y13.2883
G01 X11.5490 Y13.2644
G01 X11.5371 Y13.2612
G01 X11.5255 Y13.2573
G01 X11.4331 Y13.2243
G01 X11.4216 Y13.2198
G01 X11.4104 Y13.2149
G01 X11.3217 Y13.1729
G01 X11.3108 Y13.1674
G01 X11.3001 Y13.1614
G01 X11.2159 Y13.1109
G01 X11.2055 Y13.1043
G01 X11.1955 Y13.0973
G01 X11.1167 Y13.0388
G01 X11.1070 Y13.0313
G01 X11.0977 Y13.0232
G01 X11.0250 Y12.9573
G01 X11.0161 Y12.9489
G01 X11.0077 Y12.9400
G01 X10.9418 Y12.8673
G01 X10.9337 Y12.8580
G01 X10.9262 Y12.8483
G01 X10.8677 Y12.7695
G01 X10.8607 Y12.7595
G01 X10.8541 Y12.7491
G01 X10.8036 Y12.6649
G01 X10.7976 Y12.6542
G01 X10.7921 Y12.6433
G01 X10.7501 Y12.5546
G01 X10.7452 Y12.5434
G01 X10.7407 Y12.5319
G01 X10.7077 Y12.4395
G01 X10.7038 Y12.4279
G01 X10.7006 Y12.4160
G01 X10.6767 Y12.3208
G01 X10.6740 Y12.3089
G01 X10.6719 Y12.2968
G01 X10.6575 Y12.1997
G01 X10.6560 Y12.1875
G01 X10.6551 Y12.1753
G01 X10.6503 Y12.0773
G01 X10.6500 Y12.0650
G01 X10.6503 Y12.0527
G01 X10.6551 Y11.9547
G01 X10.6560 Y11.9425
G01 X10.6575 Y11.9303
G01 X10.6719 Y11.8332
G01 X10.6740 Y11.8211
G01 X10.6767 Y11.8092
G01 X10.7006 Y11.7140
G01 X10.7038 Y11.7021
G01 X10.7077 Y11.6905
G01 X10.7407 Y11.5981
G01 X10.7452 Y11.5866
G01 X10.7501 Y11.5754
G01 X10.7921 Y11.4867
G01 X10.7976 Y11.4758
G01 X10.8036 Y11.4651
G01 X10.8541 Y11.3809
G01 X10.8641 Y11.3655
G01 X10.9262 Y11.2817
G01 X10.9337 Y11.2720
G01 X10.9418 Y11.2627
G01 X11.0118 Y11.1855
G01 X11.0250 Y11.1727
G01 X11.1023 Y11.1027
G01 X11.1167 Y11.0912
G01 X11.1497 Y11.0667
G01 X11.1497 Y10.9180
G01 X9.3283 Y10.9180
G01 X9.2411 Y10.9174
G01 X9.2230 Y10.9162
G01 X9.2050 Y10.9137
G01 X9.1931 Y10.9113
G01 X9.1814 Y10.9083
G01 X9.1698 Y10.9047
G01 X9.1584 Y10.9006
G01 X9.0501 Y10.8586
G01 X9.0330 Y10.8507
G01 X9.0165 Y10.8415
G01 X9.0008 Y10.8311
G01 X8.9473 Y10.7908
G01 X8.9385 Y10.7835
G01 X8.9194 Y10.7663
G01 X8.7275 Y10.6150
G01 X8.5103 Y10.4888
G01 X8.2805 Y10.3960
G01 X8.0433 Y10.3371
G01 X7.8292 Y10.3150
G01 X7.6400 Y10.3150
G01 X7.6400 Y10.9150
G01 X7.7461 Y10.9151
G01 X7.8405 Y10.9196
G01 X7.8527 Y10.9205
G01 X7.8649 Y10.9220
G01 X7.9523 Y10.9350
G01 X7.9644 Y10.9371
G01 X7.9763 Y10.9398
G01 X8.0620 Y10.9612
G01 X8.0738 Y10.9645
G01 X8.0855 Y10.9684
G01 X8.1686 Y10.9981
G01 X8.1801 Y11.0025
G01 X8.1913 Y11.0075
G01 X8.2711 Y11.0453
G01 X8.2821 Y11.0508
G01 X8.2928 Y11.0568
G01 X8.3685 Y11.1022
G01 X8.3789 Y11.1088
G01 X8.3889 Y11.1159
G01 X8.4599 Y11.1685
G01 X8.4696 Y11.1760
G01 X8.4788 Y11.1841
G01 X8.5443 Y11.2434
G01 X8.5532 Y11.2518
G01 X8.5616 Y11.2607
G01 X8.6209 Y11.3262
G01 X8.6290 Y11.3354
G01 X8.6365 Y11.3451
G01 X8.6891 Y11.4161
G01 X8.6962 Y11.4261
G01 X8.7028 Y11.4365
G01 X8.7482 Y11.5122
G01 X8.7542 Y11.5229
G01 X8.7597 Y11.5339
G01 X8.7975 Y11.6137
G01 X8.8025 Y11.6249
G01 X8.8069 Y11.6364
G01 X8.8386 Y11.7253
G01 X8.8438 Y11.7430
G01 X8.8652 Y11.8287
G01 X8.8679 Y11.8406
G01 X8.8700 Y11.8527
G01 X8.8830 Y11.9401
G01 X8.8845 Y11.9523
G01 X8.8854 Y11.9645
G01 X8.8897 Y12.0527
G01 X8.8900 Y12.0650
G01 X8.8897 Y12.0773
G01 X8.8854 Y12.1655
G01 X8.8845 Y12.1777
G01 X8.8830 Y12.1899
G01 X8.8700 Y12.2773
G01 X8.8679 Y12.2894
G01 X8.8652 Y12.3013
G01 X8.8438 Y12.3870
G01 X8.8405 Y12.3988
G01 X8.8366 Y12.4105
G01 X8.8069 Y12.4936
G01 X8.8025 Y12.5051
G01 X8.7975 Y12.5163
G01 X8.7597 Y12.5961
G01 X8.7542 Y12.6071
G01 X8.7482 Y12.6178
G01 X8.7028 Y12.6935
G01 X8.6962 Y12.7039
G01 X8.6891 Y12.7139
G01 X8.6365 Y12.7849
G01 X8.6250 Y12.7992
G01 X8.5616 Y12.8693
G01 X8.5532 Y12.8782
G01 X8.5443 Y12.8866
G01 X8.4788 Y12.9459
G01 X8.4696 Y12.9540
G01 X8.4599 Y12.9615
G01 X8.3889 Y13.0141
G01 X8.3789 Y13.0212
G01 X8.3685 Y13.0278
G01 X8.2928 Y13.0732
G01 X8.2821 Y13.0792
G01 X8.2711 Y13.0847
G01 X8.1913 Y13.1225
G01 X8.1801 Y13.1275
G01 X8.1686 Y13.1319
G01 X8.0855 Y13.1616
G01 X8.0738 Y13.1655
G01 X8.0620 Y13.1688
G01 X7.9763 Y13.1902
G01 X7.9644 Y13.1929
G01 X7.9523 Y13.1950
G01 X7.8649 Y13.2080
G01 X7.8527 Y13.2095
G01 X7.8405 Y13.2104
G01 X7.7523 Y13.2147
G01 X7.7400 Y13.2150
G01 X5.9400 Y13.2150
G01 X5.9277 Y13.2147
G01 X5.8395 Y13.2104
G01 X5.8273 Y13.2095
G01 X5.8151 Y13.2080
G01 X5.7277 Y13.1950
G01 X5.7156 Y13.1929
G01 X5.7037 Y13.1902
G01 X5.6180 Y13.1688
G01 X5.6062 Y13.1655
G01 X5.5945 Y13.1616
G01 X5.5114 Y13.1319
G01 X5.4999 Y13.1275
G01 X5.4887 Y13.1225
G01 X5.4033 Y13.0820
G01 X5.3872 Y13.0732
G01 X5.3115 Y13.0278
G01 X5.3011 Y13.0212
G01 X5.2911 Y13.0141
G01 X5.2201 Y12.9615
G01 X5.2104 Y12.9540
G01 X5.2012 Y12.9459
G01 X5.1357 Y12.8866
G01 X5.1268 Y12.8782
G01 X5.1184 Y12.8693
G01 X5.0591 Y12.8038
G01 X5.0510 Y12.7946
G01 X5.0435 Y12.7849
G01 X4.9909 Y12.7139
G01 X4.9838 Y12.7039
G01 X4.9772 Y12.6935
G01 X4.9318 Y12.6178
G01 X4.9258 Y12.6071
G01 X4.9203 Y12.5961
G01 X4.8825 Y12.5163
G01 X4.8775 Y12.5051
G01 X4.8731 Y12.4936
G01 X4.8434 Y12.4105
G01 X4.8395 Y12.3988
G01 X4.8362 Y12.3870
G01 X4.8148 Y12.3013
G01 X4.8121 Y12.2894
G01 X4.8100 Y12.2773
G01 X4.7970 Y12.1899
G01 X4.7955 Y12.1777
G01 X4.7946 Y12.1655
G01 X4.7903 Y12.0773
G01 X4.7900 Y12.0650
G01 X4.7903 Y12.0527
G01 X4.7946 Y11.9645
G01 X4.7955 Y11.9523
G01 X4.7970 Y11.9401
G01 X4.8100 Y11.8527
G01 X4.8134 Y11.8346
G01 X4.8362 Y11.7430
G01 X4.8395 Y11.7312
G01 X4.8434 Y11.7195
G01 X4.8731 Y11.6364
G01 X4.8775 Y11.6249
G01 X4.8825 Y11.6137
G01 X4.9203 Y11.5339
G01 X4.9258 Y11.5229
G01 X4.9318 Y11.5122
G01 X4.9772 Y11.4365
G01 X4.9838 Y11.4261
G01 X4.9909 Y11.4161
G01 X5.0435 Y11.3451
G01 X5.0510 Y11.3354
G01 X5.0591 Y11.3262
G01 X5.1184 Y11.2607
G01 X5.1268 Y11.2518
G01 X5.1357 Y11.2434
G01 X5.2012 Y11.1841
G01 X5.2104 Y11.1760
G01 X5.2201 Y11.1685
G01 X5.2911 Y11.1159
G01 X5.3011 Y11.1088
G01 X5.3115 Y11.1022
G01 X5.3872 Y11.0568
G01 X5.3979 Y11.0508
G01 X5.4089 Y11.0453
G01 X5.4887 Y11.0075
G01 X5.4999 Y11.0025
G01 X5.5114 Y10.9981
G01 X5.5945 Y10.9684
G01 X5.6062 Y10.9645
G01 X5.6180 Y10.9612
G01 X5.7037 Y10.9398
G01 X5.7156 Y10.9371
G01 X5.7277 Y10.9350
G01 X5.8212 Y10.9212
G01 X5.8395 Y10.9196
G01 X5.9339 Y10.9151
G01 X6.0400 Y10.9150
G01 X6.0400 Y10.3150
G00 Z5.0000
G00 X8.6106 Y13.8547
G01 F60.00
G01 Z-0.1000
G01 F300.00
G01 X17.3042 Y13.8547
G01 X18.9186 Y12.2404
G01 X18.9125 Y12.1997
G01 X18.9105 Y12.1814
G01 X18.9053 Y12.0773
G01 X18.9051 Y12.0589
G01 X18.9101 Y11.9547
G01 X18.9110 Y11.9425
G01 X18.9125 Y11.9303
G01 X18.9279 Y11.8272
G01 X18.9317 Y11.8092
G01 X18.9556 Y11.7140
G01 X18.9588 Y11.7021
G01 X18.9627 Y11.6905
G01 X18.9957 Y11.5981
G01 X19.0002 Y11.5866
G01 X19.0051 Y11.5754
G01 X19.0498 Y11.4812
G01 X19.0586 Y11.4651
G01 X19.1091 Y11.3809
G01 X19.1157 Y11.3705
G01 X19.1227 Y11.3605
G01 X19.1812 Y11.2817
G01 X19.1887 Y11.2720
G01 X19.1968 Y11.2627
G01 X19.2627 Y11.1900
G01 X19.2711 Y11.1811
G01 X19.2800 Y11.1727
G01 X19.3527 Y11.1068
G01 X19.3620 Y11.0987
G01 X19.3717 Y11.0912
G01 X19.4505 Y11.0327
G01 X19.4605 Y11.0257
G01 X19.4709 Y11.0191
G01 X19.5551 Y10.9686
G01 X19.5712 Y10.9598
G01 X19.6654 Y10.9151
G01 X19.6766 Y10.9102
G01 X19.6881 Y10.9057
G01 X19.7805 Y10.8727
G01 X19.7921 Y10.8688
G01 X19.8040 Y10.8656
G01 X19.8992 Y10.8417
G01 X19.9111 Y10.8390
G01 X19.9232 Y10.8369
G01 X20.0203 Y10.8225
G01 X20.0325 Y10.8210
G01 X20.0447 Y10.8201
G01 X20.1427 Y10.8153
G01 X20.1550 Y10.8150
G01 X20.1673 Y10.8153
G01 X20.2653 Y10.8201
G01 X20.2775 Y10.8210
G01 X20.2897 Y10.8225
G01 X20.3868 Y10.8369
G01 X20.3989 Y10.8390
G01 X20.4108 Y10.8417
G01 X20.5060 Y10.8656
G01 X20.5179 Y10.8688
G01 X20.5295 Y10.8727
G01 X20.6219 Y10.9057
G01 X20.6334 Y10.9102
G01 X20.6446 Y10.9151
G01 X20.7333 Y10.9571
G01 X20.7442 Y10.9626
G01 X20.7549 Y10.9686
G01 X20.8391 Y11.0191
G01 X20.8495 Y11.0257
G01 X20.8595 Y11.0327
G01 X20.9383 Y11.0912
G01 X20.9480 Y11.0987
G01 X20.9573 Y11.1068
G01 X21.0300 Y11.1727
G01 X21.0389 Y11.1811
G01 X21.0473 Y11.1900
G01 X21.1132 Y11.2627
G01 X21.1213 Y11.2720
G01 X21.1288 Y11.2817
G01 X21.1873 Y11.3605
G01 X21.1943 Y11.3705
G01 X21.2009 Y11.3809
G01 X21.2514 Y11.4651
G01 X21.2574 Y11.4758
G01 X21.2629 Y11.4867
G01 X21.3049 Y11.5754
G01 X21.3098 Y11.5866
G01 X21.3143 Y11.5981
G01 X21.3473 Y11.6905
G01 X21.3512 Y11.7021
G01 X21.3544 Y11.7140
G01 X21.3783 Y11.8092
G01 X21.3810 Y11.8211
G01 X21.3831 Y11.8332
G01 X21.3975 Y11.9303
G01 X21.3990 Y11.9425
G01 X21.3999 Y11.9547
G01 X21.4047 Y12.0527
G01 X21.4050 Y12.0650
G01 X21.4047 Y12.0773
G01 X21.3999 Y12.1753
G01 X21.3990 Y12.1875
G01 X21.3975 Y12.1997
G01 X21.3831 Y12.2968
G01 X21.3810 Y12.3089
G01 X21.3783 Y12.3208
G01 X21.3544 Y12.4160
G01 X21.3512 Y12.4279
G01 X21.3473 Y12.4395
G01 X21.3143 Y12.5319
G01 X21.3098 Y12.5434
G01 X21.3049 Y12.5546
G01 X21.2629 Y12.6433
G01 X21.2574 Y12.6542
G01 X21.2514 Y12.6649
G01 X21.2009 Y12.7491
G01 X21.1943 Y12.7595
G01 X21.1873 Y12.7695
G01 X21.1288 Y12.8483
G01 X21.1213 Y12.8580
G01 X21.1132 Y12.8673
G01 X21.0473 Y12.9400
G01 X21.0345 Y12.9532
G01 X20.9573 Y13.0232
G01 X20.9480 Y13.0313
G01 X20.9383 Y13.0388
G01 X20.8595 Y13.0973
G01 X20.8495 Y13.1043
G01 X20.8391 Y13.1109
G01 X20.7549 Y13.1614
G01 X20.7442 Y13.1674
G01 X20.7333 Y13.1729
G01 X20.6446 Y13.2149
G01 X20.6334 Y13.2198
G01 X20.6219 Y13.2243
G01 X20.5237 Y13.2593
G01 X20.5060 Y13.2644
G01 X20.4108 Y13.2883
G01 X20.3989 Y13.2910
G01 X20.3868 Y13.2931
G01 X20.2897 Y13.3075
G01 X20.2714 Y13.3095
G01 X20.1673 Y13.3147
G01 X20.1489 Y13.3149
G01 X20.0386 Y13.3095
G01 X20.0203 Y13.3075
G01 X19.9796 Y13.3014
G01 X18.1455 Y15.1355
G01 X18.1366 Y15.1440
G01 X18.0910 Y15.1850
G01 X18.0418 Y15.2217
G01 X18.0318 Y15.2288
G01 X18.0214 Y15.2354
G01 X17.9687 Y15.2667
G01 X17.9133 Y15.2932
G01 X17.9021 Y15.2981
G01 X17.8907 Y15.3026
G01 X17.8328 Y15.3229
G01 X17.7733 Y15.3381
G01 X17.7614 Y15.3408
G01 X17.7493 Y15.3429
G01 X17.6885 Y15.3516
G01 X17.6273 Y15.3549
G01 X17.6150 Y15.3553
G01 X8.6106 Y15.3553
G01 X8.5616 Y15.4093
G01 X8.5532 Y15.4182
G01 X8.5443 Y15.4266
G01 X8.4788 Y15.4859
G01 X8.4696 Y15.4940
G01 X8.4599 Y15.5015
G01 X8.3889 Y15.5541
G01 X8.3789 Y15.5612
G01 X8.3685 Y15.5678
G01 X8.2875 Y15.6163
G01 X8.2711 Y15.6247
G01 X8.1913 Y15.6625
G01 X8.1801 Y15.6675
G01 X8.1686 Y15.6719
G01 X8.0855 Y15.7016
G01 X8.0738 Y15.7055
G01 X8.0620 Y15.7088
G01 X7.9763 Y15.7302
G01 X7.9644 Y15.7329
G01 X7.9523 Y15.7350
G01 X7.8649 Y15.7480
G01 X7.8527 Y15.7495
G01 X7.8405 Y15.7504
G01 X7.7523 Y15.7547
G01 X7.7400 Y15.7550
G01 X5.9339 Y15.7549
G01 X5.8395 Y15.7504
G01 X5.8273 Y15.7495
G01 X5.8151 Y15.7480
G01 X5.7277 Y15.7350
G01 X5.7156 Y15.7329
G01 X5.7037 Y15.7302
G01 X5.6180 Y15.7088
G01 X5.6062 Y15.7055
G01 X5.5945 Y15.7016
G01 X5.5114 Y15.6719
G01 X5.4999 Y15.6675
G01 X5.4887 Y15.6625
G01 X5.4089 Y15.6247
G01 X5.3979 Y15.6192
G01 X5.3872 Y15.6132
G01 X5.3115 Y15.5678
G01 X5.3011 Y15.5612
G01 X5.2911 Y15.5541
G01 X5.2201 Y15.5015
G01 X5.2104 Y15.4940
G01 X5.2012 Y15.4859
G01 X5.1357 Y15.4266
G01 X5.1268 Y15.4182
G01 X5.1184 Y15.4093
G01 X5.0591 Y15.3438
G01 X5.0510 Y15.3346
G01 X5.0435 Y15.3249
G01 X4.9909 Y15.2539
G01 X4.9838 Y15.2439
G01 X4.9772 Y15.2335
G01 X4.9318 Y15.1578
G01 X4.9258 Y15.1471
G01 X4.9203 Y15.1361
G01 X4.8825 Y15.0563
G01 X4.8775 Y15.0451
G01 X4.8731 Y15.0336
G01 X4.8434 Y14.9505
G01 X4.8378 Y14.9329
G01 X4.8148 Y14.8413
G01 X4.8121 Y14.8294
G01 X4.8100 Y14.8173
G01 X4.7970 Y14.7299
G01 X4.7955 Y14.7177
G01 X4.7946 Y14.7055
G01 X4.7903 Y14.6173
G01 X4.7900 Y14.6050
G01 X4.7903 Y14.5927
G01 X4.7946 Y14.5045
G01 X4.7955 Y14.4923
G01 X4.7970 Y14.4801
G01 X4.8100 Y14.3927
G01 X4.8121 Y14.3806
G01 X4.8148 Y14.3687
G01 X4.8362 Y14.2830
G01 X4.8395 Y14.2712
G01 X4.8434 Y14.2595
G01 X4.8731 Y14.1764
G01 X4.8775 Y14.1649
G01 X4.8825 Y14.1537
G01 X4.9203 Y14.0739
G01 X4.9258 Y14.0629
G01 X4.9318 Y14.0522
G01 X4.9772 Y13.9765
G01 X4.9838 Y13.9661
G01 X4.9909 Y13.9561
G01 X5.0435 Y13.8851
G01 X5.0510 Y13.8754
G01 X5.0591 Y13.8662
G01 X5.1184 Y13.8007
G01 X5.1268 Y13.7918
G01 X5.1357 Y13.7834
G01 X5.2012 Y13.7241
G01 X5.2104 Y13.7160
G01 X5.2201 Y13.7085
G01 X5.2911 Y13.6559
G01 X5.3011 Y13.6488
G01 X5.3115 Y13.6422
G01 X5.3872 Y13.5968
G01 X5.3979 Y13.5908
G01 X5.4089 Y13.5853
G01 X5.4887 Y13.5475
G01 X5.4999 Y13.5425
G01 X5.5114 Y13.5381
G01 X5.5945 Y13.5084
G01 X5.6121 Y13.5028
G01 X5.7037 Y13.4798
G01 X5.7156 Y13.4771
G01 X5.7277 Y13.4750
G01 X5.8151 Y13.4620
G01 X5.8273 Y13.4605
G01 X5.8395 Y13.4596
G01 X5.9339 Y13.4551
G01 X7.7400 Y13.4550
G01 X7.7523 Y13.4553
G01 X7.8405 Y13.4596
G01 X7.8588 Y13.4612
G01 X7.9523 Y13.4750
G01 X7.9644 Y13.4771
G01 X7.9763 Y13.4798
G01 X8.0620 Y13.5012
G01 X8.0738 Y13.5045
G01 X8.0855 Y13.5084
G01 X8.1686 Y13.5381
G01 X8.1801 Y13.5425
G01 X8.1913 Y13.5475
G01 X8.2711 Y13.5853
G01 X8.2821 Y13.5908
G01 X8.2928 Y13.5968
G01 X8.3685 Y13.6422
G01 X8.3789 Y13.6488
G01 X8.3889 Y13.6559
G01 X8.4599 Y13.7085
G01 X8.4696 Y13.7160
G01 X8.4788 Y13.7241
G01 X8.5443 Y13.7834
G01 X8.5532 Y13.7918
G01 X8.5616 Y13.8007
G01 X8.6106 Y13.8547
G00 Z5.0000
G00 X8.1723 Y15.9943
G01 F60.00
G01 Z-0.1000
G01 F300.00
G01 X8.3800 Y15.9114
G01 X8.5703 Y15.7996
G01 X8.6050 Y15.7717
G01 X8.6144 Y15.7650
G01 X8.6242 Y15.7588
G01 X8.7307 Y15.7005
G01 X8.7471 Y15.6924
G01 X8.7583 Y15.6876
G01 X8.7697 Y15.6834
G01 X8.7873 Y15.6781
G01 X8.7992 Y15.6754
G01 X8.8112 Y15.6732
G01 X8.9034 Y15.6586
G01 X8.9164 Y15.6569
G01 X8.9294 Y15.6558
G01 X8.9425 Y15.6555
G01 X9.6960 Y15.6555
G01 X9.7133 Y15.6561
G01 X9.7305 Y15.6579
G01 X9.8499 Y15.6799
G01 X9.8620 Y15.6825
G01 X9.8739 Y15.6857
G01 X9.8856 Y15.6894
G01 X9.8972 Y15.6937
G01 X9.9085 Y15.6986
G01 X9.9250 Y15.7069
G01 X9.9356 Y15.7131
G01 X10.0290 Y15.7710
G01 X10.0394 Y15.7777
G01 X10.0493 Y15.7850
G01 X10.0636 Y15.7967
G01 X10.0726 Y15.8051
G01 X10.0853 Y15.8186
G01 X10.0969 Y15.8329
G01 X10.1668 Y15.9255
G01 X10.1737 Y15.9357
G01 X10.1802 Y15.9462
G01 X10.1861 Y15.9570
G01 X10.1914 Y15.9681
G01 X10.1984 Y15.9852
G01 X10.2024 Y15.9969
G01 X10.2342 Y16.1085
G01 X10.2374 Y16.1209
G01 X10.2399 Y16.1335
G01 X10.2418 Y16.1462
G01 X10.2431 Y16.1590
G01 X10.2450 Y16.2045
G01 X10.2450 Y17.7590
G01 X10.2444 Y17.7763
G01 X10.2433 Y17.7878
G01 X10.2417 Y17.7992
G01 X10.2206 Y17.9129
G01 X10.2180 Y17.9250
G01 X10.2148 Y17.9369
G01 X10.2090 Y17.9544
G01 X10.2044 Y17.9658
G01 X10.1993 Y17.9770
G01 X10.1905 Y17.9933
G01 X10.1295 Y18.0920
G01 X10.1228 Y18.1023
G01 X10.1155 Y18.1123
G01 X10.1038 Y18.1265
G01 X10.0954 Y18.1355
G01 X10.0819 Y18.1482
G01 X10.0676 Y18.1599
G01 X9.9750 Y18.2298
G01 X9.9648 Y18.2367
G01 X9.9543 Y18.2431
G01 X9.9435 Y18.2490
G01 X9.9324 Y18.2544
G01 X9.9153 Y18.2614
G01 X9.9036 Y18.2653
G01 X9.7920 Y18.2971
G01 X9.7801 Y18.3002
G01 X9.7680 Y18.3027
G01 X9.7558 Y18.3046
G01 X9.7436 Y18.3059
G01 X9.7313 Y18.3066
G01 X9.7190 Y18.3066
G01 X9.7005 Y18.3056
G01 X9.5850 Y18.2948
G01 X9.5667 Y18.2920
G01 X9.5487 Y18.2878
G01 X9.5311 Y18.2823
G01 X9.5196 Y18.2780
G01 X9.5083 Y18.2730
G01 X9.4044 Y18.2214
G01 X9.3877 Y18.2122
G01 X9.3717 Y18.2018
G01 X9.3565 Y18.1903
G01 X9.3119 Y18.1512
G01 X9.1340 Y17.9734
G01 X9.1252 Y17.9641
G01 X9.1169 Y17.9545
G01 X9.1091 Y17.9444
G01 X9.0552 Y17.8708
G01 X9.0479 Y17.8603
G01 X9.0412 Y17.8494
G01 X9.0350 Y17.8383
G01 X8.9364 Y17.6484
G01 X8.8062 Y17.4702
G01 X8.6506 Y17.3137
G01 X8.4731 Y17.1826
G01 X8.2778 Y17.0799
G01 X8.1495 Y17.0355
G01 X8.1335 Y17.0289
G01 X8.1231 Y17.0239
G01 X8.0174 Y16.9641
G01 X8.0017 Y16.9544
G01 X7.9917 Y16.9473
G01 X7.9773 Y16.9357
G01 X7.9682 Y16.9274
G01 X7.9553 Y16.9141
G01 X7.9473 Y16.9048
G01 X7.8740 Y16.8148
G01 X7.8632 Y16.7998
G01 X7.8536 Y16.7840
G01 X7.8452 Y16.7676
G01 X7.8402 Y16.7563
G01 X7.8359 Y16.7448
G01 X7.7981 Y16.6286
G01 X7.7935 Y16.6107
G01 X7.7902 Y16.5925
G01 X7.7882 Y16.5741
G01 X7.7877 Y16.5556
G01 X7.7880 Y16.5433
G01 X7.7945 Y16.4275
G01 X7.7967 Y16.4091
G01 X7.8002 Y16.3910
G01 X7.8033 Y16.3791
G01 X7.8069 Y16.3673
G01 X7.8135 Y16.3500
G01 X7.8639 Y16.2387
G01 X7.8725 Y16.2224
G01 X7.8823 Y16.2067
G01 X7.8933 Y16.1918
G01 X7.9053 Y16.1778
G01 X7.9139 Y16.1689
G01 X7.9968 Y16.0876
G01 X8.0112 Y16.0752
G01 X8.0264 Y16.0639
G01 X8.0425 Y16.0538
G01 X8.0536 Y16.0478
G01 X8.1346 Y16.0088
G01 X8.1514 Y16.0014
G01 X8.1629 Y15.9972
G01 X8.1723 Y15.9943
G00 Z5.0000
G00 X4.9894 Y15.7063
G01 F60.00
G01 Z-0.1000
G01 F300.00
G01 X5.1669 Y15.8374
G01 X5.3622 Y15.9401
G01 X5.4905 Y15.9845
G01 X5.5065 Y15.9911
G01 X5.5169 Y15.9961
G01 X5.6226 Y16.0559
G01 X5.6383 Y16.0656
G01 X5.6532 Y16.0765
G01 X5.6627 Y16.0843
G01 X5.6718 Y16.0926
G01 X5.6847 Y16.1059
G01 X5.6927 Y16.1152
G01 X5.7660 Y16.2052
G01 X5.7733 Y16.2151
G01 X5.7801 Y16.2254
G01 X5.7893 Y16.2414
G01 X5.7974 Y16.2580
G01 X5.8041 Y16.2752
G01 X5.8401 Y16.3856
G01 X5.8436 Y16.3974
G01 X5.8478 Y16.4154
G01 X5.8506 Y16.4336
G01 X5.8521 Y16.4520
G01 X5.8522 Y16.4705
G01 X5.8459 Y16.5864
G01 X5.8449 Y16.5987
G01 X5.8433 Y16.6109
G01 X5.8411 Y16.6230
G01 X5.8384 Y16.6350
G01 X5.8331 Y16.6527
G01 X5.8288 Y16.6643
G01 X5.8240 Y16.6756
G01 X5.7761 Y16.7813
G01 X5.7705 Y16.7923
G01 X5.7644 Y16.8029
G01 X5.7542 Y16.8183
G01 X5.7467 Y16.8282
G01 X5.7388 Y16.8376
G01 X5.7261 Y16.8511
G01 X5.6432 Y16.9324
G01 X5.6288 Y16.9448
G01 X5.6188 Y16.9525
G01 X5.6030 Y16.9630
G01 X5.5864 Y16.9722
G01 X5.5054 Y17.0112
G01 X5.4942 Y17.0163
G01 X5.4829 Y17.0207
G01 X5.4677 Y17.0257
G01 X5.2600 Y17.1086
G01 X5.0697 Y17.2204
G01 X4.9461 Y17.3211
G01 X4.9370 Y17.3281
G01 X4.9227 Y17.3380
G01 X4.9078 Y17.3468
G01 X4.8058 Y17.4022
G01 X4.7891 Y17.4100
G01 X4.7718 Y17.4165
G01 X4.7541 Y17.4218
G01 X4.7361 Y17.4258
G01 X4.7239 Y17.4276
G01 X4.6149 Y17.4418
G01 X4.5965 Y17.4435
G01 X4.5842 Y17.4438
G01 X4.5719 Y17.4436
G01 X4.5596 Y17.4428
G01 X4.5474 Y17.4413
G01 X4.5292 Y17.4380
G01 X4.4165 Y17.4104
G01 X4.4046 Y17.4072
G01 X4.3929 Y17.4034
G01 X4.3814 Y17.3990
G01 X4.3701 Y17.3941
G01 X4.3591 Y17.3886
G01 X4.3431 Y17.3793
G01 X4.3328 Y17.3725
G01 X4.2377 Y17.3059
G01 X4.2233 Y17.2944
G01 X4.2097 Y17.2819
G01 X4.1971 Y17.2684
G01 X4.1855 Y17.2540
G01 X4.1784 Y17.2439
G01 X4.1139 Y17.1476
G01 X4.1047 Y17.1319
G01 X4.0992 Y17.1211
G01 X4.0943 Y17.1101
G01 X4.0878 Y17.0931
G01 X4.0843 Y17.0815
G01 X4.0812 Y17.0698
G01 X4.0556 Y16.9457
G01 X4.0534 Y16.9332
G01 X4.0518 Y16.9206
G01 X4.0508 Y16.9080
G01 X4.0505 Y16.8953
G01 X4.0506 Y16.0870
G01 X4.0511 Y16.0754
G01 X4.0522 Y16.0639
G01 X4.0548 Y16.0468
G01 X4.0762 Y15.9328
G01 X4.0790 Y15.9208
G01 X4.0844 Y15.9031
G01 X4.0887 Y15.8916
G01 X4.0936 Y15.8802
G01 X4.0990 Y15.8692
G01 X4.1050 Y15.8584
G01 X4.1693 Y15.7545
G01 X4.1800 Y15.7394
G01 X4.1917 Y15.7252
G01 X4.2001 Y15.7162
G01 X4.2090 Y15.7076
G01 X4.2230 Y15.6956
G01 X4.3205 Y15.6219
G01 X4.3307 Y15.6150
G01 X4.3412 Y15.6086
G01 X4.3576 Y15.5999
G01 X4.3745 Y15.5925
G01 X4.3919 Y15.5864
G01 X4.5035 Y15.5546
G01 X4.5214 Y15.5502
G01 X4.5397 Y15.5471
G01 X4.5519 Y15.5458
G01 X4.5704 Y15.5450
G01 X4.5888 Y15.5456
G01 X4.7105 Y15.5569
G01 X4.7227 Y15.5586
G01 X4.7348 Y15.5609
G01 X4.7468 Y15.5639
G01 X4.7586 Y15.5674
G01 X4.7759 Y15.5737
G01 X4.7928 Y15.5814
G01 X4.8911 Y15.6303
G01 X4.9079 Y15.6395
G01 X4.9240 Y15.6500
G01 X4.9392 Y15.6616
G01 X4.9758 Y15.6935
G01 X4.9894 Y15.7063
G00 Z5.0000
G00 X8.1045 Y19.4905
G01 F60.00
G01 Z-0.1000
G01 F300.00
G01 X8.0455 Y19.5116
G01 X8.0338 Y19.5155
G01 X8.0220 Y19.5188
G01 X7.9363 Y19.5402
G01 X7.9244 Y19.5429
G01 X7.9123 Y19.5450
G01 X7.8249 Y19.5580
G01 X7.8127 Y19.5595
G01 X7.8005 Y19.5604
G01 X7.7061 Y19.5649
G01 X5.8939 Y19.5649
G01 X5.7995 Y19.5604
G01 X5.7873 Y19.5595
G01 X5.7751 Y19.5580
G01 X5.6877 Y19.5450
G01 X5.6756 Y19.5429
G01 X5.6637 Y19.5402
G01 X5.5780 Y19.5188
G01 X5.5662 Y19.5155
G01 X5.5545 Y19.5116
G01 X5.4714 Y19.4819
G01 X5.4599 Y19.4775
G01 X5.4487 Y19.4725
G01 X5.3633 Y19.4320
G01 X5.3472 Y19.4232
G01 X5.2715 Y19.3778
G01 X5.2611 Y19.3712
G01 X5.2511 Y19.3641
G01 X5.1801 Y19.3115
G01 X5.1704 Y19.3040
G01 X5.1612 Y19.2959
G01 X5.0957 Y19.2366
G01 X5.0868 Y19.2282
G01 X5.0784 Y19.2193
G01 X5.0191 Y19.1538
G01 X5.0110 Y19.1446
G01 X5.0035 Y19.1349
G01 X4.9509 Y19.0639
G01 X4.9438 Y19.0539
G01 X4.9372 Y19.0435
G01 X4.8918 Y18.9678
G01 X4.8858 Y18.9571
G01 X4.8803 Y18.9461
G01 X4.8425 Y18.8663
G01 X4.8375 Y18.8551
G01 X4.8331 Y18.8436
G01 X4.8034 Y18.7605
G01 X4.7995 Y18.7488
G01 X4.7962 Y18.7370
G01 X4.7748 Y18.6513
G01 X4.7721 Y18.6394
G01 X4.7700 Y18.6273
G01 X4.7570 Y18.5399
G01 X4.7555 Y18.5277
G01 X4.7546 Y18.5155
G01 X4.7503 Y18.4273
G01 X4.7500 Y18.4150
G01 X4.7503 Y18.4027
G01 X4.7546 Y18.3145
G01 X4.7555 Y18.3023
G01 X4.7570 Y18.2901
G01 X4.7700 Y18.2027
G01 X4.7721 Y18.1906
G01 X4.7748 Y18.1787
G01 X4.7962 Y18.0930
G01 X4.7995 Y18.0812
G01 X4.8034 Y18.0695
G01 X4.8331 Y17.9864
G01 X4.8375 Y17.9749
G01 X4.8425 Y17.9637
G01 X4.8830 Y17.8783
G01 X4.8918 Y17.8622
G01 X4.9372 Y17.7865
G01 X4.9438 Y17.7761
G01 X4.9509 Y17.7661
G01 X5.0035 Y17.6951
G01 X5.0110 Y17.6854
G01 X5.0191 Y17.6762
G01 X5.0784 Y17.6107
G01 X5.0868 Y17.6018
G01 X5.0957 Y17.5934
G01 X5.1612 Y17.5341
G01 X5.1704 Y17.5260
G01 X5.1801 Y17.5185
G01 X5.2511 Y17.4659
G01 X5.2611 Y17.4588
G01 X5.2715 Y17.4522
G01 X5.3472 Y17.4068
G01 X5.3579 Y17.4008
G01 X5.3689 Y17.3953
G01 X5.4487 Y17.3575
G01 X5.4599 Y17.3525
G01 X5.4714 Y17.3481
G01 X5.5545 Y17.3184
G01 X5.5662 Y17.3145
G01 X5.5780 Y17.3112
G01 X5.6637 Y17.2898
G01 X5.6756 Y17.2871
G01 X5.6877 Y17.2850
G01 X5.7751 Y17.2720
G01 X5.7873 Y17.2705
G01 X5.7995 Y17.2696
G01 X5.8877 Y17.2653
G01 X5.9000 Y17.2650
G01 X7.7061 Y17.2651
G01 X7.8005 Y17.2696
G01 X7.8127 Y17.2705
G01 X7.8249 Y17.2720
G01 X7.9123 Y17.2850
G01 X7.9244 Y17.2871
G01 X7.9363 Y17.2898
G01 X8.0220 Y17.3112
G01 X8.0338 Y17.3145
G01 X8.0455 Y17.3184
G01 X8.1286 Y17.3481
G01 X8.1457 Y17.3550
G01 X8.2311 Y17.3953
G01 X8.2421 Y17.4008
G01 X8.2528 Y17.4068
G01 X8.3285 Y17.4522
G01 X8.3389 Y17.4588
G01 X8.3489 Y17.4659
G01 X8.4199 Y17.5185
G01 X8.4296 Y17.5260
G01 X8.4388 Y17.5341
G01 X8.5043 Y17.5934
G01 X8.5132 Y17.6018
G01 X8.5216 Y17.6107
G01 X8.5809 Y17.6762
G01 X8.5890 Y17.6854
G01 X8.5965 Y17.6951
G01 X8.6491 Y17.7661
G01 X8.6562 Y17.7761
G01 X8.6628 Y17.7865
G01 X8.7082 Y17.8622
G01 X8.7142 Y17.8729
G01 X8.7197 Y17.8839
G01 X8.7575 Y17.9637
G01 X8.7625 Y17.9749
G01 X8.7669 Y17.9864
G01 X8.7917 Y18.0557
G01 X11.5758 Y20.8397
G01 X19.1567 Y20.8397
G01 X19.1812 Y20.8067
G01 X19.1927 Y20.7923
G01 X19.2668 Y20.7105
G01 X19.2800 Y20.6977
G01 X19.3527 Y20.6318
G01 X19.3668 Y20.6199
G01 X19.4505 Y20.5577
G01 X19.4605 Y20.5507
G01 X19.4709 Y20.5441
G01 X19.5551 Y20.4936
G01 X19.5658 Y20.4876
G01 X19.5767 Y20.4821
G01 X19.6710 Y20.4376
G01 X19.6881 Y20.4307
G01 X19.7805 Y20.3977
G01 X19.7921 Y20.3938
G01 X19.8040 Y20.3906
G01 X19.8992 Y20.3667
G01 X19.9111 Y20.3640
G01 X19.9232 Y20.3619
G01 X20.0203 Y20.3475
G01 X20.0325 Y20.3460
G01 X20.0447 Y20.3451
G01 X20.1427 Y20.3403
G01 X20.1550 Y20.3400
G01 X20.1673 Y20.3403
G01 X20.2653 Y20.3451
G01 X20.2775 Y20.3460
G01 X20.2897 Y20.3475
G01 X20.3868 Y20.3619
G01 X20.3989 Y20.3640
G01 X20.4108 Y20.3667
G01 X20.5060 Y20.3906
G01 X20.5179 Y20.3938
G01 X20.5295 Y20.3977
G01 X20.6219 Y20.4307
G01 X20.6334 Y20.4352
G01 X20.6446 Y20.4401
G01 X20.7333 Y20.4821
G01 X20.7442 Y20.4876
G01 X20.7549 Y20.4936
G01 X20.8391 Y20.5441
G01 X20.8495 Y20.5507
G01 X20.8595 Y20.5577
G01 X20.9383 Y20.6162
G01 X20.9480 Y20.6237
G01 X20.9573 Y20.6318
G01 X21.0300 Y20.6977
G01 X21.0389 Y20.7061
G01 X21.0473 Y20.7150
G01 X21.1132 Y20.7877
G01 X21.1213 Y20.7970
G01 X21.1288 Y20.8067
G01 X21.1873 Y20.8855
G01 X21.1943 Y20.8955
G01 X21.2009 Y20.9059
G01 X21.2514 Y20.9901
G01 X21.2574 Y21.0008
G01 X21.2629 Y21.0117
G01 X21.3049 Y21.1004
G01 X21.3098 Y21.1116
G01 X21.3143 Y21.1231
G01 X21.3473 Y21.2155
G01 X21.3512 Y21.2271
G01 X21.3544 Y21.2390
G01 X21.3783 Y21.3342
G01 X21.3810 Y21.3461
G01 X21.3831 Y21.3582
G01 X21.3975 Y21.4553
G01 X21.3990 Y21.4675
G01 X21.3999 Y21.4797
G01 X21.4047 Y21.5777
G01 X21.4050 Y21.5900
G01 X21.4047 Y21.6023
G01 X21.3999 Y21.7003
G01 X21.3990 Y21.7125
G01 X21.3975 Y21.7247
G01 X21.3821 Y21.8278
G01 X21.3783 Y21.8458
G01 X21.3544 Y21.9410
G01 X21.3512 Y21.9529
G01 X21.3473 Y21.9645
G01 X21.3143 Y22.0569
G01 X21.3098 Y22.0684
G01 X21.3049 Y22.0796
G01 X21.2629 Y22.1683
G01 X21.2574 Y22.1792
G01 X21.2514 Y22.1899
G01 X21.2009 Y22.2741
G01 X21.1943 Y22.2845
G01 X21.1873 Y22.2945
G01 X21.1288 Y22.3733
G01 X21.1213 Y22.3830
G01 X21.1132 Y22.3923
G01 X21.0473 Y22.4650
G01 X21.0389 Y22.4739
G01 X21.0300 Y22.4823
G01 X20.9573 Y22.5482
G01 X20.9480 Y22.5563
G01 X20.9383 Y22.5638
G01 X20.8595 Y22.6223
G01 X20.8495 Y22.6293
G01 X20.8391 Y22.6359
G01 X20.7549 Y22.6864
G01 X20.7442 Y22.6924
G01 X20.7333 Y22.6979
G01 X20.6446 Y22.7399
G01 X20.6334 Y22.7448
G01 X20.6219 Y22.7493
G01 X20.5295 Y22.7823
G01 X20.5179 Y22.7862
G01 X20.5060 Y22.7894
G01 X20.4108 Y22.8133
G01 X20.3989 Y22.8160
G01 X20.3868 Y22.8181
G01 X20.2897 Y22.8325
G01 X20.2775 Y22.8340
G01 X20.2653 Y22.8349
G01 X20.1673 Y22.8397
G01 X20.1550 Y22.8400
G01 X20.1427 Y22.8397
G01 X20.0447 Y22.8349
G01 X20.0325 Y22.8340
G01 X20.0203 Y22.8325
G01 X19.9232 Y22.8181
G01 X19.9111 Y22.8160
G01 X19.8992 Y22.8133
G01 X19.8040 Y22.7894
G01 X19.7921 Y22.7862
G01 X19.7805 Y22.7823
G01 X19.6881 Y22.7493
G01 X19.6766 Y22.7448
G01 X19.6654 Y22.7399
G01 X19.5712 Y22.6952
G01 X19.5551 Y22.6864
G01 X19.4709 Y22.6359
G01 X19.4605 Y22.6293
G01 X19.4505 Y22.6223
G01 X19.3717 Y22.5638
G01 X19.3573 Y22.5523
G01 X19.2800 Y22.4823
G01 X19.2668 Y22.4695
G01 X19.1927 Y22.3877
G01 X19.1812 Y22.3733
G01 X19.1567 Y22.3403
G01 X11.2650 Y22.3403
G01 X11.2037 Y22.3375
G01 X11.1915 Y22.3366
G01 X11.1793 Y22.3351
G01 X11.1247 Y22.3270
G01 X11.1067 Y22.3231
G01 X11.0590 Y22.3112
G01 X11.0472 Y22.3079
G01 X11.0356 Y22.3041
G01 X10.9779 Y22.2831
G01 X10.9223 Y22.2572
G01 X10.9113 Y22.2517
G01 X10.8586 Y22.2204
G01 X10.8482 Y22.2138
G01 X10.8382 Y22.2067
G01 X10.7890 Y22.1700
G01 X10.7798 Y22.1619
G01 X10.7389 Y22.1248
G01 X8.1045 Y19.4905
G00 Z5.0000
G00 X8.0776 Y22.3704
G01 F60.00
G01 Z-0.1000
G01 F300.00
G01 X8.0951 Y22.3605
G01 X8.1117 Y22.3526
G01 X8.3400 Y22.2614
G01 X8.5303 Y22.1496
G01 X8.7014 Y22.0103
G01 X8.8495 Y21.8466
G01 X8.9508 Y21.6933
G01 X8.9609 Y21.6792
G01 X8.9681 Y21.6702
G01 X8.9797 Y21.6573
G01 X9.0604 Y21.5740
G01 X9.0694 Y21.5655
G01 X9.0836 Y21.5537
G01 X9.0936 Y21.5465
G01 X9.1039 Y21.5397
G01 X9.1145 Y21.5335
G01 X9.1254 Y21.5278
G01 X9.2364 Y21.4766
G01 X9.2478 Y21.4720
G01 X9.2594 Y21.4679
G01 X9.2712 Y21.4645
G01 X9.2893 Y21.4604
G01 X9.3014 Y21.4584
G01 X9.3198 Y21.4565
G01 X9.4295 Y21.4496
G01 X9.4418 Y21.4492
G01 X9.4603 Y21.4496
G01 X9.4786 Y21.4514
G01 X9.4968 Y21.4545
G01 X9.5148 Y21.4590
G01 X9.6311 Y21.4958
G01 X9.6476 Y21.5022
G01 X9.6637 Y21.5097
G01 X9.6793 Y21.5183
G01 X9.6941 Y21.5281
G01 X9.7693 Y21.5837
G01 X9.7836 Y21.5952
G01 X9.7971 Y21.6077
G01 X10.5872 Y22.3978
G01 X10.6140 Y22.4169
G01 X10.6390 Y22.4362
G01 X10.6602 Y22.4538
G01 X10.6840 Y22.4676
G01 X10.7106 Y22.4845
G01 X10.7377 Y22.5032
G01 X10.7627 Y22.5149
G01 X10.7907 Y22.5294
G01 X10.8193 Y22.5457
G01 X10.8452 Y22.5552
G01 X10.8743 Y22.5672
G01 X10.9043 Y22.5809
G01 X10.9361 Y22.5897
G01 X10.9662 Y22.5992
G01 X10.9921 Y22.6086
G01 X11.0192 Y22.6134
G01 X11.0553 Y22.6214
G01 X11.1114 Y22.6366
G01 X11.1230 Y22.6404
G01 X11.1343 Y22.6448
G01 X11.1455 Y22.6498
G01 X11.1586 Y22.6565
G01 X11.2153 Y22.6779
G01 X11.2322 Y22.6854
G01 X11.2431 Y22.6912
G01 X11.2537 Y22.6974
G01 X11.2640 Y22.7042
G01 X11.2788 Y22.7152
G01 X11.2882 Y22.7232
G01 X11.3702 Y22.7964
G01 X11.3791 Y22.8048
G01 X11.3918 Y22.8183
G01 X11.3997 Y22.8277
G01 X11.4071 Y22.8376
G01 X11.4173 Y22.8530
G01 X11.4263 Y22.8691
G01 X11.4763 Y22.9670
G01 X11.4816 Y22.9781
G01 X11.4885 Y22.9952
G01 X11.4925 Y23.0069
G01 X11.4958 Y23.0188
G01 X11.4997 Y23.0368
G01 X11.5023 Y23.0551
G01 X11.5141 Y23.1705
G01 X11.5149 Y23.1890
G01 X11.5143 Y23.2075
G01 X11.5131 Y23.2197
G01 X11.5114 Y23.2319
G01 X11.5076 Y23.2500
G01 X11.4754 Y23.3679
G01 X11.4694 Y23.3854
G01 X11.4647 Y23.3968
G01 X11.4595 Y23.4079
G01 X11.4537 Y23.4188
G01 X11.4474 Y23.4294
G01 X11.4369 Y23.4446
G01 X11.3716 Y23.5330
G01 X11.3601 Y23.5474
G01 X11.3518 Y23.5566
G01 X11.3386 Y23.5695
G01 X11.3245 Y23.5814
G01 X11.3146 Y23.5887
G01 X11.3044 Y23.5956
G01 X11.2062 Y23.6577
G01 X11.1898 Y23.6667
G01 X11.1785 Y23.6720
G01 X11.1670 Y23.6767
G01 X11.1492 Y23.6828
G01 X11.1311 Y23.6874
G01 X11.0141 Y23.7100
G01 X10.9965 Y23.7127
G01 X10.9788 Y23.7142
G01 X10.9669 Y23.7145
G01 X8.8943 Y23.7144
G01 X8.8770 Y23.7134
G01 X8.8598 Y23.7112
G01 X8.7461 Y23.6901
G01 X8.7342 Y23.6875
G01 X8.7223 Y23.6844
G01 X8.7107 Y23.6807
G01 X8.6992 Y23.6764
G01 X8.6824 Y23.6690
G01 X8.6716 Y23.6634
G01 X8.5962 Y23.6218
G01 X8.5848 Y23.6147
G01 X8.5739 Y23.6071
G01 X8.4731 Y23.5326
G01 X8.2778 Y23.4299
G01 X8.1359 Y23.3809
G01 X8.1251 Y23.3769
G01 X8.1145 Y23.3724
G01 X8.1041 Y23.3674
G01 X8.0939 Y23.3619
G01 X7.9984 Y23.3075
G01 X7.9878 Y23.3012
G01 X7.9726 Y23.2907
G01 X7.9582 Y23.2791
G01 X7.9447 Y23.2665
G01 X7.9322 Y23.2529
G01 X7.8550 Y23.1582
G01 X7.8477 Y23.1483
G01 X7.8409 Y23.1380
G01 X7.8346 Y23.1274
G01 X7.8288 Y23.1165
G01 X7.8212 Y23.0997
G01 X7.8168 Y23.0882
G01 X7.7790 Y22.9720
G01 X7.7758 Y22.9601
G01 X7.7732 Y22.9481
G01 X7.7711 Y22.9359
G01 X7.7697 Y22.9237
G01 X7.7689 Y22.9114
G01 X7.7687 Y22.8929
G01 X7.7755 Y22.7709
G01 X7.7776 Y22.7525
G01 X7.7798 Y22.7404
G01 X7.7842 Y22.7225
G01 X7.7879 Y22.7107
G01 X7.7921 Y22.6991
G01 X7.7969 Y22.6878
G01 X7.8422 Y22.5877
G01 X7.8476 Y22.5766
G01 X7.8566 Y22.5605
G01 X7.8633 Y22.5501
G01 X7.8705 Y22.5401
G01 X7.8781 Y22.5305
G01 X7.8863 Y22.5212
G01 X7.8948 Y22.5124
G01 X7.9732 Y22.4354
G01 X7.9825 Y22.4268
G01 X7.9921 Y22.4186
G01 X8.0074 Y22.4073
G01 X8.0234 Y22.3972
G01 X8.0402 Y22.3884
G01 X8.0776 Y22.3704
G00 Z5.0000
G00 X8.5706 Y24.0147
G01 F60.00
G01 Z-0.1000
G01 F300.00
G01 X19.1567 Y24.0147
G01 X19.1812 Y23.9817
G01 X19.1927 Y23.9673
G01 X19.2668 Y23.8855
G01 X19.2800 Y23.8727
G01 X19.3527 Y23.8068
G01 X19.3668 Y23.7949
G01 X19.4505 Y23.7327
G01 X19.4605 Y23.7257
G01 X19.4709 Y23.7191
G01 X19.5551 Y23.6686
G01 X19.5658 Y23.6626
G01 X19.5767 Y23.6571
G01 X19.6710 Y23.6126
G01 X19.6881 Y23.6057
G01 X19.7805 Y23.5727
G01 X19.7921 Y23.5688
G01 X19.8040 Y23.5656
G01 X19.8992 Y23.5417
G01 X19.9111 Y23.5390
G01 X19.9232 Y23.5369
G01 X20.0203 Y23.5225
G01 X20.0325 Y23.5210
G01 X20.0447 Y23.5201
G01 X20.1427 Y23.5153
G01 X20.1550 Y23.5150
G01 X20.1673 Y23.5153
G01 X20.2714 Y23.5205
G01 X20.2897 Y23.5225
G01 X20.3868 Y23.5369
G01 X20.3989 Y23.5390
G01 X20.4108 Y23.5417
G01 X20.5060 Y23.5656
G01 X20.5179 Y23.5688
G01 X20.5295 Y23.5727
G01 X20.6219 Y23.6057
G01 X20.6334 Y23.6102
G01 X20.6446 Y23.6151
G01 X20.7333 Y23.6571
G01 X20.7442 Y23.6626
G01 X20.7549 Y23.6686
G01 X20.8391 Y23.7191
G01 X20.8495 Y23.7257
G01 X20.8595 Y23.7327
G01 X20.9383 Y23.7912
G01 X20.9480 Y23.7987
G01 X20.9573 Y23.8068
G01 X21.0300 Y23.8727
G01 X21.0389 Y23.8811
G01 X21.0473 Y23.8900
G01 X21.1132 Y23.9627
G01 X21.1213 Y23.9720
G01 X21.1288 Y23.9817
G01 X21.1873 Y24.0605
G01 X21.1943 Y24.0705
G01 X21.2009 Y24.0809
G01 X21.2514 Y24.1651
G01 X21.2574 Y24.1758
G01 X21.2629 Y24.1867
G01 X21.3049 Y24.2754
G01 X21.3098 Y24.2866
G01 X21.3143 Y24.2981
G01 X21.3473 Y24.3905
G01 X21.3512 Y24.4021
G01 X21.3544 Y24.4140
G01 X21.3783 Y24.5092
G01 X21.3810 Y24.5211
G01 X21.3831 Y24.5332
G01 X21.3975 Y24.6303
G01 X21.3990 Y24.6425
G01 X21.3999 Y24.6547
G01 X21.4047 Y24.7527
G01 X21.4050 Y24.7650
G01 X21.4047 Y24.7773
G01 X21.3995 Y24.8814
G01 X21.3975 Y24.8997
G01 X21.3831 Y24.9968
G01 X21.3810 Y25.0089
G01 X21.3783 Y25.0208
G01 X21.3544 Y25.1160
G01 X21.3512 Y25.1279
G01 X21.3473 Y25.1395
G01 X21.3143 Y25.2319
G01 X21.3098 Y25.2434
G01 X21.3049 Y25.2546
G01 X21.2629 Y25.3433
G01 X21.2574 Y25.3542
G01 X21.2514 Y25.3649
G01 X21.2009 Y25.4491
G01 X21.1943 Y25.4595
G01 X21.1873 Y25.4695
G01 X21.1288 Y25.5483
G01 X21.1213 Y25.5580
G01 X21.1132 Y25.5673
G01 X21.0473 Y25.6400
G01 X21.0389 Y25.6489
G01 X21.0300 Y25.6573
G01 X20.9573 Y25.7232
G01 X20.9480 Y25.7313
G01 X20.9383 Y25.7388
G01 X20.8595 Y25.7973
G01 X20.8495 Y25.8043
G01 X20.8391 Y25.8109
G01 X20.7549 Y25.8614
G01 X20.7442 Y25.8674
G01 X20.7333 Y25.8729
G01 X20.6446 Y25.9149
G01 X20.6334 Y25.9198
G01 X20.6219 Y25.9243
G01 X20.5295 Y25.9573
G01 X20.5179 Y25.9612
G01 X20.5060 Y25.9644
G01 X20.4108 Y25.9883
G01 X20.3989 Y25.9910
G01 X20.3868 Y25.9931
G01 X20.2897 Y26.0075
G01 X20.2775 Y26.0090
G01 X20.2653 Y26.0099
G01 X20.1611 Y26.0149
G01 X20.1427 Y26.0147
G01 X20.0447 Y26.0099
G01 X20.0325 Y26.0090
G01 X20.0203 Y26.0075
G01 X19.9232 Y25.9931
G01 X19.9111 Y25.9910
G01 X19.8992 Y25.9883
G01 X19.8040 Y25.9644
G01 X19.7921 Y25.9612
G01 X19.7805 Y25.9573
G01 X19.6881 Y25.9243
G01 X19.6766 Y25.9198
G01 X19.6654 Y25.9149
G01 X19.5712 Y25.8702
G01 X19.5551 Y25.8614
G01 X19.4709 Y25.8109
G01 X19.4605 Y25.8043
G01 X19.4505 Y25.7973
G01 X19.3717 Y25.7388
G01 X19.3573 Y25.7273
G01 X19.2800 Y25.6573
G01 X19.2668 Y25.6445
G01 X19.1927 Y25.5627
G01 X19.1812 Y25.5483
G01 X19.1567 Y25.5153
G01 X8.5706 Y25.5153
G01 X8.5216 Y25.5693
G01 X8.5132 Y25.5782
G01 X8.5043 Y25.5866
G01 X8.4388 Y25.6459
G01 X8.4296 Y25.6540
G01 X8.4199 Y25.6615
G01 X8.3489 Y25.7141
G01 X8.3389 Y25.7212
G01 X8.3285 Y25.7278
G01 X8.2528 Y25.7732
G01 X8.2421 Y25.7792
G01 X8.2311 Y25.7847
G01 X8.1513 Y25.8225
G01 X8.1401 Y25.8275
G01 X8.1286 Y25.8319
G01 X8.0455 Y25.8616
G01 X8.0338 Y25.8655
G01 X8.0220 Y25.8688
G01 X7.9363 Y25.8902
G01 X7.9244 Y25.8929
G01 X7.9123 Y25.8950
G01 X7.8249 Y25.9080
G01 X7.8127 Y25.9095
G01 X7.8005 Y25.9104
G01 X7.7123 Y25.9147
G01 X7.7000 Y25.9150
G01 X5.9000 Y25.9150
G01 X5.8877 Y25.9147
G01 X5.7995 Y25.9104
G01 X5.7873 Y25.9095
G01 X5.7751 Y25.9080
G01 X5.6877 Y25.8950
G01 X5.6756 Y25.8929
G01 X5.6637 Y25.8902
G01 X5.5780 Y25.8688
G01 X5.5662 Y25.8655
G01 X5.5545 Y25.8616
G01 X5.4714 Y25.8319
G01 X5.4599 Y25.8275
G01 X5.4487 Y25.8225
G01 X5.3689 Y25.7847
G01 X5.3579 Y25.7792
G01 X5.3472 Y25.7732
G01 X5.2715 Y25.7278
G01 X5.2611 Y25.7212
G01 X5.2511 Y25.7141
G01 X5.1801 Y25.6615
G01 X5.1704 Y25.6540
G01 X5.1612 Y25.6459
G01 X5.0957 Y25.5866
G01 X5.0868 Y25.5782
G01 X5.0784 Y25.5693
G01 X5.0191 Y25.5038
G01 X5.0110 Y25.4946
G01 X5.0035 Y25.4849
G01 X4.9509 Y25.4139
G01 X4.9438 Y25.4039
G01 X4.9372 Y25.3935
G01 X4.8918 Y25.3178
G01 X4.8858 Y25.3071
G01 X4.8803 Y25.2961
G01 X4.8425 Y25.2163
G01 X4.8375 Y25.2051
G01 X4.8331 Y25.1936
G01 X4.8034 Y25.1105
G01 X4.7978 Y25.0929
G01 X4.7748 Y25.0013
G01 X4.7721 Y24.9894
G01 X4.7700 Y24.9773
G01 X4.7570 Y24.8899
G01 X4.7555 Y24.8777
G01 X4.7546 Y24.8655
G01 X4.7503 Y24.7773
G01 X4.7500 Y24.7650
G01 X4.7503 Y24.7527
G01 X4.7546 Y24.6645
G01 X4.7555 Y24.6523
G01 X4.7570 Y24.6401
G01 X4.7700 Y24.5527
G01 X4.7721 Y24.5406
G01 X4.7748 Y24.5287
G01 X4.7962 Y24.4430
G01 X4.7995 Y24.4312
G01 X4.8034 Y24.4195
G01 X4.8331 Y24.3364
G01 X4.8375 Y24.3249
G01 X4.8425 Y24.3137
G01 X4.8803 Y24.2339
G01 X4.8858 Y24.2229
G01 X4.8918 Y24.2122
G01 X4.9372 Y24.1365
G01 X4.9438 Y24.1261
G01 X4.9509 Y24.1161
G01 X5.0035 Y24.0451
G01 X5.0110 Y24.0354
G01 X5.0191 Y24.0262
G01 X5.0784 Y23.9607
G01 X5.0868 Y23.9518
G01 X5.0957 Y23.9434
G01 X5.1612 Y23.8841
G01 X5.1704 Y23.8760
G01 X5.1801 Y23.8685
G01 X5.2511 Y23.8159
G01 X5.2611 Y23.8088
G01 X5.2715 Y23.8022
G01 X5.3472 Y23.7568
G01 X5.3579 Y23.7508
G01 X5.3689 Y23.7453
G01 X5.4487 Y23.7075
G01 X5.4599 Y23.7025
G01 X5.4714 Y23.6981
G01 X5.5545 Y23.6684
G01 X5.5721 Y23.6628
G01 X5.6637 Y23.6398
G01 X5.6756 Y23.6371
G01 X5.6877 Y23.6350
G01 X5.7751 Y23.6220
G01 X5.7873 Y23.6205
G01 X5.7995 Y23.6196
G01 X5.8939 Y23.6151
G01 X7.7000 Y23.6150
G01 X7.7123 Y23.6153
G01 X7.8005 Y23.6196
G01 X7.8188 Y23.6212
G01 X7.9123 Y23.6350
G01 X7.9244 Y23.6371
G01 X7.9363 Y23.6398
G01 X8.0220 Y23.6612
G01 X8.0338 Y23.6645
G01 X8.0455 Y23.6684
G01 X8.1286 Y23.6981
G01 X8.1401 Y23.7025
G01 X8.1513 Y23.7075
G01 X8.2311 Y23.7453
G01 X8.2421 Y23.7508
G01 X8.2528 Y23.7568
G01 X8.3285 Y23.8022
G01 X8.3389 Y23.8088
G01 X8.3489 Y23.8159
G01 X8.4199 Y23.8685
G01 X8.4296 Y23.8760
G01 X8.4388 Y23.8841
G01 X8.5043 Y23.9434
G01 X8.5132 Y23.9518
G01 X8.5216 Y23.9607
G01 X8.5706 Y24.0147
G00 Z5.0000
G00 X5.0697 Y23.5704
G01 F60.00
G01 Z-0.1000
G01 F300.00
G01 X4.9461 Y23.6711
G01 X4.9370 Y23.6781
G01 X4.9275 Y23.6848
G01 X4.9178 Y23.6910
G01 X4.9078 Y23.6968
G01 X4.8113 Y23.7493
G01 X4.8003 Y23.7549
G01 X4.7891 Y23.7600
G01 X4.7776 Y23.7645
G01 X4.7601 Y23.7702
G01 X4.7481 Y23.7733
G01 X4.7300 Y23.7768
G01 X4.6088 Y23.7925
G01 X4.5965 Y23.7935
G01 X4.5842 Y23.7938
G01 X4.5719 Y23.7936
G01 X4.5596 Y23.7928
G01 X4.5474 Y23.7913
G01 X4.5292 Y23.7880
G01 X4.4165 Y23.7604
G01 X4.4046 Y23.7572
G01 X4.3871 Y23.7513
G01 X4.3701 Y23.7441
G01 X4.3591 Y23.7386
G01 X4.3483 Y23.7325
G01 X4.3328 Y23.7225
G01 X4.2428 Y23.6595
G01 X4.2328 Y23.6522
G01 X4.2233 Y23.6444
G01 X4.2141 Y23.6362
G01 X4.2012 Y23.6230
G01 X4.1893 Y23.6089
G01 X4.1784 Y23.5939
G01 X4.1139 Y23.4976
G01 X4.1047 Y23.4819
G01 X4.0992 Y23.4711
G01 X4.0920 Y23.4545
G01 X4.0878 Y23.4431
G01 X4.0843 Y23.4315
G01 X4.0812 Y23.4198
G01 X4.0544 Y23.2895
G01 X4.0518 Y23.2706
G01 X4.0508 Y23.2580
G01 X4.0505 Y23.2453
G01 X4.0505 Y22.5545
G01 X4.0508 Y22.5430
G01 X4.0516 Y22.5314
G01 X4.0529 Y22.5200
G01 X4.0548 Y22.5086
G01 X4.0762 Y22.3945
G01 X4.0807 Y22.3766
G01 X4.0844 Y22.3649
G01 X4.0887 Y22.3533
G01 X4.0962 Y22.3364
G01 X4.1050 Y22.3202
G01 X4.1660 Y22.2215
G01 X4.1727 Y22.2111
G01 X4.1838 Y22.1963
G01 X4.1959 Y22.1824
G01 X4.2090 Y22.1694
G01 X4.2230 Y22.1573
G01 X4.3205 Y22.0837
G01 X4.3359 Y22.0735
G01 X4.3466 Y22.0673
G01 X4.3576 Y22.0617
G01 X4.3745 Y22.0543
G01 X4.3919 Y22.0481
G01 X4.5035 Y22.0163
G01 X4.5159 Y22.0131
G01 X4.5348 Y22.0095
G01 X4.5476 Y22.0080
G01 X4.5604 Y22.0070
G01 X4.5937 Y22.0056
G01 X4.7057 Y22.0056
G01 X4.7172 Y22.0061
G01 X4.7287 Y22.0072
G01 X4.7459 Y22.0098
G01 X4.8599 Y22.0311
G01 X4.8718 Y22.0340
G01 X4.8835 Y22.0374
G01 X4.9008 Y22.0436
G01 X4.9120 Y22.0484
G01 X4.9230 Y22.0538
G01 X4.9981 Y22.0949
G01 X5.0096 Y22.1017
G01 X5.0261 Y22.1129
G01 X5.1269 Y22.1874
G01 X5.3222 Y22.2901
G01 X5.4641 Y22.3391
G01 X5.4749 Y22.3431
G01 X5.4908 Y22.3501
G01 X5.5061 Y22.3581
G01 X5.6016 Y22.4125
G01 X5.6122 Y22.4188
G01 X5.6274 Y22.4293
G01 X5.6418 Y22.4409
G01 X5.6553 Y22.4535
G01 X5.6678 Y22.4671
G01 X5.7412 Y22.5570
G01 X5.7487 Y22.5667
G01 X5.7558 Y22.5768
G01 X5.7623 Y22.5872
G01 X5.7684 Y22.5980
G01 X5.7739 Y22.6090
G01 X5.7788 Y22.6203
G01 X5.7832 Y22.6318
G01 X5.8191 Y22.7421
G01 X5.8226 Y22.7539
G01 X5.8256 Y22.7659
G01 X5.8289 Y22.7841
G01 X5.8303 Y22.7963
G01 X5.8311 Y22.8086
G01 X5.8313 Y22.8271
G01 X5.8245 Y22.9491
G01 X5.8224 Y22.9675
G01 X5.8188 Y22.9856
G01 X5.8140 Y23.0034
G01 X5.8079 Y23.0209
G01 X5.8031 Y23.0322
G01 X5.7552 Y23.1379
G01 X5.7465 Y23.1542
G01 X5.7401 Y23.1647
G01 X5.7332 Y23.1749
G01 X5.7219 Y23.1895
G01 X5.7095 Y23.2033
G01 X5.6222 Y23.2890
G01 X5.6127 Y23.2974
G01 X5.6029 Y23.3053
G01 X5.5926 Y23.3127
G01 X5.5820 Y23.3195
G01 X5.5655 Y23.3288
G01 X5.5224 Y23.3496
G01 X5.5049 Y23.3595
G01 X5.4883 Y23.3674
G01 X5.2600 Y23.4586
G01 X5.0697 Y23.5704
G00 Z5.0000
G00 X5.0294 Y26.5547
G01 F60.00
G01 Z-0.1000
G01 F300.00
G01 X5.0784 Y26.5007
G01 X5.0868 Y26.4918
G01 X5.0957 Y26.4834
G01 X5.1612 Y26.4241
G01 X5.1704 Y26.4160
G01 X5.1801 Y26.4085
G01 X5.2511 Y26.3559
G01 X5.2611 Y26.3488
G01 X5.2715 Y26.3422
G01 X5.3472 Y26.2968
G01 X5.3579 Y26.2908
G01 X5.3689 Y26.2853
G01 X5.4487 Y26.2475
G01 X5.4599 Y26.2425
G01 X5.4714 Y26.2381
G01 X5.5545 Y26.2084
G01 X5.5662 Y26.2045
G01 X5.5780 Y26.2012
G01 X5.6637 Y26.1798
G01 X5.6756 Y26.1771
G01 X5.6877 Y26.1750
G01 X5.7812 Y26.1612
G01 X5.7995 Y26.1596
G01 X5.8877 Y26.1553
G01 X5.9000 Y26.1550
G01 X7.7061 Y26.1551
G01 X7.8005 Y26.1596
G01 X7.8127 Y26.1605
G01 X7.8249 Y26.1620
G01 X7.9123 Y26.1750
G01 X7.9244 Y26.1771
G01 X7.9363 Y26.1798
G01 X8.0279 Y26.2028
G01 X8.0455 Y26.2084
G01 X8.1286 Y26.2381
G01 X8.1401 Y26.2425
G01 X8.1513 Y26.2475
G01 X8.2311 Y26.2853
G01 X8.2421 Y26.2908
G01 X8.2528 Y26.2968
G01 X8.3285 Y26.3422
G01 X8.3389 Y26.3488
G01 X8.3489 Y26.3559
G01 X8.4199 Y26.4085
G01 X8.4296 Y26.4160
G01 X8.4388 Y26.4241
G01 X8.5043 Y26.4834
G01 X8.5132 Y26.4918
G01 X8.5216 Y26.5007
G01 X8.5809 Y26.5662
G01 X8.5890 Y26.5754
G01 X8.5965 Y26.5851
G01 X8.6491 Y26.6561
G01 X8.6562 Y26.6661
G01 X8.6628 Y26.6765
G01 X8.7082 Y26.7522
G01 X8.7142 Y26.7629
G01 X8.7197 Y26.7739
G01 X8.7575 Y26.8537
G01 X8.7625 Y26.8649
G01 X8.7669 Y26.8764
G01 X8.7966 Y26.9595
G01 X8.8005 Y26.9712
G01 X8.8038 Y26.9830
G01 X8.8252 Y27.0687
G01 X8.8279 Y27.0806
G01 X8.8300 Y27.0927
G01 X8.8430 Y27.1801
G01 X8.8445 Y27.1923
G01 X8.8454 Y27.2045
G01 X8.8497 Y27.2927
G01 X8.8500 Y27.3050
G01 X8.8497 Y27.3173
G01 X8.8454 Y27.4055
G01 X8.8445 Y27.4177
G01 X8.8430 Y27.4299
G01 X8.8300 Y27.5173
G01 X8.8279 Y27.5294
G01 X8.8252 Y27.5413
G01 X8.8022 Y27.6329
G01 X8.7966 Y27.6505
G01 X8.7669 Y27.7336
G01 X8.7625 Y27.7451
G01 X8.7575 Y27.7563
G01 X8.7197 Y27.8361
G01 X8.7142 Y27.8471
G01 X8.7082 Y27.8578
G01 X8.6628 Y27.9335
G01 X8.6562 Y27.9439
G01 X8.6491 Y27.9539
G01 X8.5965 Y28.0249
G01 X8.5890 Y28.0346
G01 X8.5809 Y28.0438
G01 X8.5216 Y28.1093
G01 X8.5132 Y28.1182
G01 X8.5043 Y28.1266
G01 X8.4388 Y28.1859
G01 X8.4296 Y28.1940
G01 X8.4199 Y28.2015
G01 X8.3489 Y28.2541
G01 X8.3389 Y28.2612
G01 X8.3285 Y28.2678
G01 X8.2528 Y28.3132
G01 X8.2421 Y28.3192
G01 X8.2311 Y28.3247
G01 X8.1513 Y28.3625
G01 X8.1401 Y28.3675
G01 X8.1286 Y28.3719
G01 X8.0455 Y28.4016
G01 X8.0279 Y28.4072
G01 X7.9363 Y28.4302
G01 X7.9244 Y28.4329
G01 X7.9123 Y28.4350
G01 X7.8249 Y28.4480
G01 X7.8127 Y28.4495
G01 X7.8005 Y28.4504
G01 X7.7061 Y28.4549
G01 X5.9000 Y28.4550
G01 X5.8877 Y28.4547
G01 X5.7995 Y28.4504
G01 X5.7873 Y28.4495
G01 X5.7751 Y28.4480
G01 X5.6877 Y28.4350
G01 X5.6756 Y28.4329
G01 X5.6637 Y28.4302
G01 X5.5780 Y28.4088
G01 X5.5662 Y28.4055
G01 X5.5545 Y28.4016
G01 X5.4714 Y28.3719
G01 X5.4599 Y28.3675
G01 X5.4487 Y28.3625
G01 X5.3689 Y28.3247
G01 X5.3579 Y28.3192
G01 X5.3472 Y28.3132
G01 X5.2715 Y28.2678
G01 X5.2611 Y28.2612
G01 X5.2511 Y28.2541
G01 X5.1801 Y28.2015
G01 X5.1704 Y28.1940
G01 X5.1612 Y28.1859
G01 X5.0957 Y28.1266
G01 X5.0868 Y28.1182
G01 X5.0784 Y28.1093
G01 X5.0294 Y28.0553
G01 X3.4739 Y28.0552
G01 X3.4187 Y28.0525
G01 X3.4065 Y28.0516
G01 X3.3457 Y28.0429
G01 X3.3336 Y28.0408
G01 X3.3217 Y28.0381
G01 X3.2622 Y28.0229
G01 X3.2043 Y28.0026
G01 X3.1929 Y27.9981
G01 X3.1373 Y27.9722
G01 X3.1263 Y27.9667
G01 X3.0736 Y27.9354
G01 X3.0581 Y27.9253
G01 X3.0137 Y27.8925
G01 X3.0040 Y27.8850
G01 X2.9948 Y27.8769
G01 X2.9495 Y27.8355
G01 X2.4695 Y27.3555
G01 X2.4281 Y27.3102
G01 X2.4200 Y27.3010
G01 X2.4125 Y27.2913
G01 X2.3762 Y27.2418
G01 X2.3444 Y27.1893
G01 X2.3383 Y27.1787
G01 X2.3328 Y27.1677
G01 X2.3069 Y27.1121
G01 X2.2859 Y27.0544
G01 X2.2821 Y27.0428
G01 X2.2788 Y27.0310
G01 X2.2642 Y26.9714
G01 X2.2621 Y26.9593
G01 X2.2534 Y26.8985
G01 X2.2501 Y26.8373
G01 X2.2497 Y26.8250
G01 X2.2497 Y4.6550
G01 X2.2525 Y4.5937
G01 X2.2540 Y4.5754
G01 X2.2621 Y4.5207
G01 X2.2642 Y4.5086
G01 X2.2669 Y4.4967
G01 X2.2821 Y4.4372
G01 X2.3024 Y4.3793
G01 X2.3069 Y4.3679
G01 X2.3328 Y4.3123
G01 X2.3383 Y4.3013
G01 X2.3696 Y4.2486
G01 X2.3762 Y4.2382
G01 X2.3833 Y4.2282
G01 X2.4125 Y4.1887
G01 X2.4240 Y4.1744
G01 X2.4610 Y4.1334
G01 X2.4695 Y4.1245
G01 X3.4739 Y3.1202
G01 X3.5148 Y3.0831
G01 X3.5240 Y3.0750
G01 X3.5732 Y3.0383
G01 X3.5832 Y3.0312
G01 X3.5936 Y3.0246
G01 X3.6463 Y2.9933
G01 X3.7017 Y2.9668
G01 X3.7129 Y2.9619
G01 X3.7243 Y2.9574
G01 X3.7822 Y2.9371
G01 X3.8417 Y2.9219
G01 X3.8536 Y2.9192
G01 X3.8657 Y2.9171
G01 X3.9265 Y2.9084
G01 X3.9877 Y2.9051
G01 X4.0000 Y2.9047
G01 X22.5461 Y2.9048
G01 X22.6013 Y2.9075
G01 X22.6135 Y2.9084
G01 X22.6743 Y2.9171
G01 X22.6864 Y2.9192
G01 X22.6983 Y2.9219
G01 X22.7578 Y2.9371
G01 X22.8157 Y2.9574
G01 X22.8271 Y2.9619
G01 X22.8827 Y2.9878
G01 X22.8937 Y2.9933
G01 X22.9043 Y2.9994
G01 X22.9464 Y3.0246
G01 X22.9619 Y3.0347
G01 X23.0063 Y3.0675
G01 X23.0160 Y3.0750
G01 X23.0252 Y3.0831
G01 X23.0661 Y3.1202
G01 X23.6408 Y3.6947
G01 X25.5592 Y3.6947
G01 X26.1339 Y3.1202
G01 X26.1748 Y3.0831
G01 X26.1840 Y3.0750
G01 X26.2332 Y3.0383
G01 X26.2432 Y3.0312
G01 X26.2536 Y3.0246
G01 X26.2957 Y2.9994
G01 X26.3118 Y2.9905
G01 X26.3617 Y2.9668
G01 X26.3729 Y2.9619
G01 X26.3843 Y2.9574
G01 X26.4364 Y2.9389
G01 X26.4540 Y2.9338
G01 X26.5017 Y2.9219
G01 X26.5136 Y2.9192
G01 X26.5257 Y2.9171
G01 X26.5865 Y2.9084
G01 X26.6477 Y2.9051
G01 X26.6600 Y2.9047
G01 X46.0411 Y2.9048
G01 X46.0963 Y2.9075
G01 X46.1085 Y2.9084
G01 X46.1693 Y2.9171
G01 X46.1814 Y2.9192
G01 X46.1933 Y2.9219
G01 X46.2528 Y2.9371
G01 X46.3107 Y2.9574
G01 X46.3277 Y2.9643
G01 X46.3777 Y2.9878
G01 X46.3887 Y2.9933
G01 X46.3993 Y2.9994
G01 X46.4518 Y3.0312
G01 X46.5013 Y3.0675
G01 X46.5110 Y3.0750
G01 X46.5202 Y3.0831
G01 X46.5655 Y3.1245
G01 X47.3198 Y3.8789
G01 X47.3569 Y3.9198
G01 X47.3650 Y3.9290
G01 X47.4017 Y3.9782
G01 X47.4088 Y3.9882
G01 X47.4154 Y3.9986
G01 X47.4467 Y4.0513
G01 X47.4732 Y4.1067
G01 X47.4781 Y4.1179
G01 X47.4826 Y4.1293
G01 X47.5029 Y4.1872
G01 X47.5181 Y4.2467
G01 X47.5208 Y4.2586
G01 X47.5229 Y4.2707
G01 X47.5316 Y4.3315
G01 X47.5349 Y4.3927
G01 X47.5353 Y4.4050
G01 X47.5353 Y31.1550
G01 X47.5349 Y31.1673
G01 X47.5316 Y31.2285
G01 X47.5229 Y31.2893
G01 X47.5208 Y31.3014
G01 X47.5181 Y31.3133
G01 X47.5029 Y31.3728
G01 X47.4826 Y31.4307
G01 X47.4781 Y31.4421
G01 X47.4522 Y31.4977
G01 X47.4467 Y31.5087
G01 X47.4406 Y31.5193
G01 X47.4154 Y31.5614
G01 X47.4053 Y31.5769
G01 X47.3725 Y31.6213
G01 X47.3650 Y31.6310
G01 X47.3569 Y31.6402
G01 X47.3198 Y31.6811
G01 X46.7914 Y32.2096
G01 X46.7975 Y32.2503
G01 X46.7995 Y32.2686
G01 X46.8047 Y32.3727
G01 X46.8049 Y32.3911
G01 X46.7999 Y32.4953
G01 X46.7990 Y32.5075
G01 X46.7975 Y32.5197
G01 X46.7831 Y32.6168
G01 X46.7797 Y32.6349
G01 X46.7544 Y32.7360
G01 X46.7512 Y32.7479
G01 X46.7473 Y32.7595
G01 X46.7143 Y32.8519
G01 X46.7098 Y32.8634
G01 X46.7049 Y32.8746
G01 X46.6629 Y32.9633
G01 X46.6574 Y32.9742
G01 X46.6514 Y32.9849
G01 X46.6009 Y33.0691
G01 X46.5943 Y33.0795
G01 X46.5873 Y33.0895
G01 X46.5288 Y33.1683
G01 X46.5213 Y33.1780
G01 X46.5132 Y33.1873
G01 X46.4473 Y33.2600
G01 X46.4389 Y33.2689
G01 X46.4300 Y33.2773
G01 X46.3573 Y33.3432
G01 X46.3480 Y33.3513
G01 X46.3383 Y33.3588
G01 X46.2595 Y33.4173
G01 X46.2495 Y33.4243
G01 X46.2391 Y33.4309
G01 X46.1549 Y33.4814
G01 X46.1442 Y33.4874
G01 X46.1333 Y33.4929
G01 X46.0446 Y33.5349
G01 X46.0334 Y33.5398
G01 X46.0219 Y33.5443
G01 X45.9295 Y33.5773
G01 X45.9179 Y33.5812
G01 X45.9060 Y33.5844
G01 X45.8108 Y33.6083
G01 X45.7989 Y33.6110
G01 X45.7868 Y33.6131
G01 X45.6897 Y33.6275
G01 X45.6775 Y33.6290
G01 X45.6653 Y33.6299
G01 X45.5673 Y33.6347
G01 X45.5550 Y33.6350
G01 X45.5427 Y33.6347
G01 X45.4447 Y33.6299
G01 X45.4325 Y33.6290
G01 X45.4203 Y33.6275
G01 X45.3232 Y33.6131
G01 X45.3111 Y33.6110
G01 X45.2992 Y33.6083
G01 X45.2040 Y33.5844
G01 X45.1921 Y33.5812
G01 X45.1805 Y33.5773
G01 X45.0881 Y33.5443
G01 X45.0766 Y33.5398
G01 X45.0654 Y33.5349
G01 X44.9767 Y33.4929
G01 X44.9658 Y33.4874
G01 X44.9551 Y33.4814
G01 X44.8709 Y33.4309
G01 X44.8605 Y33.4243
G01 X44.8505 Y33.4173
G01 X44.7717 Y33.3588
G01 X44.7620 Y33.3513
G01 X44.7527 Y33.3432
G01 X44.6800 Y33.2773
G01 X44.6711 Y33.2689
G01 X44.6627 Y33.2600
G01 X44.5968 Y33.1873
G01 X44.5887 Y33.1780
G01 X44.5812 Y33.1683
G01 X44.5227 Y33.0895
G01 X44.5157 Y33.0795
G01 X44.5091 Y33.0691
G01 X44.4586 Y32.9849
G01 X44.4526 Y32.9742
G01 X44.4471 Y32.9633
G01 X44.4051 Y32.8746
G01 X44.4002 Y32.8634
G01 X44.3957 Y32.8519
G01 X44.3627 Y32.7595
G01 X44.3588 Y32.7479
G01 X44.3556 Y32.7360
G01 X44.3317 Y32.6408
G01 X44.3290 Y32.6289
G01 X44.3269 Y32.6168
G01 X44.3125 Y32.5197
G01 X44.3110 Y32.5075
G01 X44.3101 Y32.4953
G01 X44.3051 Y32.3911
G01 X44.3053 Y32.3727
G01 X44.3101 Y32.2747
G01 X44.3110 Y32.2625
G01 X44.3125 Y32.2503
G01 X44.3269 Y32.1532
G01 X44.3290 Y32.1411
G01 X44.3317 Y32.1292
G01 X44.3556 Y32.0340
G01 X44.3588 Y32.0221
G01 X44.3627 Y32.0105
G01 X44.3957 Y31.9181
G01 X44.4002 Y31.9066
G01 X44.4051 Y31.8954
G01 X44.4471 Y31.8067
G01 X44.4526 Y31.7958
G01 X44.4586 Y31.7851
G01 X44.5091 Y31.7009
G01 X44.5157 Y31.6905
G01 X44.5227 Y31.6805
G01 X44.5812 Y31.6017
G01 X44.5887 Y31.5920
G01 X44.5968 Y31.5827
G01 X44.6627 Y31.5100
G01 X44.6711 Y31.5011
G01 X44.6800 Y31.4927
G01 X44.7527 Y31.4268
G01 X44.7620 Y31.4187
G01 X44.7717 Y31.4112
G01 X44.8505 Y31.3527
G01 X44.8605 Y31.3457
G01 X44.8709 Y31.3391
G01 X44.9551 Y31.2886
G01 X44.9658 Y31.2826
G01 X44.9767 Y31.2771
G01 X45.0654 Y31.2351
G01 X45.0766 Y31.2302
G01 X45.0881 Y31.2257
G01 X45.1805 Y31.1927
G01 X45.1980 Y31.1871
G01 X45.2992 Y31.1617
G01 X45.3111 Y31.1590
G01 X45.3232 Y31.1569
G01 X45.4203 Y31.1425
G01 X45.4386 Y31.1405
G01 X45.5427 Y31.1353
G01 X45.5611 Y31.1351
G01 X45.6714 Y31.1405
G01 X45.6897 Y31.1425
G01 X45.7304 Y31.1486
G01 X46.0347 Y30.8442
G01 X46.0347 Y28.0553
G01 X45.6483 Y28.0553
G01 X45.6238 Y28.0883
G01 X45.6123 Y28.1027
G01 X45.5382 Y28.1845
G01 X45.5250 Y28.1973
G01 X45.4477 Y28.2673
G01 X45.4333 Y28.2788
G01 X45.3545 Y28.3373
G01 X45.3445 Y28.3443
G01 X45.3341 Y28.3509
G01 X45.2446 Y28.4044
G01 X45.2283 Y28.4129
G01 X45.1396 Y28.4549
G01 X45.1284 Y28.4598
G01 X45.1169 Y28.4643
G01 X45.0245 Y28.4973
G01 X45.0129 Y28.5012
G01 X45.0010 Y28.5044
G01 X44.9058 Y28.5283
G01 X44.8939 Y28.5310
G01 X44.8818 Y28.5331
G01 X44.7786 Y28.5483
G01 X44.7603 Y28.5499
G01 X44.6623 Y28.5547
G01 X44.6500 Y28.5550
G01 X42.6500 Y28.5550
G01 X42.6377 Y28.5547
G01 X42.5397 Y28.5499
G01 X42.5275 Y28.5490
G01 X42.5153 Y28.5475
G01 X42.4182 Y28.5331
G01 X42.4061 Y28.5310
G01 X42.3942 Y28.5283
G01 X42.2990 Y28.5044
G01 X42.2871 Y28.5012
G01 X42.2755 Y28.4973
G01 X42.1831 Y28.4643
G01 X42.1716 Y28.4598
G01 X42.1604 Y28.4549
G01 X42.0717 Y28.4129
G01 X42.0608 Y28.4074
G01 X42.0501 Y28.4014
G01 X41.9659 Y28.3509
G01 X41.9555 Y28.3443
G01 X41.9455 Y28.3373
G01 X41.8667 Y28.2788
G01 X41.8570 Y28.2713
G01 X41.8477 Y28.2632
G01 X41.7750 Y28.1973
G01 X41.7661 Y28.1889
G01 X41.7577 Y28.1800
G01 X41.6918 Y28.1073
G01 X41.6837 Y28.0980
G01 X41.6762 Y28.0883
G01 X41.6177 Y28.0095
G01 X41.6107 Y27.9995
G01 X41.6041 Y27.9891
G01 X41.5536 Y27.9049
G01 X41.5476 Y27.8942
G01 X41.5421 Y27.8833
G01 X41.5001 Y27.7946
G01 X41.4952 Y27.7834
G01 X41.4907 Y27.7719
G01 X41.4577 Y27.6795
G01 X41.4538 Y27.6679
G01 X41.4506 Y27.6560
G01 X41.4267 Y27.5608
G01 X41.4240 Y27.5489
G01 X41.4219 Y27.5368
G01 X41.4075 Y27.4397
G01 X41.4060 Y27.4275
G01 X41.4051 Y27.4153
G01 X41.4001 Y27.3111
G01 X41.4003 Y27.2927
G01 X41.4051 Y27.1947
G01 X41.4060 Y27.1825
G01 X41.4075 Y27.1703
G01 X41.4219 Y27.0732
G01 X41.4240 Y27.0611
G01 X41.4267 Y27.0492
G01 X41.4506 Y26.9540
G01 X41.4538 Y26.9421
G01 X41.4577 Y26.9305
G01 X41.4907 Y26.8381
G01 X41.4952 Y26.8266
G01 X41.5001 Y26.8154
G01 X41.5421 Y26.7267
G01 X41.5476 Y26.7158
G01 X41.5536 Y26.7051
G01 X41.6041 Y26.6209
G01 X41.6107 Y26.6105
G01 X41.6177 Y26.6005
G01 X41.6762 Y26.5217
G01 X41.6837 Y26.5120
G01 X41.6918 Y26.5027
G01 X41.7577 Y26.4300
G01 X41.7661 Y26.4211
G01 X41.7750 Y26.4127
G01 X41.8477 Y26.3468
G01 X41.8570 Y26.3387
G01 X41.8667 Y26.3312
G01 X41.9455 Y26.2727
G01 X41.9555 Y26.2657
G01 X41.9659 Y26.2591
G01 X42.0501 Y26.2086
G01 X42.0608 Y26.2026
G01 X42.0717 Y26.1971
G01 X42.1604 Y26.1551
G01 X42.1716 Y26.1502
G01 X42.1831 Y26.1457
G01 X42.2755 Y26.1127
G01 X42.2871 Y26.1088
G01 X42.2990 Y26.1056
G01 X42.3942 Y26.0817
G01 X42.4122 Y26.0779
G01 X42.5153 Y26.0625
G01 X42.5275 Y26.0610
G01 X42.5397 Y26.0601
G01 X42.6377 Y26.0553
G01 X42.6500 Y26.0550
G01 X44.6500 Y26.0550
G01 X44.6623 Y26.0553
G01 X44.7603 Y26.0601
G01 X44.7786 Y26.0617
G01 X44.8818 Y26.0769
G01 X44.8939 Y26.0790
G01 X44.9058 Y26.0817
G01 X45.0010 Y26.1056
G01 X45.0129 Y26.1088
G01 X45.0245 Y26.1127
G01 X45.1169 Y26.1457
G01 X45.1284 Y26.1502
G01 X45.1396 Y26.1551
G01 X45.2283 Y26.1971
G01 X45.2446 Y26.2056
G01 X45.3341 Y26.2591
G01 X45.3445 Y26.2657
G01 X45.3545 Y26.2727
G01 X45.4333 Y26.3312
G01 X45.4477 Y26.3427
G01 X45.5250 Y26.4127
G01 X45.5382 Y26.4255
G01 X45.6123 Y26.5073
G01 X45.6238 Y26.5217
G01 X45.6483 Y26.5547
G01 X46.0347 Y26.5547
G01 X46.0347 Y17.5143
G01 X45.3703 Y17.5143
G01 X45.3458 Y17.5473
G01 X45.3343 Y17.5617
G01 X45.2643 Y17.6390
G01 X45.2515 Y17.6522
G01 X45.1743 Y17.7222
G01 X45.1650 Y17.7303
G01 X45.1553 Y17.7378
G01 X45.0765 Y17.7963
G01 X45.0613 Y17.8067
G01 X44.9719 Y17.8604
G01 X44.9612 Y17.8664
G01 X44.9503 Y17.8719
G01 X44.8616 Y17.9139
G01 X44.8504 Y17.9188
G01 X44.8389 Y17.9233
G01 X44.7465 Y17.9563
G01 X44.7349 Y17.9602
G01 X44.7230 Y17.9634
G01 X44.6219 Y17.9887
G01 X44.6038 Y17.9921
G01 X44.5067 Y18.0065
G01 X44.4945 Y18.0080
G01 X44.4823 Y18.0089
G01 X44.3843 Y18.0137
G01 X44.3720 Y18.0140
G01 X44.3597 Y18.0137
G01 X44.2617 Y18.0089
G01 X44.2495 Y18.0080
G01 X44.2373 Y18.0065
G01 X44.1402 Y17.9921
G01 X44.1281 Y17.9900
G01 X44.1162 Y17.9873
G01 X44.0210 Y17.9634
G01 X44.0091 Y17.9602
G01 X43.9975 Y17.9563
G01 X43.9051 Y17.9233
G01 X43.8936 Y17.9188
G01 X43.8824 Y17.9139
G01 X43.7937 Y17.8719
G01 X43.7828 Y17.8664
G01 X43.7721 Y17.8604
G01 X43.6879 Y17.8099
G01 X43.6775 Y17.8033
G01 X43.6675 Y17.7963
G01 X43.5887 Y17.7378
G01 X43.5790 Y17.7303
G01 X43.5697 Y17.7222
G01 X43.4970 Y17.6563
G01 X43.4881 Y17.6479
G01 X43.4797 Y17.6390
G01 X43.4138 Y17.5663
G01 X43.4057 Y17.5570
G01 X43.3982 Y17.5473
G01 X43.3397 Y17.4685
G01 X43.3327 Y17.4585
G01 X43.3261 Y17.4481
G01 X43.2756 Y17.3639
G01 X43.2696 Y17.3532
G01 X43.2641 Y17.3423
G01 X43.2221 Y17.2536
G01 X43.2172 Y17.2424
G01 X43.2127 Y17.2309
G01 X43.1797 Y17.1385
G01 X43.1758 Y17.1269
G01 X43.1726 Y17.1150
G01 X43.1487 Y17.0198
G01 X43.1460 Y17.0079
G01 X43.1439 Y16.9958
G01 X43.1295 Y16.8987
G01 X43.1280 Y16.8865
G01 X43.1271 Y16.8743
G01 X43.1221 Y16.7701
G01 X43.1223 Y16.7517
G01 X43.1271 Y16.6537
G01 X43.1280 Y16.6415
G01 X43.1295 Y16.6293
G01 X43.1439 Y16.5322
G01 X43.1460 Y16.5201
G01 X43.1487 Y16.5082
G01 X43.1726 Y16.4130
G01 X43.1758 Y16.4011
G01 X43.1797 Y16.3895
G01 X43.2127 Y16.2971
G01 X43.2172 Y16.2856
G01 X43.2221 Y16.2744
G01 X43.2641 Y16.1857
G01 X43.2696 Y16.1748
G01 X43.2756 Y16.1641
G01 X43.3261 Y16.0799
G01 X43.3327 Y16.0695
G01 X43.3397 Y16.0595
G01 X43.3982 Y15.9807
G01 X43.4057 Y15.9710
G01 X43.4138 Y15.9617
G01 X43.4797 Y15.8890
G01 X43.4881 Y15.8801
G01 X43.4970 Y15.8717
G01 X43.5697 Y15.8058
G01 X43.5790 Y15.7977
G01 X43.5887 Y15.7902
G01 X43.6675 Y15.7317
G01 X43.6775 Y15.7247
G01 X43.6879 Y15.7181
G01 X43.7721 Y15.6676
G01 X43.7828 Y15.6616
G01 X43.7937 Y15.6561
G01 X43.8824 Y15.6141
G01 X43.8936 Y15.6092
G01 X43.9051 Y15.6047
G01 X43.9975 Y15.5717
G01 X44.0091 Y15.5678
G01 X44.0210 Y15.5646
G01 X44.1162 Y15.5407
G01 X44.1281 Y15.5380
G01 X44.1402 Y15.5359
G01 X44.2373 Y15.5215
G01 X44.2495 Y15.5200
G01 X44.2617 Y15.5191
G01 X44.3597 Y15.5143
G01 X44.3720 Y15.5140
G01 X44.3843 Y15.5143
G01 X44.4823 Y15.5191
G01 X44.4945 Y15.5200
G01 X44.5067 Y15.5215
G01 X44.6038 Y15.5359
G01 X44.6219 Y15.5393
G01 X44.7230 Y15.5646
G01 X44.7349 Y15.5678
G01 X44.7465 Y15.5717
G01 X44.8389 Y15.6047
G01 X44.8504 Y15.6092
G01 X44.8616 Y15.6141
G01 X44.9503 Y15.6561
G01 X44.9612 Y15.6616
G01 X44.9719 Y15.6676
G01 X45.0613 Y15.7213
G01 X45.0765 Y15.7317
G01 X45.1553 Y15.7902
G01 X45.1650 Y15.7977
G01 X45.1743 Y15.8058
G01 X45.2515 Y15.8758
G01 X45.2643 Y15.8890
G01 X45.3343 Y15.9663
G01 X45.3458 Y15.9807
G01 X45.3703 Y16.0137
G01 X46.0347 Y16.0137
G01 X46.0347 Y4.7158
G01 X45.7242 Y4.4053
G01 X29.1603 Y4.4053
G01 X29.1603 Y5.2344
G01 X29.2143 Y5.2834
G01 X29.2232 Y5.2918
G01 X29.2316 Y5.3007
G01 X29.2909 Y5.3662
G01 X29.2990 Y5.3754
G01 X29.3065 Y5.3851
G01 X29.3591 Y5.4561
G01 X29.3662 Y5.4661
G01 X29.3728 Y5.4765
G01 X29.4182 Y5.5522
G01 X29.4242 Y5.5629
G01 X29.4297 Y5.5739
G01 X29.4675 Y5.6537
G01 X29.4725 Y5.6649
G01 X29.4769 Y5.6764
G01 X29.5066 Y5.7595
G01 X29.5105 Y5.7712
G01 X29.5138 Y5.7830
G01 X29.5352 Y5.8687
G01 X29.5379 Y5.8806
G01 X29.5400 Y5.8927
G01 X29.5538 Y5.9862
G01 X29.5554 Y6.0045
G01 X29.5597 Y6.0927
G01 X29.5600 Y6.1050
G01 X29.5600 Y7.9050
G01 X29.5597 Y7.9173
G01 X29.5554 Y8.0055
G01 X29.5545 Y8.0177
G01 X29.5530 Y8.0299
G01 X29.5400 Y8.1173
G01 X29.5379 Y8.1294
G01 X29.5352 Y8.1413
G01 X29.5138 Y8.2270
G01 X29.5105 Y8.2388
G01 X29.5066 Y8.2505
G01 X29.4769 Y8.3336
G01 X29.4725 Y8.3451
G01 X29.4675 Y8.3563
G01 X29.4297 Y8.4361
G01 X29.4242 Y8.4471
G01 X29.4182 Y8.4578
G01 X29.3728 Y8.5335
G01 X29.3662 Y8.5439
G01 X29.3591 Y8.5539
G01 X29.3065 Y8.6249
G01 X29.2990 Y8.6346
G01 X29.2909 Y8.6438
G01 X29.2316 Y8.7093
G01 X29.2232 Y8.7182
G01 X29.2143 Y8.7266
G01 X29.1603 Y8.7756
G01 X29.1603 Y11.4300
G01 X29.1575 Y11.4913
G01 X29.1566 Y11.5035
G01 X29.1479 Y11.5643
G01 X29.1458 Y11.5764
G01 X29.1431 Y11.5883
G01 X29.1279 Y11.6478
G01 X29.1076 Y11.7057
G01 X29.1007 Y11.7227
G01 X29.0772 Y11.7727
G01 X29.0687 Y11.7890
G01 X29.0372 Y11.8417
G01 X29.0303 Y11.8519
G01 X29.0099 Y11.8795
G01 X29.0175 Y11.9303
G01 X29.0195 Y11.9486
G01 X29.0249 Y12.0589
G01 X29.0247 Y12.0773
G01 X29.0195 Y12.1814
G01 X29.0175 Y12.1997
G01 X29.0031 Y12.2968
G01 X29.0010 Y12.3089
G01 X28.9983 Y12.3208
G01 X28.9744 Y12.4160
G01 X28.9712 Y12.4279
G01 X28.9673 Y12.4395
G01 X28.9343 Y12.5319
G01 X28.9298 Y12.5434
G01 X28.9249 Y12.5546
G01 X28.8829 Y12.6433
G01 X28.8774 Y12.6542
G01 X28.8714 Y12.6649
G01 X28.8209 Y12.7491
G01 X28.8143 Y12.7595
G01 X28.8073 Y12.7695
G01 X28.7451 Y12.8532
G01 X28.7332 Y12.8673
G01 X28.6673 Y12.9400
G01 X28.6589 Y12.9489
G01 X28.6500 Y12.9573
G01 X28.5773 Y13.0232
G01 X28.5680 Y13.0313
G01 X28.5583 Y13.0388
G01 X28.4795 Y13.0973
G01 X28.4695 Y13.1043
G01 X28.4591 Y13.1109
G01 X28.3749 Y13.1614
G01 X28.3642 Y13.1674
G01 X28.3533 Y13.1729
G01 X28.2646 Y13.2149
G01 X28.2534 Y13.2198
G01 X28.2419 Y13.2243
G01 X28.1495 Y13.2573
G01 X28.1379 Y13.2612
G01 X28.1260 Y13.2644
G01 X28.0308 Y13.2883
G01 X28.0189 Y13.2910
G01 X28.0068 Y13.2931
G01 X27.9097 Y13.3075
G01 X27.8975 Y13.3090
G01 X27.8853 Y13.3099
G01 X27.7873 Y13.3147
G01 X27.7750 Y13.3150
G01 X27.7627 Y13.3147
G01 X27.6647 Y13.3099
G01 X27.6525 Y13.3090
G01 X27.6403 Y13.3075
G01 X27.5432 Y13.2931
G01 X27.5311 Y13.2910
G01 X27.5192 Y13.2883
G01 X27.4240 Y13.2644
G01 X27.4121 Y13.2612
G01 X27.4005 Y13.2573
G01 X27.3081 Y13.2243
G01 X27.2966 Y13.2198
G01 X27.2854 Y13.2149
G01 X27.1967 Y13.1729
G01 X27.1858 Y13.1674
G01 X27.1751 Y13.1614
G01 X27.0909 Y13.1109
G01 X27.0805 Y13.1043
G01 X27.0705 Y13.0973
G01 X26.9917 Y13.0388
G01 X26.9820 Y13.0313
G01 X26.9727 Y13.0232
G01 X26.9000 Y12.9573
G01 X26.8911 Y12.9489
G01 X26.8827 Y12.9400
G01 X26.8168 Y12.8673
G01 X26.8087 Y12.8580
G01 X26.8012 Y12.8483
G01 X26.7427 Y12.7695
G01 X26.7357 Y12.7595
G01 X26.7291 Y12.7491
G01 X26.6786 Y12.6649
G01 X26.6726 Y12.6542
G01 X26.6671 Y12.6433
G01 X26.6251 Y12.5546
G01 X26.6202 Y12.5434
G01 X26.6157 Y12.5319
G01 X26.5827 Y12.4395
G01 X26.5788 Y12.4279
G01 X26.5756 Y12.4160
G01 X26.5517 Y12.3208
G01 X26.5490 Y12.3089
G01 X26.5469 Y12.2968
G01 X26.5325 Y12.1997
G01 X26.5310 Y12.1875
G01 X26.5301 Y12.1753
G01 X26.5251 Y12.0711
G01 X26.5253 Y12.0527
G01 X26.5301 Y11.9547
G01 X26.5310 Y11.9425
G01 X26.5325 Y11.9303
G01 X26.5469 Y11.8332
G01 X26.5490 Y11.8211
G01 X26.5517 Y11.8092
G01 X26.5756 Y11.7140
G01 X26.5788 Y11.7021
G01 X26.5827 Y11.6905
G01 X26.6157 Y11.5981
G01 X26.6202 Y11.5866
G01 X26.6251 Y11.5754
G01 X26.6671 Y11.4867
G01 X26.6726 Y11.4758
G01 X26.6786 Y11.4651
G01 X26.7291 Y11.3809
G01 X26.7357 Y11.3705
G01 X26.7427 Y11.3605
G01 X26.8012 Y11.2817
G01 X26.8087 Y11.2720
G01 X26.8168 Y11.2627
G01 X26.8827 Y11.1900
G01 X26.8911 Y11.1811
G01 X26.9000 Y11.1727
G01 X26.9727 Y11.1068
G01 X26.9820 Y11.0987
G01 X26.9917 Y11.0912
G01 X27.0705 Y11.0327
G01 X27.0805 Y11.0257
G01 X27.0909 Y11.0191
G01 X27.1751 Y10.9686
G01 X27.1858 Y10.9626
G01 X27.1967 Y10.9571
G01 X27.2854 Y10.9151
G01 X27.2966 Y10.9102
G01 X27.3081 Y10.9057
G01 X27.4005 Y10.8727
G01 X27.4121 Y10.8688
G01 X27.4240 Y10.8656
G01 X27.5192 Y10.8417
G01 X27.5311 Y10.8390
G01 X27.5432 Y10.8369
G01 X27.6403 Y10.8225
G01 X27.6597 Y10.8204
G01 X27.6597 Y8.7756
G01 X27.6057 Y8.7266
G01 X27.5968 Y8.7182
G01 X27.5884 Y8.7093
G01 X27.5291 Y8.6438
G01 X27.5210 Y8.6346
G01 X27.5135 Y8.6249
G01 X27.4609 Y8.5539
G01 X27.4538 Y8.5439
G01 X27.4472 Y8.5335
G01 X27.3987 Y8.4525
G01 X27.3903 Y8.4361
G01 X27.3525 Y8.3563
G01 X27.3475 Y8.3451
G01 X27.3431 Y8.3336
G01 X27.3134 Y8.2505
G01 X27.3095 Y8.2388
G01 X27.3062 Y8.2270
G01 X27.2848 Y8.1413
G01 X27.2821 Y8.1294
G01 X27.2800 Y8.1173
G01 X27.2670 Y8.0299
G01 X27.2655 Y8.0177
G01 X27.2646 Y8.0055
G01 X27.2603 Y7.9173
G01 X27.2600 Y7.9050
G01 X27.2600 Y6.1050
G01 X27.2603 Y6.0927
G01 X27.2646 Y6.0045
G01 X27.2655 Y5.9923
G01 X27.2670 Y5.9801
G01 X27.2800 Y5.8927
G01 X27.2821 Y5.8806
G01 X27.2848 Y5.8687
G01 X27.3062 Y5.7830
G01 X27.3095 Y5.7712
G01 X27.3134 Y5.7595
G01 X27.3431 Y5.6764
G01 X27.3475 Y5.6649
G01 X27.3525 Y5.6537
G01 X27.3903 Y5.5739
G01 X27.3958 Y5.5629
G01 X27.4018 Y5.5522
G01 X27.4472 Y5.4765
G01 X27.4538 Y5.4661
G01 X27.4609 Y5.4561
G01 X27.5135 Y5.3851
G01 X27.5210 Y5.3754
G01 X27.5291 Y5.3662
G01 X27.5884 Y5.3007
G01 X27.5968 Y5.2918
G01 X27.6057 Y5.2834
G01 X27.6597 Y5.2344
G01 X27.6597 Y4.4053
G01 X26.9708 Y4.4053
G01 X26.4005 Y4.9755
G01 X26.3552 Y5.0169
G01 X26.3460 Y5.0250
G01 X26.2968 Y5.0617
G01 X26.2868 Y5.0688
G01 X26.2764 Y5.0754
G01 X26.2237 Y5.1067
G01 X26.1683 Y5.1332
G01 X26.1571 Y5.1381
G01 X26.1457 Y5.1426
G01 X26.0878 Y5.1629
G01 X26.0283 Y5.1781
G01 X26.0103 Y5.1820
G01 X25.9557 Y5.1901
G01 X25.9435 Y5.1916
G01 X25.8823 Y5.1949
G01 X25.8700 Y5.1953
G01 X23.3300 Y5.1953
G01 X23.2687 Y5.1925
G01 X23.2565 Y5.1916
G01 X23.2443 Y5.1901
G01 X23.1836 Y5.1808
G01 X23.1717 Y5.1781
G01 X23.1122 Y5.1629
G01 X23.0543 Y5.1426
G01 X23.0429 Y5.1381
G01 X22.9873 Y5.1122
G01 X22.9763 Y5.1067
G01 X22.9657 Y5.1006
G01 X22.9236 Y5.0754
G01 X22.9081 Y5.0653
G01 X22.8637 Y5.0325
G01 X22.8540 Y5.0250
G01 X22.8448 Y5.0169
G01 X22.8039 Y4.9798
G01 X22.2292 Y4.4053
G01 X13.9203 Y4.4053
G01 X13.9203 Y5.2544
G01 X13.9743 Y5.3034
G01 X13.9832 Y5.3118
G01 X13.9916 Y5.3207
G01 X14.0509 Y5.3862
G01 X14.0590 Y5.3954
G01 X14.0665 Y5.4051
G01 X14.1191 Y5.4761
G01 X14.1262 Y5.4861
G01 X14.1328 Y5.4965
G01 X14.1782 Y5.5722
G01 X14.1842 Y5.5829
G01 X14.1897 Y5.5939
G01 X14.2275 Y5.6737
G01 X14.2325 Y5.6849
G01 X14.2369 Y5.6964
G01 X14.2666 Y5.7795
G01 X14.2705 Y5.7912
G01 X14.2738 Y5.8030
G01 X14.2952 Y5.8887
G01 X14.2979 Y5.9006
G01 X14.3000 Y5.9127
G01 X14.3130 Y6.0001
G01 X14.3145 Y6.0123
G01 X14.3154 Y6.0245
G01 X14.3197 Y6.1127
G01 X14.3200 Y6.1250
G01 X14.3200 Y7.9250
G01 X14.3197 Y7.9373
G01 X14.3154 Y8.0255
G01 X14.3145 Y8.0377
G01 X14.3130 Y8.0499
G01 X14.3000 Y8.1373
G01 X14.2979 Y8.1494
G01 X14.2952 Y8.1613
G01 X14.2738 Y8.2470
G01 X14.2705 Y8.2588
G01 X14.2666 Y8.2705
G01 X14.2369 Y8.3536
G01 X14.2325 Y8.3651
G01 X14.2275 Y8.3763
G01 X14.1897 Y8.4561
G01 X14.1842 Y8.4671
G01 X14.1782 Y8.4778
G01 X14.1328 Y8.5535
G01 X14.1262 Y8.5639
G01 X14.1191 Y8.5739
G01 X14.0665 Y8.6449
G01 X14.0590 Y8.6546
G01 X14.0509 Y8.6638
G01 X13.9916 Y8.7293
G01 X13.9832 Y8.7382
G01 X13.9743 Y8.7466
G01 X13.9088 Y8.8059
G01 X13.8996 Y8.8140
G01 X13.8899 Y8.8215
G01 X13.8189 Y8.8741
G01 X13.8089 Y8.8812
G01 X13.7985 Y8.8878
G01 X13.7228 Y8.9332
G01 X13.7121 Y8.9392
G01 X13.7011 Y8.9447
G01 X13.6213 Y8.9825
G01 X13.6101 Y8.9875
G01 X13.5986 Y8.9919
G01 X13.5155 Y9.0216
G01 X13.5038 Y9.0255
G01 X13.4920 Y9.0288
G01 X13.4063 Y9.0502
G01 X13.3944 Y9.0529
G01 X13.3823 Y9.0550
G01 X13.2949 Y9.0680
G01 X13.2827 Y9.0695
G01 X13.2705 Y9.0704
G01 X13.1823 Y9.0747
G01 X13.1700 Y9.0750
G01 X13.1577 Y9.0747
G01 X13.0695 Y9.0704
G01 X13.0573 Y9.0695
G01 X13.0451 Y9.0680
G01 X12.9577 Y9.0550
G01 X12.9456 Y9.0529
G01 X12.9337 Y9.0502
G01 X12.8480 Y9.0288
G01 X12.8362 Y9.0255
G01 X12.8245 Y9.0216
G01 X12.7414 Y8.9919
G01 X12.7299 Y8.9875
G01 X12.7187 Y8.9825
G01 X12.6389 Y8.9447
G01 X12.6279 Y8.9392
G01 X12.6172 Y8.9332
G01 X12.5415 Y8.8878
G01 X12.5311 Y8.8812
G01 X12.5211 Y8.8741
G01 X12.4501 Y8.8215
G01 X12.4404 Y8.8140
G01 X12.4312 Y8.8059
G01 X12.3657 Y8.7466
G01 X12.3568 Y8.7382
G01 X12.3484 Y8.7293
G01 X12.2891 Y8.6638
G01 X12.2810 Y8.6546
G01 X12.2735 Y8.6449
G01 X12.2209 Y8.5739
G01 X12.2138 Y8.5639
G01 X12.2072 Y8.5535
G01 X12.1618 Y8.4778
G01 X12.1558 Y8.4671
G01 X12.1503 Y8.4561
G01 X12.1125 Y8.3763
G01 X12.1075 Y8.3651
G01 X12.1031 Y8.3536
G01 X12.0734 Y8.2705
G01 X12.0695 Y8.2588
G01 X12.0662 Y8.2470
G01 X12.0448 Y8.1613
G01 X12.0421 Y8.1494
G01 X12.0400 Y8.1373
G01 X12.0270 Y8.0499
G01 X12.0255 Y8.0377
G01 X12.0246 Y8.0255
G01 X12.0203 Y7.9373
G01 X12.0200 Y7.9250
G01 X12.0200 Y6.1250
G01 X12.0203 Y6.1127
G01 X12.0246 Y6.0245
G01 X12.0255 Y6.0123
G01 X12.0270 Y6.0001
G01 X12.0400 Y5.9127
G01 X12.0421 Y5.9006
G01 X12.0448 Y5.8887
G01 X12.0662 Y5.8030
G01 X12.0695 Y5.7912
G01 X12.0734 Y5.7795
G01 X12.1031 Y5.6964
G01 X12.1075 Y5.6849
G01 X12.1125 Y5.6737
G01 X12.1503 Y5.5939
G01 X12.1558 Y5.5829
G01 X12.1618 Y5.5722
G01 X12.2072 Y5.4965
G01 X12.2138 Y5.4861
G01 X12.2209 Y5.4761
G01 X12.2735 Y5.4051
G01 X12.2810 Y5.3954
G01 X12.2891 Y5.3862
G01 X12.3484 Y5.3207
G01 X12.3568 Y5.3118
G01 X12.3657 Y5.3034
G01 X12.4197 Y5.2544
G01 X12.4197 Y4.4053
G01 X4.3108 Y4.4053
G01 X3.7503 Y4.9658
G01 X3.7503 Y20.2047
G01 X5.0294 Y20.2047
G01 X5.0784 Y20.1507
G01 X5.0868 Y20.1418
G01 X5.0957 Y20.1334
G01 X5.1612 Y20.0741
G01 X5.1704 Y20.0660
G01 X5.1801 Y20.0585
G01 X5.2511 Y20.0059
G01 X5.2611 Y19.9988
G01 X5.2715 Y19.9922
G01 X5.3472 Y19.9468
G01 X5.3579 Y19.9408
G01 X5.3689 Y19.9353
G01 X5.4487 Y19.8975
G01 X5.4599 Y19.8925
G01 X5.4714 Y19.8881
G01 X5.5545 Y19.8584
G01 X5.5662 Y19.8545
G01 X5.5780 Y19.8512
G01 X5.6637 Y19.8298
G01 X5.6756 Y19.8271
G01 X5.6877 Y19.8250
G01 X5.7751 Y19.8120
G01 X5.7873 Y19.8105
G01 X5.7995 Y19.8096
G01 X5.8877 Y19.8053
G01 X5.9000 Y19.8050
G01 X7.7000 Y19.8050
G01 X7.7123 Y19.8053
G01 X7.8005 Y19.8096
G01 X7.8127 Y19.8105
G01 X7.8249 Y19.8120
G01 X7.9123 Y19.8250
G01 X7.9244 Y19.8271
G01 X7.9363 Y19.8298
G01 X8.0220 Y19.8512
G01 X8.0338 Y19.8545
G01 X8.0455 Y19.8584
G01 X8.1286 Y19.8881
G01 X8.1401 Y19.8925
G01 X8.1513 Y19.8975
G01 X8.2311 Y19.9353
G01 X8.2421 Y19.9408
G01 X8.2528 Y19.9468
G01 X8.3285 Y19.9922
G01 X8.3389 Y19.9988
G01 X8.3489 Y20.0059
G01 X8.4199 Y20.0585
G01 X8.4296 Y20.0660
G01 X8.4388 Y20.0741
G01 X8.5043 Y20.1334
G01 X8.5132 Y20.1418
G01 X8.5216 Y20.1507
G01 X8.5809 Y20.2162
G01 X8.5890 Y20.2254
G01 X8.5965 Y20.2351
G01 X8.6491 Y20.3061
G01 X8.6562 Y20.3161
G01 X8.6628 Y20.3265
G01 X8.7082 Y20.4022
G01 X8.7142 Y20.4129
G01 X8.7197 Y20.4239
G01 X8.7575 Y20.5037
G01 X8.7625 Y20.5149
G01 X8.7669 Y20.5264
G01 X8.7966 Y20.6095
G01 X8.8005 Y20.6212
G01 X8.8038 Y20.6330
G01 X8.8252 Y20.7187
G01 X8.8279 Y20.7306
G01 X8.8300 Y20.7427
G01 X8.8430 Y20.8301
G01 X8.8445 Y20.8423
G01 X8.8454 Y20.8545
G01 X8.8499 Y20.9489
G01 X8.8497 Y20.9673
G01 X8.8454 Y21.0555
G01 X8.8445 Y21.0677
G01 X8.8430 Y21.0799
G01 X8.8300 Y21.1673
G01 X8.8279 Y21.1794
G01 X8.8252 Y21.1913
G01 X8.8038 Y21.2770
G01 X8.8005 Y21.2888
G01 X8.7966 Y21.3005
G01 X8.7669 Y21.3836
G01 X8.7625 Y21.3951
G01 X8.7575 Y21.4063
G01 X8.7197 Y21.4861
G01 X8.7142 Y21.4971
G01 X8.7082 Y21.5078
G01 X8.6628 Y21.5835
G01 X8.6562 Y21.5939
G01 X8.6491 Y21.6039
G01 X8.5965 Y21.6749
G01 X8.5890 Y21.6846
G01 X8.5809 Y21.6938
G01 X8.5216 Y21.7593
G01 X8.5132 Y21.7682
G01 X8.5043 Y21.7766
G01 X8.4388 Y21.8359
G01 X8.4296 Y21.8440
G01 X8.4199 Y21.8515
G01 X8.3489 Y21.9041
G01 X8.3389 Y21.9112
G01 X8.3285 Y21.9178
G01 X8.2528 Y21.9632
G01 X8.2421 Y21.9692
G01 X8.2311 Y21.9747
G01 X8.1513 Y22.0125
G01 X8.1401 Y22.0175
G01 X8.1286 Y22.0219
G01 X8.0455 Y22.0516
G01 X8.0338 Y22.0555
G01 X8.0220 Y22.0588
G01 X7.9363 Y22.0802
G01 X7.9244 Y22.0829
G01 X7.9123 Y22.0850
G01 X7.8249 Y22.0980
G01 X7.8127 Y22.0995
G01 X7.8005 Y22.1004
G01 X7.7123 Y22.1047
G01 X7.7000 Y22.1050
G01 X5.9000 Y22.1050
G01 X5.8877 Y22.1047
G01 X5.7995 Y22.1004
G01 X5.7873 Y22.0995
G01 X5.7751 Y22.0980
G01 X5.6877 Y22.0850
G01 X5.6756 Y22.0829
G01 X5.6637 Y22.0802
G01 X5.5780 Y22.0588
G01 X5.5662 Y22.0555
G01 X5.5545 Y22.0516
G01 X5.4714 Y22.0219
G01 X5.4599 Y22.0175
G01 X5.4487 Y22.0125
G01 X5.3689 Y21.9747
G01 X5.3579 Y21.9692
G01 X5.3472 Y21.9632
G01 X5.2715 Y21.9178
G01 X5.2611 Y21.9112
G01 X5.2511 Y21.9041
G01 X5.1801 Y21.8515
G01 X5.1704 Y21.8440
G01 X5.1612 Y21.8359
G01 X5.0957 Y21.7766
G01 X5.0868 Y21.7682
G01 X5.0784 Y21.7593
G01 X5.0294 Y21.7053
G01 X3.7503 Y21.7053
G01 X3.7503 Y26.5142
G01 X3.7908 Y26.5547
G01 X5.0294 Y26.5547
G00 Z5.0000
G00 X1.5912 Y33.6052
G01 F60.00
G01 Z-0.1000
G01 F300.00
G01 X1.5774 Y33.6290
G01 X1.5544 Y33.6647
G01 X1.5458 Y33.6768
G01 X1.5388 Y33.6860
G01 X1.5313 Y33.6948
G01 X1.5234 Y33.7032
G01 X1.4409 Y33.7842
G01 X1.4272 Y33.7966
G01 X1.4126 Y33.8080
G01 X1.4025 Y33.8150
G01 X1.3920 Y33.8215
G01 X1.3757 Y33.8302
G01 X1.3645 Y33.8353
G01 X1.2579 Y33.8810
G01 X1.2463 Y33.8853
G01 X1.2346 Y33.8891
G01 X1.2227 Y33.8922
G01 X1.2106 Y33.8948
G01 X1.1923 Y33.8975
G01 X1.1801 Y33.8985
G01 X1.0579 Y33.9029
G01 X1.0395 Y33.9024
G01 X1.0272 Y33.9013
G01 X1.0150 Y33.8997
G01 X0.9969 Y33.8960
G01 X0.9850 Y33.8929
G01 X0.9732 Y33.8891
G01 X0.8636 Y33.8510
G01 X0.8522 Y33.8464
G01 X0.8410 Y33.8413
G01 X0.8248 Y33.8325
G01 X0.8092 Y33.8226
G01 X0.7944 Y33.8115
G01 X0.7058 Y33.7365
G01 X0.6922 Y33.7241
G01 X0.6836 Y33.7152
G01 X0.6755 Y33.7059
G01 X0.6678 Y33.6963
G01 X0.6607 Y33.6863
G01 X0.6540 Y33.6759
G01 X0.6479 Y33.6652
G01 X0.5925 Y33.5633
G01 X0.5848 Y33.5467
G01 X0.5803 Y33.5354
G01 X0.5747 Y33.5180
G01 X0.5716 Y33.5062
G01 X0.5691 Y33.4943
G01 X0.5526 Y33.3897
G01 X0.5513 Y33.3768
G01 X0.5506 Y33.3637
G01 X0.5505 Y1.0995
G01 X0.5511 Y1.0822
G01 X0.5522 Y1.0707
G01 X0.5538 Y1.0593
G01 X0.5749 Y0.9456
G01 X0.5775 Y0.9335
G01 X0.5825 Y0.9157
G01 X0.5887 Y0.8983
G01 X0.5962 Y0.8814
G01 X0.6050 Y0.8652
G01 X0.6693 Y0.7613
G01 X0.6800 Y0.7462
G01 X0.6877 Y0.7366
G01 X0.6959 Y0.7274
G01 X0.7090 Y0.7144
G01 X0.7230 Y0.7023
G01 X0.8156 Y0.6323
G01 X0.8256 Y0.6252
G01 X0.8412 Y0.6153
G01 X0.8520 Y0.6094
G01 X0.8631 Y0.6041
G01 X0.8802 Y0.5971
G01 X0.8978 Y0.5914
G01 X1.0035 Y0.5613
G01 X1.0222 Y0.5568
G01 X1.0412 Y0.5537
G01 X1.0604 Y0.5520
G01 X1.0995 Y0.5505
G01 X21.7668 Y0.5506
G01 X21.7841 Y0.5516
G01 X21.8012 Y0.5538
G01 X21.9210 Y0.5762
G01 X21.9330 Y0.5790
G01 X21.9448 Y0.5825
G01 X21.9564 Y0.5865
G01 X21.9679 Y0.5911
G01 X21.9846 Y0.5990
G01 X21.9953 Y0.6050
G01 X22.0940 Y0.6660
G01 X22.1044 Y0.6727
G01 X22.1143 Y0.6800
G01 X22.1286 Y0.6917
G01 X22.1419 Y0.7045
G01 X22.1503 Y0.7136
G01 X22.1619 Y0.7279
G01 X22.2282 Y0.8156
G01 X22.2353 Y0.8256
G01 X22.2420 Y0.8359
G01 X22.2511 Y0.8520
G01 X22.2564 Y0.8631
G01 X22.2634 Y0.8802
G01 X22.2691 Y0.8978
G01 X22.2992 Y1.0035
G01 X22.3024 Y1.0159
G01 X22.3049 Y1.0285
G01 X22.3068 Y1.0412
G01 X22.3081 Y1.0540
G01 X22.3097 Y1.0880
G01 X22.3100 Y1.1547
G01 X23.6165 Y1.1547
G01 X23.6299 Y1.1368
G01 X23.6377 Y1.1273
G01 X23.7118 Y1.0455
G01 X23.7250 Y1.0327
G01 X23.7977 Y0.9668
G01 X23.8070 Y0.9587
G01 X23.8167 Y0.9512
G01 X23.8955 Y0.8927
G01 X23.9055 Y0.8857
G01 X23.9159 Y0.8791
G01 X24.0001 Y0.8286
G01 X24.0108 Y0.8226
G01 X24.0217 Y0.8171
G01 X24.1104 Y0.7751
G01 X24.1216 Y0.7702
G01 X24.1331 Y0.7657
G01 X24.2255 Y0.7327
G01 X24.2371 Y0.7288
G01 X24.2490 Y0.7256
G01 X24.3442 Y0.7017
G01 X24.3561 Y0.6990
G01 X24.3682 Y0.6969
G01 X24.4653 Y0.6825
G01 X24.4775 Y0.6810
G01 X24.4897 Y0.6801
G01 X24.5877 Y0.6753
G01 X24.6000 Y0.6750
G01 X24.6123 Y0.6753
G01 X24.7103 Y0.6801
G01 X24.7225 Y0.6810
G01 X24.7347 Y0.6825
G01 X24.8318 Y0.6969
G01 X24.8439 Y0.6990
G01 X24.8558 Y0.7017
G01 X24.9510 Y0.7256
G01 X24.9629 Y0.7288
G01 X24.9745 Y0.7327
G01 X25.0669 Y0.7657
G01 X25.0784 Y0.7702
G01 X25.0896 Y0.7751
G01 X25.1783 Y0.8171
G01 X25.1892 Y0.8226
G01 X25.1999 Y0.8286
G01 X25.2841 Y0.8791
G01 X25.2945 Y0.8857
G01 X25.3045 Y0.8927
G01 X25.3833 Y0.9512
G01 X25.3930 Y0.9587
G01 X25.4023 Y0.9668
G01 X25.4750 Y1.0327
G01 X25.4882 Y1.0455
G01 X25.5623 Y1.1273
G01 X25.5701 Y1.1368
G01 X25.5835 Y1.1547
G01 X26.8900 Y1.1547
G01 X26.8901 Y1.0937
G01 X26.8906 Y1.0822
G01 X26.8924 Y1.0650
G01 X26.9157 Y0.9395
G01 X26.9185 Y0.9275
G01 X26.9239 Y0.9099
G01 X26.9282 Y0.8983
G01 X26.9331 Y0.8870
G01 X26.9385 Y0.8759
G01 X26.9476 Y0.8599
G01 X27.0088 Y0.7613
G01 X27.0195 Y0.7462
G01 X27.0312 Y0.7319
G01 X27.0440 Y0.7186
G01 X27.0531 Y0.7102
G01 X27.0625 Y0.7023
G01 X27.1551 Y0.6323
G01 X27.1651 Y0.6252
G01 X27.1754 Y0.6185
G01 X27.1861 Y0.6123
G01 X27.2026 Y0.6041
G01 X27.2197 Y0.5971
G01 X27.2314 Y0.5931
G01 X27.3430 Y0.5613
G01 X27.3554 Y0.5581
G01 X27.3743 Y0.5545
G01 X27.3871 Y0.5530
G01 X27.3999 Y0.5520
G01 X27.4332 Y0.5506
G01 X48.9063 Y0.5506
G01 X48.9236 Y0.5516
G01 X48.9407 Y0.5538
G01 X49.0544 Y0.5749
G01 X49.0665 Y0.5775
G01 X49.0843 Y0.5825
G01 X49.1017 Y0.5887
G01 X49.1186 Y0.5962
G01 X49.1348 Y0.6050
G01 X49.2387 Y0.6693
G01 X49.2489 Y0.6763
G01 X49.2587 Y0.6838
G01 X49.2726 Y0.6959
G01 X49.2856 Y0.7090
G01 X49.2977 Y0.7230
G01 X49.3677 Y0.8156
G01 X49.3748 Y0.8256
G01 X49.3815 Y0.8359
G01 X49.3906 Y0.8520
G01 X49.3984 Y0.8688
G01 X49.4029 Y0.8802
G01 X49.4086 Y0.8978
G01 X49.4387 Y1.0035
G01 X49.4432 Y1.0222
G01 X49.4463 Y1.0412
G01 X49.4480 Y1.0604
G01 X49.4495 Y1.0995
G01 X49.4495 Y48.9005
G01 X49.4492 Y48.9120
G01 X49.4484 Y48.9236
G01 X49.4462 Y48.9407
G01 X49.4251 Y49.0544
G01 X49.4225 Y49.0665
G01 X49.4175 Y49.0843
G01 X49.4113 Y49.1017
G01 X49.4038 Y49.1186
G01 X49.3950 Y49.1348
G01 X49.3307 Y49.2387
G01 X49.3200 Y49.2538
G01 X49.3123 Y49.2634
G01 X49.3041 Y49.2726
G01 X49.2910 Y49.2856
G01 X49.2770 Y49.2977
G01 X49.1844 Y49.3677
G01 X49.1744 Y49.3748
G01 X49.1641 Y49.3815
G01 X49.1480 Y49.3906
G01 X49.1369 Y49.3959
G01 X49.1198 Y49.4029
G01 X49.1022 Y49.4086
G01 X48.9965 Y49.4387
G01 X48.9778 Y49.4432
G01 X48.9588 Y49.4463
G01 X48.9460 Y49.4476
G01 X48.9120 Y49.4492
G01 X48.9005 Y49.4495
G01 X47.1765 Y49.4495
G01 X47.1650 Y49.4492
G01 X47.1535 Y49.4484
G01 X47.1363 Y49.4462
G01 X47.0165 Y49.4238
G01 X47.0046 Y49.4210
G01 X46.9927 Y49.4175
G01 X46.9811 Y49.4135
G01 X46.9697 Y49.4089
G01 X46.9530 Y49.4010
G01 X46.9422 Y49.3950
G01 X46.8435 Y49.3340
G01 X46.8332 Y49.3273
G01 X46.8232 Y49.3200
G01 X46.8136 Y49.3123
G01 X46.8044 Y49.3041
G01 X46.7914 Y49.2910
G01 X46.7833 Y49.2818
G01 X46.7756 Y49.2721
G01 X46.7057 Y49.1795
G01 X46.6955 Y49.1641
G01 X46.6894 Y49.1534
G01 X46.6837 Y49.1424
G01 X46.6787 Y49.1312
G01 X46.6741 Y49.1198
G01 X46.6702 Y49.1081
G01 X46.6384 Y48.9965
G01 X46.6353 Y48.9846
G01 X46.6328 Y48.9725
G01 X46.6302 Y48.9542
G01 X46.6292 Y48.9419
G01 X46.6289 Y48.9235
G01 X46.6299 Y48.9050
G01 X46.6400 Y48.7956
G01 X46.6415 Y48.7834
G01 X46.6435 Y48.7712
G01 X46.6477 Y48.7532
G01 X46.6532 Y48.7356
G01 X46.6575 Y48.7241
G01 X46.6625 Y48.7128
G01 X46.7170 Y48.6032
G01 X46.7266 Y48.5867
G01 X46.7337 Y48.5762
G01 X46.7412 Y48.5660
G01 X46.7493 Y48.5562
G01 X46.7843 Y48.5164
G01 X46.9978 Y48.3028
G01 X47.0169 Y48.2760
G01 X47.0362 Y48.2510
G01 X47.0538 Y48.2298
G01 X47.0676 Y48.2060
G01 X47.0845 Y48.1794
G01 X47.1032 Y48.1523
G01 X47.1149 Y48.1273
G01 X47.1294 Y48.0994
G01 X47.1457 Y48.0707
G01 X47.1552 Y48.0448
G01 X47.1672 Y48.0157
G01 X47.1809 Y47.9857
G01 X47.1897 Y47.9539
G01 X47.1992 Y47.9238
G01 X47.2086 Y47.8979
G01 X47.2134 Y47.8708
G01 X47.2202 Y47.8401
G01 X47.2285 Y47.8081
G01 X47.2310 Y47.7807
G01 X47.2350 Y47.7494
G01 X47.2405 Y47.7169
G01 X47.2405 Y41.1831
G01 X47.2350 Y41.1506
G01 X47.2309 Y41.1193
G01 X47.2285 Y41.0919
G01 X47.2202 Y41.0599
G01 X47.2134 Y41.0292
G01 X47.2086 Y41.0021
G01 X47.1992 Y40.9762
G01 X47.1897 Y40.9461
G01 X47.1809 Y40.9143
G01 X47.1672 Y40.8843
G01 X47.1552 Y40.8552
G01 X47.1457 Y40.8293
G01 X47.1294 Y40.8007
G01 X47.1149 Y40.7727
G01 X47.1032 Y40.7477
G01 X47.0845 Y40.7206
G01 X47.0676 Y40.6940
G01 X47.0538 Y40.6702
G01 X47.0362 Y40.6490
G01 X47.0169 Y40.6240
G01 X46.9978 Y40.5972
G01 X46.2328 Y39.8322
G01 X46.2060 Y39.8131
G01 X46.1810 Y39.7938
G01 X46.1598 Y39.7762
G01 X46.1360 Y39.7624
G01 X46.1094 Y39.7455
G01 X46.0823 Y39.7268
G01 X46.0573 Y39.7151
G01 X46.0294 Y39.7006
G01 X46.0007 Y39.6843
G01 X45.9748 Y39.6748
G01 X45.9457 Y39.6628
G01 X45.9157 Y39.6491
G01 X45.8839 Y39.6403
G01 X45.8538 Y39.6308
G01 X45.8279 Y39.6214
G01 X45.7955 Y39.6155
G01 X45.7647 Y39.6086
G01 X45.7381 Y39.6015
G01 X45.7053 Y39.5984
G01 X45.6740 Y39.5942
G01 X45.6469 Y39.5895
G01 X42.3025 Y39.5895
G01 X42.2852 Y39.5889
G01 X42.2737 Y39.5878
G01 X42.2566 Y39.5852
G01 X42.1425 Y39.5638
G01 X42.1246 Y39.5593
G01 X42.1071 Y39.5535
G01 X42.0900 Y39.5464
G01 X42.0790 Y39.5410
G01 X42.0682 Y39.5350
G01 X41.9640 Y39.4705
G01 X41.9533 Y39.4631
G01 X41.9381 Y39.4510
G01 X41.9143 Y39.4287
G01 X41.6863 Y39.2007
G01 X41.6783 Y39.1923
G01 X41.6707 Y39.1836
G01 X41.6636 Y39.1745
G01 X41.6568 Y39.1652
G01 X41.5913 Y39.0694
G01 X41.5818 Y39.0535
G01 X41.5762 Y39.0426
G01 X41.5711 Y39.0314
G01 X41.5644 Y39.0141
G01 X41.5591 Y38.9965
G01 X41.5325 Y38.8835
G01 X41.5287 Y38.8644
G01 X41.5271 Y38.8515
G01 X41.5261 Y38.8385
G01 X41.5255 Y38.8125
G01 X41.5255 Y33.5631
G01 X41.5200 Y33.5306
G01 X41.5159 Y33.4993
G01 X41.5135 Y33.4719
G01 X41.5052 Y33.4399
G01 X41.4984 Y33.4092
G01 X41.4936 Y33.3821
G01 X41.4842 Y33.3562
G01 X41.4747 Y33.3261
G01 X41.4659 Y33.2943
G01 X41.4522 Y33.2643
G01 X41.4402 Y33.2352
G01 X41.4307 Y33.2093
G01 X41.4144 Y33.1807
G01 X41.3999 Y33.1527
G01 X41.3882 Y33.1277
G01 X41.3695 Y33.1006
G01 X41.3526 Y33.0740
G01 X41.3388 Y33.0502
G01 X41.3212 Y33.0290
G01 X41.3019 Y33.0040
G01 X41.2828 Y32.9772
G01 X35.8307 Y27.5251
G01 X35.8228 Y27.5167
G01 X35.8115 Y27.5035
G01 X35.8046 Y27.4943
G01 X35.7357 Y27.3938
G01 X35.7293 Y27.3834
G01 X35.7234 Y27.3726
G01 X35.7155 Y27.3559
G01 X35.7110 Y27.3445
G01 X35.7052 Y27.3270
G01 X35.7021 Y27.3151
G01 X35.6770 Y27.2087
G01 X35.6743 Y27.1958
G01 X35.6723 Y27.1829
G01 X35.6710 Y27.1698
G01 X35.6683 Y27.1155
G01 X35.6233 Y26.8895
G01 X35.5454 Y26.6726
G01 X35.4364 Y26.4696
G01 X35.2985 Y26.2849
G01 X35.1348 Y26.1227
G01 X34.9489 Y25.9864
G01 X34.8257 Y25.9216
G01 X34.8156 Y25.9160
G01 X34.8010 Y25.9067
G01 X34.7870 Y25.8964
G01 X34.7008 Y25.8282
G01 X34.6914 Y25.8204
G01 X34.6823 Y25.8120
G01 X34.6737 Y25.8033
G01 X34.6615 Y25.7893
G01 X34.6540 Y25.7796
G01 X34.6437 Y25.7643
G01 X34.5817 Y25.6589
G01 X34.5760 Y25.6480
G01 X34.5684 Y25.6312
G01 X34.5621 Y25.6138
G01 X34.5586 Y25.6020
G01 X34.5558 Y25.5900
G01 X34.5535 Y25.5779
G01 X34.5357 Y25.4695
G01 X34.5340 Y25.4573
G01 X34.5329 Y25.4450
G01 X34.5324 Y25.4327
G01 X34.5328 Y25.4142
G01 X34.5339 Y25.4019
G01 X34.5366 Y25.3837
G01 X34.5603 Y25.2701
G01 X34.5646 Y25.2527
G01 X34.5702 Y25.2357
G01 X34.5745 Y25.2246
G01 X34.5794 Y25.2137
G01 X34.5877 Y25.1979
G01 X34.5971 Y25.1827
G01 X34.6655 Y25.0804
G01 X34.6766 Y25.0657
G01 X34.6888 Y25.0519
G01 X35.5678 Y24.1728
G01 X35.5869 Y24.1460
G01 X35.6062 Y24.1210
G01 X35.6238 Y24.0998
G01 X35.6376 Y24.0760
G01 X35.6545 Y24.0494
G01 X35.6732 Y24.0223
G01 X35.6849 Y23.9973
G01 X35.6994 Y23.9694
G01 X35.7157 Y23.9407
G01 X35.7252 Y23.9148
G01 X35.7372 Y23.8857
G01 X35.7509 Y23.8557
G01 X35.7581 Y23.8291
G01 X35.7692 Y23.7938
G01 X35.7861 Y23.7469
G01 X35.7906 Y23.7353
G01 X35.7957 Y23.7241
G01 X35.8406 Y23.6302
G01 X35.8462 Y23.6192
G01 X35.8523 Y23.6085
G01 X35.8625 Y23.5931
G01 X35.8699 Y23.5832
G01 X35.8778 Y23.5737
G01 X35.8904 Y23.5603
G01 X35.9794 Y23.4766
G01 X35.9936 Y23.4648
G01 X36.0087 Y23.4540
G01 X36.0191 Y23.4475
G01 X36.0299 Y23.4415
G01 X36.0410 Y23.4361
G01 X36.0523 Y23.4312
G01 X36.1598 Y23.3876
G01 X36.1773 Y23.3818
G01 X36.1892 Y23.3786
G01 X36.2013 Y23.3760
G01 X36.2134 Y23.3740
G01 X36.2257 Y23.3726
G01 X36.2380 Y23.3718
G01 X36.3540 Y23.3699
G01 X36.3730 Y23.3704
G01 X36.3857 Y23.3714
G01 X36.3982 Y23.3732
G01 X36.4169 Y23.3770
G01 X36.4291 Y23.3803
G01 X36.4412 Y23.3842
G01 X36.5369 Y23.4180
G01 X36.5539 Y23.4248
G01 X36.5649 Y23.4299
G01 X36.5973 Y23.4474
G01 X36.8120 Y23.5305
G01 X37.0429 Y23.5840
G01 X37.2723 Y23.6039
G01 X37.5056 Y23.5913
G01 X37.7348 Y23.5459
G01 X37.7570 Y23.5384
G01 X37.2147 Y22.9961
G01 X37.1971 Y22.9949
G01 X37.1849 Y22.9934
G01 X37.1072 Y22.9819
G01 X37.0952 Y22.9798
G01 X37.0832 Y22.9771
G01 X37.0070 Y22.9581
G01 X36.9952 Y22.9548
G01 X36.9835 Y22.9509
G01 X36.9096 Y22.9245
G01 X36.8982 Y22.9201
G01 X36.8870 Y22.9151
G01 X36.8160 Y22.8815
G01 X36.8050 Y22.8760
G01 X36.7944 Y22.8700
G01 X36.7270 Y22.8296
G01 X36.7167 Y22.8230
G01 X36.7066 Y22.8160
G01 X36.6436 Y22.7692
G01 X36.6339 Y22.7617
G01 X36.6246 Y22.7536
G01 X36.5664 Y22.7009
G01 X36.5575 Y22.6925
G01 X36.5491 Y22.6836
G01 X36.4964 Y22.6254
G01 X36.4883 Y22.6161
G01 X36.4808 Y22.6064
G01 X36.4340 Y22.5434
G01 X36.4270 Y22.5333
G01 X36.4204 Y22.5230
G01 X36.3800 Y22.4556
G01 X36.3740 Y22.4450
G01 X36.3685 Y22.4340
G01 X36.3349 Y22.3630
G01 X36.3299 Y22.3518
G01 X36.3255 Y22.3404
G01 X36.2991 Y22.2665
G01 X36.2952 Y22.2548
G01 X36.2919 Y22.2430
G01 X36.2729 Y22.1668
G01 X36.2702 Y22.1548
G01 X36.2681 Y22.1428
G01 X36.2557 Y22.0590
G01 X36.2542 Y22.0407
G01 X36.2503 Y21.9623
G01 X36.2500 Y21.9500
G01 X36.2503 Y21.9377
G01 X36.2542 Y21.8593
G01 X36.2551 Y21.8471
G01 X36.2566 Y21.8349
G01 X36.2681 Y21.7572
G01 X36.2702 Y21.7452
G01 X36.2729 Y21.7332
G01 X36.2919 Y21.6570
G01 X36.2952 Y21.6452
G01 X36.2991 Y21.6335
G01 X36.3255 Y21.5596
G01 X36.3299 Y21.5482
G01 X36.3349 Y21.5370
G01 X36.3685 Y21.4660
G01 X36.3740 Y21.4550
G01 X36.3800 Y21.4444
G01 X36.4204 Y21.3770
G01 X36.4270 Y21.3667
G01 X36.4340 Y21.3566
G01 X36.4808 Y21.2936
G01 X36.4883 Y21.2839
G01 X36.4964 Y21.2746
G01 X36.5491 Y21.2164
G01 X36.5575 Y21.2075
G01 X36.5664 Y21.1991
G01 X36.6246 Y21.1464
G01 X36.6339 Y21.1383
G01 X36.6436 Y21.1308
G01 X36.7066 Y21.0840
G01 X36.7167 Y21.0770
G01 X36.7270 Y21.0704
G01 X36.7944 Y21.0300
G01 X36.8105 Y21.0212
G01 X36.8870 Y20.9849
G01 X36.8982 Y20.9799
G01 X36.9096 Y20.9755
G01 X36.9835 Y20.9491
G01 X36.9952 Y20.9452
G01 X37.0070 Y20.9419
G01 X37.0832 Y20.9229
G01 X37.0952 Y20.9202
G01 X37.1072 Y20.9181
G01 X37.1849 Y20.9066
G01 X37.1971 Y20.9051
G01 X37.2147 Y20.9039
G01 X37.7560 Y20.3626
G01 X37.7457 Y20.3586
G01 X37.7352 Y20.3539
G01 X37.6304 Y20.3040
G01 X37.6195 Y20.2981
G01 X37.6090 Y20.2918
G01 X37.5988 Y20.2849
G01 X37.5889 Y20.2775
G01 X37.5794 Y20.2697
G01 X37.5659 Y20.2571
G01 X37.4820 Y20.1682
G01 X37.4740 Y20.1589
G01 X37.4628 Y20.1441
G01 X37.4560 Y20.1339
G01 X37.4497 Y20.1233
G01 X37.4440 Y20.1124
G01 X37.4388 Y20.1012
G01 X37.3948 Y19.9938
G01 X37.3905 Y19.9823
G01 X37.3850 Y19.9646
G01 X37.3820 Y19.9526
G01 X37.3797 Y19.9405
G01 X37.3729 Y19.8925
G01 X37.3680 Y19.8331
G01 X37.3184 Y19.6264
G01 X37.2370 Y19.4300
G01 X37.1260 Y19.2487
G01 X36.9879 Y19.0871
G01 X36.8263 Y18.9490
G01 X36.6450 Y18.8380
G01 X36.4486 Y18.7566
G01 X36.3023 Y18.7214
G01 X36.2857 Y18.7164
G01 X36.2749 Y18.7124
G01 X36.1582 Y18.6605
G01 X36.1471 Y18.6548
G01 X36.1362 Y18.6486
G01 X36.1257 Y18.6419
G01 X36.1156 Y18.6346
G01 X36.1058 Y18.6269
G01 X36.0645 Y18.5924
G01 X36.0560 Y18.5850
G01 X36.0478 Y18.5772
G01 X35.0778 Y17.6072
G01 X35.0510 Y17.5881
G01 X35.0260 Y17.5688
G01 X35.0048 Y17.5512
G01 X34.9810 Y17.5374
G01 X34.9544 Y17.5205
G01 X34.9273 Y17.5018
G01 X34.9023 Y17.4901
G01 X34.8744 Y17.4756
G01 X34.8457 Y17.4593
G01 X34.8198 Y17.4498
G01 X34.7907 Y17.4378
G01 X34.7607 Y17.4241
G01 X34.7289 Y17.4153
G01 X34.6988 Y17.4058
G01 X34.6729 Y17.3964
G01 X34.6458 Y17.3916
G01 X34.6151 Y17.3848
G01 X34.5831 Y17.3765
G01 X34.5557 Y17.3740
G01 X34.5244 Y17.3700
G01 X34.4919 Y17.3645
G01 X29.9781 Y17.3645
G01 X29.9608 Y17.3639
G01 X29.9493 Y17.3628
G01 X29.9322 Y17.3602
G01 X29.8181 Y17.3388
G01 X29.8061 Y17.3360
G01 X29.7943 Y17.3325
G01 X29.7827 Y17.3285
G01 X29.7712 Y17.3239
G01 X29.7600 Y17.3188
G01 X29.7438 Y17.3100
G01 X29.6399 Y17.2457
G01 X29.6297 Y17.2387
G01 X29.6199 Y17.2312
G01 X29.6105 Y17.2233
G01 X29.6015 Y17.2149
G01 X29.5930 Y17.2060
G01 X29.5809 Y17.1920
G01 X29.5109 Y17.0994
G01 X29.5038 Y17.0894
G01 X29.4971 Y17.0791
G01 X29.4909 Y17.0684
G01 X29.4853 Y17.0574
G01 X29.4779 Y17.0405
G01 X29.4718 Y17.0231
G01 X29.4399 Y16.9115
G01 X29.4355 Y16.8936
G01 X29.4333 Y16.8814
G01 X29.4318 Y16.8692
G01 X29.4308 Y16.8569
G01 X29.4304 Y16.8385
G01 X29.4310 Y16.8262
G01 X29.4422 Y16.7045
G01 X29.4440 Y16.6923
G01 X29.4463 Y16.6802
G01 X29.4492 Y16.6682
G01 X29.4528 Y16.6564
G01 X29.4591 Y16.6391
G01 X29.4641 Y16.6278
G01 X29.5157 Y16.5239
G01 X29.5215 Y16.5130
G01 X29.5311 Y16.4972
G01 X29.5419 Y16.4822
G01 X29.5537 Y16.4680
G01 X29.5666 Y16.4548
G01 X29.6523 Y16.3765
G01 X29.6617 Y16.3684
G01 X29.6766 Y16.3570
G01 X29.6870 Y16.3500
G01 X29.6977 Y16.3436
G01 X29.7087 Y16.3378
G01 X29.7258 Y16.3300
G01 X29.7846 Y16.3075
G01 X29.8017 Y16.2988
G01 X29.8129 Y16.2939
G01 X29.8244 Y16.2896
G01 X29.8420 Y16.2842
G01 X29.8897 Y16.2714
G01 X29.9258 Y16.2634
G01 X29.9529 Y16.2586
G01 X29.9788 Y16.2492
G01 X30.0089 Y16.2397
G01 X30.0407 Y16.2309
G01 X30.0707 Y16.2172
G01 X30.0998 Y16.2052
G01 X30.1257 Y16.1957
G01 X30.1543 Y16.1794
G01 X30.1823 Y16.1649
G01 X30.2073 Y16.1532
G01 X30.2344 Y16.1345
G01 X30.2610 Y16.1176
G01 X30.2848 Y16.1038
G01 X30.3060 Y16.0862
G01 X30.3310 Y16.0669
G01 X30.3578 Y16.0478
G01 X31.7578 Y14.6478
G01 X31.7769 Y14.6210
G01 X31.7962 Y14.5960
G01 X31.8138 Y14.5748
G01 X31.8276 Y14.5510
G01 X31.8445 Y14.5244
G01 X31.8632 Y14.4973
G01 X31.8749 Y14.4723
G01 X31.8894 Y14.4444
G01 X31.9057 Y14.4157
G01 X31.9152 Y14.3898
G01 X31.9272 Y14.3607
G01 X31.9409 Y14.3307
G01 X31.9497 Y14.2989
G01 X31.9592 Y14.2688
G01 X31.9686 Y14.2429
G01 X31.9734 Y14.2158
G01 X31.9802 Y14.1851
G01 X31.9885 Y14.1531
G01 X31.9910 Y14.1257
G01 X31.9950 Y14.0944
G01 X32.0005 Y14.0619
G01 X32.0006 Y13.9067
G01 X32.0011 Y13.8951
G01 X32.0029 Y13.8779
G01 X32.0262 Y13.7524
G01 X32.0290 Y13.7405
G01 X32.0325 Y13.7286
G01 X32.0365 Y13.7170
G01 X32.0411 Y13.7056
G01 X32.0490 Y13.6889
G01 X32.0550 Y13.6781
G01 X32.1160 Y13.5794
G01 X32.1263 Y13.5641
G01 X32.1377 Y13.5495
G01 X32.1459 Y13.5403
G01 X32.1545 Y13.5315
G01 X32.1682 Y13.5192
G01 X32.1779 Y13.5115
G01 X32.2656 Y13.4453
G01 X32.2807 Y13.4347
G01 X32.2966 Y13.4253
G01 X32.3131 Y13.4170
G01 X32.3302 Y13.4100
G01 X32.3478 Y13.4043
G01 X32.4535 Y13.3742
G01 X32.4654 Y13.3712
G01 X32.4775 Y13.3687
G01 X32.4958 Y13.3661
G01 X32.5081 Y13.3651
G01 X32.5204 Y13.3647
G01 X32.5327 Y13.3649
G01 X32.5450 Y13.3658
G01 X32.6544 Y13.3759
G01 X32.6668 Y13.3774
G01 X32.6792 Y13.3795
G01 X32.6914 Y13.3822
G01 X32.7094 Y13.3874
G01 X32.7212 Y13.3916
G01 X32.7716 Y13.4110
G01 X32.7872 Y13.4176
G01 X32.9670 Y13.5062
G01 X33.1864 Y13.5764
G01 X33.4139 Y13.6135
G01 X33.6443 Y13.6165
G01 X33.8727 Y13.5854
G01 X34.0939 Y13.5209
G01 X34.3032 Y13.4244
G01 X34.4960 Y13.2981
G01 X34.6679 Y13.1446
G01 X34.8153 Y12.9674
G01 X34.9348 Y12.7704
G01 X35.0239 Y12.5579
G01 X35.0807 Y12.3345
G01 X35.1037 Y12.1052
G01 X35.0927 Y11.8750
G01 X35.0477 Y11.6490
G01 X34.9699 Y11.4321
G01 X34.8608 Y11.2291
G01 X34.7229 Y11.0445
G01 X34.6950 Y11.0164
G01 X34.6837 Y11.0033
G01 X34.6734 Y10.9894
G01 X34.6109 Y10.8990
G01 X34.6009 Y10.8834
G01 X34.5950 Y10.8726
G01 X34.5870 Y10.8560
G01 X34.5803 Y10.8387
G01 X34.5766 Y10.8270
G01 X34.5734 Y10.8151
G01 X34.5465 Y10.7026
G01 X34.5434 Y10.6853
G01 X34.5420 Y10.6737
G01 X34.5412 Y10.6621
G01 X34.5405 Y10.6348
G01 X34.5405 Y10.0063
G01 X34.5408 Y9.9948
G01 X34.5416 Y9.9832
G01 X34.5438 Y9.9661
G01 X34.5649 Y9.8524
G01 X34.5675 Y9.8403
G01 X34.5725 Y9.8225
G01 X34.5787 Y9.8051
G01 X34.5862 Y9.7882
G01 X34.5950 Y9.7720
G01 X34.6593 Y9.6681
G01 X34.6700 Y9.6530
G01 X34.6817 Y9.6387
G01 X34.6945 Y9.6254
G01 X34.7036 Y9.6170
G01 X34.7130 Y9.6091
G01 X34.8056 Y9.5391
G01 X34.8207 Y9.5286
G01 X34.8366 Y9.5191
G01 X34.8531 Y9.5109
G01 X34.8702 Y9.5039
G01 X34.8878 Y9.4982
G01 X34.9935 Y9.4681
G01 X35.0114 Y9.4637
G01 X35.0236 Y9.4615
G01 X35.0419 Y9.4594
G01 X35.0542 Y9.4587
G01 X35.0665 Y9.4586
G01 X35.0788 Y9.4592
G01 X35.2008 Y9.4705
G01 X35.2135 Y9.4723
G01 X35.2300 Y9.4757
G01 X35.2300 Y8.7305
G01 X35.2168 Y8.7182
G01 X35.2084 Y8.7093
G01 X35.1491 Y8.6438
G01 X35.1410 Y8.6346
G01 X35.1335 Y8.6249
G01 X35.0809 Y8.5539
G01 X35.0738 Y8.5439
G01 X35.0672 Y8.5335
G01 X35.0218 Y8.4578
G01 X35.0158 Y8.4471
G01 X35.0103 Y8.4361
G01 X34.9725 Y8.3563
G01 X34.9675 Y8.3451
G01 X34.9631 Y8.3336
G01 X34.9334 Y8.2505
G01 X34.9295 Y8.2388
G01 X34.9262 Y8.2270
G01 X34.9048 Y8.1413
G01 X34.9021 Y8.1294
G01 X34.9000 Y8.1173
G01 X34.8870 Y8.0299
G01 X34.8855 Y8.0177
G01 X34.8846 Y8.0055
G01 X34.8803 Y7.9173
G01 X34.8800 Y7.9050
G01 X34.8801 Y6.0989
G01 X34.8846 Y6.0045
G01 X34.8855 Y5.9923
G01 X34.8870 Y5.9801
G01 X34.9000 Y5.8927
G01 X34.9021 Y5.8806
G01 X34.9048 Y5.8687
G01 X34.9262 Y5.7830
G01 X34.9295 Y5.7712
G01 X34.9334 Y5.7595
G01 X34.9631 Y5.6764
G01 X34.9675 Y5.6649
G01 X34.9725 Y5.6537
G01 X35.0103 Y5.5739
G01 X35.0158 Y5.5629
G01 X35.0218 Y5.5522
G01 X35.0672 Y5.4765
G01 X35.0738 Y5.4661
G01 X35.0809 Y5.4561
G01 X35.1335 Y5.3851
G01 X35.1410 Y5.3754
G01 X35.1491 Y5.3662
G01 X35.2084 Y5.3007
G01 X35.2168 Y5.2918
G01 X35.2257 Y5.2834
G01 X35.2912 Y5.2241
G01 X35.3004 Y5.2160
G01 X35.3101 Y5.2085
G01 X35.3811 Y5.1559
G01 X35.3911 Y5.1488
G01 X35.4015 Y5.1422
G01 X35.4772 Y5.0968
G01 X35.4879 Y5.0908
G01 X35.4989 Y5.0853
G01 X35.5787 Y5.0475
G01 X35.5899 Y5.0425
G01 X35.6014 Y5.0381
G01 X35.6845 Y5.0084
G01 X35.6962 Y5.0045
G01 X35.7080 Y5.0012
G01 X35.7937 Y4.9798
G01 X35.8056 Y4.9771
G01 X35.8177 Y4.9750
G01 X35.9051 Y4.9620
G01 X35.9173 Y4.9605
G01 X35.9295 Y4.9596
G01 X36.0177 Y4.9553
G01 X36.0300 Y4.9550
G01 X36.0423 Y4.9553
G01 X36.1305 Y4.9596
G01 X36.1427 Y4.9605
G01 X36.1549 Y4.9620
G01 X36.2423 Y4.9750
G01 X36.2544 Y4.9771
G01 X36.2663 Y4.9798
G01 X36.3520 Y5.0012
G01 X36.3638 Y5.0045
G01 X36.3755 Y5.0084
G01 X36.4586 Y5.0381
G01 X36.4701 Y5.0425
G01 X36.4813 Y5.0475
G01 X36.5611 Y5.0853
G01 X36.5721 Y5.0908
G01 X36.5828 Y5.0968
G01 X36.6585 Y5.1422
G01 X36.6689 Y5.1488
G01 X36.6789 Y5.1559
G01 X36.7499 Y5.2085
G01 X36.7596 Y5.2160
G01 X36.7688 Y5.2241
G01 X36.8343 Y5.2834
G01 X36.8432 Y5.2918
G01 X36.8516 Y5.3007
G01 X36.9109 Y5.3662
G01 X36.9190 Y5.3754
G01 X36.9265 Y5.3851
G01 X36.9791 Y5.4561
G01 X36.9862 Y5.4661
G01 X36.9928 Y5.4765
G01 X37.0382 Y5.5522
G01 X37.0442 Y5.5629
G01 X37.0497 Y5.5739
G01 X37.0875 Y5.6537
G01 X37.0925 Y5.6649
G01 X37.0969 Y5.6764
G01 X37.1266 Y5.7595
G01 X37.1305 Y5.7712
G01 X37.1338 Y5.7830
G01 X37.1552 Y5.8687
G01 X37.1579 Y5.8806
G01 X37.1600 Y5.8927
G01 X37.1730 Y5.9801
G01 X37.1745 Y5.9923
G01 X37.1754 Y6.0045
G01 X37.1799 Y6.0989
G01 X37.1800 Y6.2050
G01 X37.7800 Y6.2050
G01 X37.7799 Y6.0408
G01 X37.7666 Y5.8561
G01 X37.7152 Y5.6172
G01 X37.6517 Y5.4445
G01 X37.6480 Y5.4336
G01 X37.6448 Y5.4225
G01 X37.6420 Y5.4113
G01 X37.6398 Y5.3999
G01 X37.6214 Y5.2916
G01 X37.6196 Y5.2794
G01 X37.6185 Y5.2672
G01 X37.6178 Y5.2487
G01 X37.6186 Y5.2302
G01 X37.6199 Y5.2180
G01 X37.6229 Y5.1998
G01 X37.6448 Y5.0921
G01 X37.6476 Y5.0801
G01 X37.6509 Y5.0682
G01 X37.6570 Y5.0508
G01 X37.6644 Y5.0338
G01 X37.6700 Y5.0229
G01 X37.6761 Y5.0122
G01 X37.7387 Y4.9145
G01 X37.7456 Y4.9043
G01 X37.7569 Y4.8897
G01 X37.7650 Y4.8804
G01 X37.7780 Y4.8672
G01 X37.7872 Y4.8590
G01 X37.8017 Y4.8476
G01 X37.8955 Y4.7792
G01 X37.9110 Y4.7693
G01 X37.9218 Y4.7633
G01 X37.9329 Y4.7579
G01 X37.9499 Y4.7507
G01 X37.9674 Y4.7449
G01 X38.0795 Y4.7148
G01 X38.0916 Y4.7119
G01 X38.1037 Y4.7096
G01 X38.1160 Y4.7079
G01 X38.1283 Y4.7069
G01 X38.1668 Y4.7055
G01 X45.1913 Y4.7056
G01 X45.2086 Y4.7066
G01 X45.2257 Y4.7088
G01 X45.3394 Y4.7299
G01 X45.3515 Y4.7325
G01 X45.3634 Y4.7357
G01 X45.3751 Y4.7394
G01 X45.3867 Y4.7437
G01 X45.4036 Y4.7512
G01 X45.4198 Y4.7600
G01 X45.5185 Y4.8210
G01 X45.5339 Y4.8313
G01 X45.5437 Y4.8388
G01 X45.5531 Y4.8467
G01 X45.5621 Y4.8551
G01 X45.5706 Y4.8640
G01 X45.5827 Y4.8780
G01 X45.6563 Y4.9755
G01 X45.6632 Y4.9857
G01 X45.6697 Y4.9962
G01 X45.6756 Y5.0070
G01 X45.6809 Y5.0181
G01 X45.6879 Y5.0352
G01 X45.6919 Y5.0469
G01 X45.7237 Y5.1585
G01 X45.7269 Y5.1709
G01 X45.7305 Y5.1898
G01 X45.7320 Y5.2026
G01 X45.7330 Y5.2154
G01 X45.7344 Y5.2487
G01 X45.7345 Y14.8242
G01 X45.7342 Y14.8357
G01 X45.7334 Y14.8472
G01 X45.7312 Y14.8644
G01 X45.7101 Y14.9781
G01 X45.7075 Y14.9902
G01 X45.7043 Y15.0021
G01 X45.7006 Y15.0138
G01 X45.6939 Y15.0310
G01 X45.6888 Y15.0422
G01 X45.6831 Y15.0531
G01 X45.6717 Y15.0721
G01 X45.6190 Y15.1572
G01 X45.6087 Y15.1725
G01 X45.6012 Y15.1823
G01 X45.5891 Y15.1963
G01 X45.5760 Y15.2093
G01 X45.5668 Y15.2174
G01 X45.5571 Y15.2251
G01 X45.4645 Y15.2950
G01 X45.4491 Y15.3052
G01 X45.4384 Y15.3113
G01 X45.4274 Y15.3170
G01 X45.4105 Y15.3244
G01 X45.3931 Y15.3305
G01 X45.2815 Y15.3623
G01 X45.2696 Y15.3654
G01 X45.2575 Y15.3679
G01 X45.2392 Y15.3705
G01 X45.2269 Y15.3715
G01 X45.2146 Y15.3719
G01 X45.1962 Y15.3713
G01 X45.0806 Y15.3607
G01 X45.0688 Y15.3593
G01 X45.0512 Y15.3562
G01 X45.0339 Y15.3518
G01 X45.0045 Y15.3425
G01 X44.7744 Y15.2621
G01 X44.5480 Y15.2191
G01 X44.3177 Y15.2101
G01 X44.0886 Y15.2352
G01 X43.8658 Y15.2939
G01 X43.6540 Y15.3848
G01 X43.4581 Y15.5061
G01 X43.2822 Y15.6550
G01 X43.1302 Y15.8283
G01 X43.0056 Y16.0221
G01 X42.9109 Y16.2322
G01 X42.8484 Y16.4540
G01 X42.8185 Y16.6886
G01 X42.8167 Y16.7580
G01 X42.8342 Y16.9938
G01 X42.8851 Y17.2186
G01 X42.9686 Y17.4334
G01 X43.0830 Y17.6335
G01 X43.2256 Y17.8144
G01 X43.3935 Y17.9724
G01 X43.5829 Y18.1037
G01 X43.7895 Y18.2056
G01 X44.0090 Y18.2759
G01 X44.2365 Y18.3129
G01 X44.4669 Y18.3160
G01 X44.6953 Y18.2849
G01 X44.9165 Y18.2204
G01 X44.9609 Y18.2000
G01 X44.9771 Y18.1937
G01 X44.9880 Y18.1901
G01 X45.1057 Y18.1601
G01 X45.1238 Y18.1562
G01 X45.1360 Y18.1544
G01 X45.1482 Y18.1532
G01 X45.1667 Y18.1525
G01 X45.1790 Y18.1528
G01 X45.1913 Y18.1537
G01 X45.3065 Y18.1678
G01 X45.3186 Y18.1696
G01 X45.3307 Y18.1720
G01 X45.3427 Y18.1750
G01 X45.3603 Y18.1806
G01 X45.3718 Y18.1850
G01 X45.3830 Y18.1900
G01 X45.3940 Y18.1956
G01 X45.4963 Y18.2505
G01 X45.5120 Y18.2602
G01 X45.5269 Y18.2710
G01 X45.5411 Y18.2830
G01 X45.5542 Y18.2959
G01 X45.5625 Y18.3050
G01 X45.6380 Y18.3931
G01 X45.6492 Y18.4079
G01 X45.6592 Y18.4234
