(G-CODE GENERATED BY FLATCAM v8.994 - www.flatcam.org - Version Date: 2020/11/7)

(Name: hub_exterior-B_Cu.gbr_iso_combined_cnc)
(Type: G-code from Geometry)
(Units: MM)

(Created on Wednesday, 24 August 2022 at 12:02)

(This preprocessor is the default preprocessor used by FlatCAM.)
(It is made to work with MACH3 compatible motion controllers.)

(TOOL DIAMETER: 0.5 mm)
(Feedrate_XY: 300.0 mm/min)
(Feedrate_Z: 60.0 mm/min)
(Feedrate rapids 1500.0 mm/min)

(Z_Cut: -0.1 mm)
(Z_Move: 5.0 mm)
(Z Start: None mm)
(Z End: 15.0 mm)
(X,Y End: None mm)
(Steps per circle: 64)
(Preprocessor Geometry: default)

(X range:    0.4505 ...   49.5495  mm)
(Y range:    0.4505 ...   49.6453  mm)

(Spindle Speed: 0.0 RPM)
G21
G90
G94

G01 F300.00

M5
G00 Z15.0000
G00 X0.0000 Y0.0000
T1
M6    
(MSG, Change to Tool Dia = 0.5000)
M0
G00 Z15.0000

M03
G01 F300.00
G00 X6.0400 Y10.4150
G01 F60.00
G01 Z-0.1000
G01 F300.00
G01 X5.9835 Y10.4150
G01 X5.9745 Y10.4153
G01 X5.8101 Y10.4273
G01 X5.7924 Y10.4298
G01 X5.5761 Y10.4776
G01 X5.5589 Y10.4827
G01 X5.3518 Y10.5612
G01 X5.3356 Y10.5687
G01 X5.1420 Y10.6763
G01 X5.1046 Y10.7006
G01 X5.0891 Y10.7095
G01 X5.0785 Y10.7148
G01 X4.9497 Y10.7748
G01 X4.9333 Y10.7818
G01 X4.9221 Y10.7858
G01 X4.9107 Y10.7892
G01 X4.8992 Y10.7921
G01 X4.8875 Y10.7945
G01 X4.7412 Y10.8168
G01 X4.7235 Y10.8189
G01 X4.7057 Y10.8197
G01 X4.6878 Y10.8192
G01 X4.6760 Y10.8181
G01 X4.5293 Y10.7984
G01 X4.5176 Y10.7965
G01 X4.5059 Y10.7941
G01 X4.4887 Y10.7894
G01 X4.4774 Y10.7856
G01 X4.4609 Y10.7789
G01 X4.3258 Y10.7185
G01 X4.3152 Y10.7131
G01 X4.2998 Y10.7041
G01 X4.2899 Y10.6975
G01 X4.2756 Y10.6868
G01 X4.1629 Y10.5908
G01 X4.1541 Y10.5829
G01 X4.1415 Y10.5702
G01 X4.1336 Y10.5613
G01 X4.1226 Y10.5473
G01 X4.1159 Y10.5375
G01 X4.0381 Y10.4186
G01 X4.0318 Y10.4085
G01 X4.0261 Y10.3981
G01 X4.0208 Y10.3874
G01 X4.0160 Y10.3765
G01 X4.0098 Y10.3598
G01 X3.9669 Y10.2182
G01 X3.9637 Y10.2065
G01 X3.9599 Y10.1887
G01 X3.9574 Y10.1707
G01 X3.9512 Y10.0896
G01 X3.9505 Y10.0707
G01 X3.9505 Y5.3590
G01 X3.9508 Y5.3471
G01 X3.9516 Y5.3352
G01 X3.9530 Y5.3234
G01 X3.9742 Y5.1769
G01 X3.9764 Y5.1652
G01 X3.9792 Y5.1537
G01 X3.9826 Y5.1422
G01 X3.9886 Y5.1255
G01 X3.9933 Y5.1145
G01 X4.0523 Y4.9853
G01 X4.0578 Y4.9741
G01 X4.0638 Y4.9631
G01 X4.0739 Y4.9473
G01 X4.0812 Y4.9372
G01 X4.1520 Y4.8492
G01 X4.1607 Y4.8390
G01 X4.1743 Y4.8249
G01 X4.1829 Y4.8167
G01 X4.1966 Y4.8051
G01 X4.3150 Y4.7164
G01 X4.3296 Y4.7062
G01 X4.3398 Y4.7000
G01 X4.3556 Y4.6917
G01 X4.3664 Y4.6867
G01 X4.3774 Y4.6823
G01 X4.5105 Y4.6327
G01 X4.5223 Y4.6286
G01 X4.5343 Y4.6251
G01 X4.5526 Y4.6210
G01 X4.5712 Y4.6183
G01 X4.6772 Y4.6069
G01 X4.6906 Y4.6059
G01 X4.7040 Y4.6055
G01 X11.3696 Y4.6055
G01 X11.3874 Y4.6061
G01 X11.4051 Y4.6080
G01 X11.5457 Y4.6283
G01 X11.5633 Y4.6314
G01 X11.5749 Y4.6342
G01 X11.5919 Y4.6395
G01 X11.6086 Y4.6459
G01 X11.7486 Y4.7098
G01 X11.7592 Y4.7153
G01 X11.7745 Y4.7244
G01 X11.7892 Y4.7346
G01 X11.8031 Y4.7458
G01 X11.9104 Y4.8388
G01 X11.9192 Y4.8468
G01 X11.9276 Y4.8552
G01 X11.9356 Y4.8640
G01 X11.9432 Y4.8732
G01 X11.9537 Y4.8876
G01 X12.0369 Y5.0171
G01 X12.0457 Y5.0327
G01 X12.0533 Y5.0488
G01 X12.0577 Y5.0598
G01 X12.0633 Y5.0768
G01 X12.1050 Y5.2188
G01 X12.1078 Y5.2303
G01 X12.1100 Y5.2420
G01 X12.1124 Y5.2597
G01 X12.1132 Y5.2716
G01 X12.1135 Y5.2835
G01 X12.1134 Y5.4315
G01 X12.1128 Y5.4435
G01 X12.1117 Y5.4555
G01 X12.1100 Y5.4674
G01 X12.1077 Y5.4792
G01 X12.1031 Y5.4967
G01 X12.0618 Y5.6358
G01 X12.0560 Y5.6530
G01 X12.0489 Y5.6699
G01 X11.9924 Y5.7917
G01 X11.9374 Y5.9899
G01 X11.9195 Y6.1576
G01 X11.9195 Y7.8773
G01 X11.9321 Y8.0299
G01 X11.9821 Y8.2294
G01 X12.0641 Y8.4180
G01 X12.1758 Y8.5906
G01 X12.1883 Y8.6043
G01 X12.3142 Y8.7427
G01 X12.4756 Y8.8701
G01 X12.6556 Y8.9695
G01 X12.8495 Y9.0382
G01 X13.0519 Y9.0742
G01 X13.2575 Y9.0767
G01 X13.4608 Y9.0456
G01 X13.6563 Y8.9818
G01 X13.6753 Y8.9721
G01 X13.6918 Y8.9652
G01 X13.8371 Y8.9143
G01 X13.8542 Y8.9094
G01 X13.8658 Y8.9069
G01 X13.8835 Y8.9040
G01 X13.9012 Y8.9025
G01 X14.0490 Y8.8949
G01 X14.0669 Y8.8951
G01 X14.0847 Y8.8965
G01 X14.0964 Y8.8981
G01 X14.1139 Y8.9016
G01 X14.2521 Y8.9346
G01 X14.2636 Y8.9376
G01 X14.2750 Y8.9412
G01 X14.2916 Y8.9476
G01 X14.3078 Y8.9551
G01 X14.3183 Y8.9608
G01 X14.4415 Y9.0313
G01 X14.4567 Y9.0407
G01 X14.4712 Y9.0512
G01 X14.4848 Y9.0626
G01 X14.4977 Y9.0751
G01 X14.6001 Y9.1818
G01 X14.6080 Y9.1908
G01 X14.6189 Y9.2049
G01 X14.6256 Y9.2147
G01 X14.6348 Y9.2300
G01 X14.7032 Y9.3612
G01 X14.7108 Y9.3774
G01 X14.7173 Y9.3940
G01 X14.7226 Y9.4110
G01 X14.7267 Y9.4284
G01 X14.7541 Y9.5678
G01 X14.7562 Y9.5796
G01 X14.7576 Y9.5916
G01 X14.7588 Y9.6096
G01 X14.7595 Y9.6418
G01 X14.7595 Y10.1690
G01 X14.7592 Y10.1809
G01 X14.7584 Y10.1928
G01 X14.7570 Y10.2046
G01 X14.7367 Y10.3452
G01 X14.7336 Y10.3627
G01 X14.7308 Y10.3743
G01 X14.7274 Y10.3857
G01 X14.7235 Y10.3970
G01 X14.7167 Y10.4134
G01 X14.6552 Y10.5480
G01 X14.6468 Y10.5638
G01 X14.6373 Y10.5789
G01 X14.6268 Y10.5933
G01 X14.6192 Y10.6025
G01 X14.5223 Y10.7143
G01 X14.5098 Y10.7271
G01 X14.5010 Y10.7351
G01 X14.4871 Y10.7463
G01 X14.4774 Y10.7532
G01 X14.3530 Y10.8332
G01 X14.3428 Y10.8394
G01 X14.3270 Y10.8478
G01 X14.3162 Y10.8527
G01 X14.3052 Y10.8571
G01 X14.2939 Y10.8610
G01 X14.1519 Y10.9028
G01 X14.1405 Y10.9059
G01 X14.1230 Y10.9095
G01 X14.1053 Y10.9118
G01 X14.0224 Y10.9177
G01 X14.0105 Y10.9180
G01 X12.4490 Y10.9180
G01 X12.5463 Y11.0153
G01 X12.6257 Y11.0192
G01 X12.6379 Y11.0201
G01 X12.6501 Y11.0216
G01 X12.7278 Y11.0331
G01 X12.7398 Y11.0352
G01 X12.7518 Y11.0379
G01 X12.8280 Y11.0569
G01 X12.8398 Y11.0602
G01 X12.8515 Y11.0641
G01 X12.9254 Y11.0905
G01 X12.9368 Y11.0949
G01 X12.9480 Y11.0999
G01 X13.0190 Y11.1335
G01 X13.0300 Y11.1390
G01 X13.0406 Y11.1450
G01 X13.1080 Y11.1854
G01 X13.1183 Y11.1920
G01 X13.1284 Y11.1990
G01 X13.1914 Y11.2458
G01 X13.2011 Y11.2533
G01 X13.2104 Y11.2614
G01 X13.2686 Y11.3141
G01 X13.2775 Y11.3225
G01 X13.2859 Y11.3314
G01 X13.3386 Y11.3896
G01 X13.3467 Y11.3989
G01 X13.3542 Y11.4086
G01 X13.4010 Y11.4716
G01 X13.4080 Y11.4817
G01 X13.4146 Y11.4920
G01 X13.4550 Y11.5594
G01 X13.4610 Y11.5700
G01 X13.4665 Y11.5810
G01 X13.5001 Y11.6520
G01 X13.5051 Y11.6632
G01 X13.5095 Y11.6746
G01 X13.5359 Y11.7485
G01 X13.5398 Y11.7602
G01 X13.5431 Y11.7720
G01 X13.5621 Y11.8482
G01 X13.5648 Y11.8602
G01 X13.5669 Y11.8722
G01 X13.5784 Y11.9499
G01 X13.5799 Y11.9621
G01 X13.5808 Y11.9743
G01 X13.5847 Y12.0527
G01 X13.5850 Y12.0650
G01 X13.5847 Y12.0773
G01 X13.5808 Y12.1557
G01 X13.5799 Y12.1679
G01 X13.5784 Y12.1801
G01 X13.5669 Y12.2578
G01 X13.5648 Y12.2698
G01 X13.5621 Y12.2818
G01 X13.5431 Y12.3580
G01 X13.5398 Y12.3698
G01 X13.5359 Y12.3815
G01 X13.5095 Y12.4554
G01 X13.5051 Y12.4668
G01 X13.5001 Y12.4780
G01 X13.4665 Y12.5490
G01 X13.4610 Y12.5600
G01 X13.4550 Y12.5706
G01 X13.4146 Y12.6380
G01 X13.4080 Y12.6483
G01 X13.4010 Y12.6584
G01 X13.3542 Y12.7214
G01 X13.3467 Y12.7311
G01 X13.3386 Y12.7404
G01 X13.2859 Y12.7986
G01 X13.2775 Y12.8075
G01 X13.2686 Y12.8159
G01 X13.2104 Y12.8686
G01 X13.2011 Y12.8767
G01 X13.1914 Y12.8842
G01 X13.1284 Y12.9310
G01 X13.1183 Y12.9380
G01 X13.1080 Y12.9446
G01 X13.0406 Y12.9850
G01 X13.0300 Y12.9910
G01 X13.0190 Y12.9965
G01 X12.9480 Y13.0301
G01 X12.9368 Y13.0351
G01 X12.9254 Y13.0395
G01 X12.8515 Y13.0659
G01 X12.8398 Y13.0698
G01 X12.8280 Y13.0731
G01 X12.7518 Y13.0921
G01 X12.7398 Y13.0948
G01 X12.7278 Y13.0969
G01 X12.6501 Y13.1084
G01 X12.6379 Y13.1099
G01 X12.6257 Y13.1108
G01 X12.5473 Y13.1147
G01 X12.5350 Y13.1150
G01 X12.5227 Y13.1147
G01 X12.4443 Y13.1108
G01 X12.4321 Y13.1099
G01 X12.4199 Y13.1084
G01 X12.3422 Y13.0969
G01 X12.3302 Y13.0948
G01 X12.3182 Y13.0921
G01 X12.2420 Y13.0731
G01 X12.2302 Y13.0698
G01 X12.2185 Y13.0659
G01 X12.1446 Y13.0395
G01 X12.1332 Y13.0351
G01 X12.1220 Y13.0301
G01 X12.0510 Y12.9965
G01 X12.0400 Y12.9910
G01 X12.0294 Y12.9850
G01 X11.9620 Y12.9446
G01 X11.9517 Y12.9380
G01 X11.9416 Y12.9310
G01 X11.8786 Y12.8842
G01 X11.8689 Y12.8767
G01 X11.8596 Y12.8686
G01 X11.7969 Y12.8117
G01 X11.7841 Y12.7986
G01 X11.7314 Y12.7404
G01 X11.7233 Y12.7311
G01 X11.7158 Y12.7214
G01 X11.6690 Y12.6584
G01 X11.6620 Y12.6483
G01 X11.6554 Y12.6380
G01 X11.6150 Y12.5706
G01 X11.6090 Y12.5600
G01 X11.6035 Y12.5490
G01 X11.5699 Y12.4780
G01 X11.5649 Y12.4668
G01 X11.5605 Y12.4554
G01 X11.5341 Y12.3815
G01 X11.5302 Y12.3698
G01 X11.5269 Y12.3580
G01 X11.5079 Y12.2818
G01 X11.5052 Y12.2698
G01 X11.5031 Y12.2578
G01 X11.4916 Y12.1801
G01 X11.4901 Y12.1679
G01 X11.4892 Y12.1557
G01 X11.4853 Y12.0763
G01 X10.3270 Y10.9180
G01 X9.3786 Y10.9180
G01 X9.3700 Y10.9196
G01 X9.3441 Y10.9234
G01 X9.2997 Y10.9365
G01 X9.2824 Y10.9409
G01 X9.2649 Y10.9440
G01 X9.2471 Y10.9460
G01 X9.2293 Y10.9466
G01 X9.0813 Y10.9465
G01 X9.0635 Y10.9455
G01 X9.0517 Y10.9440
G01 X9.0400 Y10.9421
G01 X9.0283 Y10.9395
G01 X9.0168 Y10.9365
G01 X8.8747 Y10.8947
G01 X8.8632 Y10.8907
G01 X8.8519 Y10.8861
G01 X8.8354 Y10.8783
G01 X8.8195 Y10.8692
G01 X8.7082 Y10.8003
G01 X8.6929 Y10.7894
G01 X8.6715 Y10.7723
G01 X8.4896 Y10.6461
G01 X8.4741 Y10.6370
G01 X8.2758 Y10.5383
G01 X8.2592 Y10.5315
G01 X8.0488 Y10.4625
G01 X8.0314 Y10.4582
G01 X7.8090 Y10.4196
G01 X7.7939 Y10.4179
G01 X7.7328 Y10.4150
G01 X7.6400 Y10.4150
G01 X7.6400 Y11.0150
G01 X7.6523 Y11.0153
G01 X7.7307 Y11.0192
G01 X7.7429 Y11.0201
G01 X7.7551 Y11.0216
G01 X7.8328 Y11.0331
G01 X7.8448 Y11.0352
G01 X7.8568 Y11.0379
G01 X7.9330 Y11.0569
G01 X7.9448 Y11.0602
G01 X7.9565 Y11.0641
G01 X8.0304 Y11.0905
G01 X8.0418 Y11.0949
G01 X8.0530 Y11.0999
G01 X8.1240 Y11.1335
G01 X8.1350 Y11.1390
G01 X8.1456 Y11.1450
G01 X8.2130 Y11.1854
G01 X8.2233 Y11.1920
G01 X8.2334 Y11.1990
G01 X8.2964 Y11.2458
G01 X8.3061 Y11.2533
G01 X8.3154 Y11.2614
G01 X8.3736 Y11.3141
G01 X8.3825 Y11.3225
G01 X8.3909 Y11.3314
G01 X8.4436 Y11.3896
G01 X8.4517 Y11.3989
G01 X8.4592 Y11.4086
G01 X8.5060 Y11.4716
G01 X8.5130 Y11.4817
G01 X8.5196 Y11.4920
G01 X8.5600 Y11.5594
G01 X8.5660 Y11.5700
G01 X8.5715 Y11.5810
G01 X8.6051 Y11.6520
G01 X8.6101 Y11.6632
G01 X8.6145 Y11.6746
G01 X8.6409 Y11.7485
G01 X8.6448 Y11.7602
G01 X8.6481 Y11.7720
G01 X8.6671 Y11.8482
G01 X8.6698 Y11.8602
G01 X8.6719 Y11.8722
G01 X8.6834 Y11.9499
G01 X8.6849 Y11.9621
G01 X8.6858 Y11.9743
G01 X8.6897 Y12.0527
G01 X8.6900 Y12.0650
G01 X8.6897 Y12.0773
G01 X8.6858 Y12.1557
G01 X8.6849 Y12.1679
G01 X8.6834 Y12.1801
G01 X8.6719 Y12.2578
G01 X8.6698 Y12.2698
G01 X8.6671 Y12.2818
G01 X8.6481 Y12.3580
G01 X8.6448 Y12.3698
G01 X8.6409 Y12.3815
G01 X8.6145 Y12.4554
G01 X8.6101 Y12.4668
G01 X8.6051 Y12.4780
G01 X8.5715 Y12.5490
G01 X8.5660 Y12.5600
G01 X8.5600 Y12.5706
G01 X8.5196 Y12.6380
G01 X8.5130 Y12.6483
G01 X8.5060 Y12.6584
G01 X8.4555 Y12.7263
G01 X8.4436 Y12.7404
G01 X8.3909 Y12.7986
G01 X8.3825 Y12.8075
G01 X8.3736 Y12.8159
G01 X8.3154 Y12.8686
G01 X8.3061 Y12.8767
G01 X8.2964 Y12.8842
G01 X8.2334 Y12.9310
G01 X8.2233 Y12.9380
G01 X8.2130 Y12.9446
G01 X8.1456 Y12.9850
G01 X8.1350 Y12.9910
G01 X8.1240 Y12.9965
G01 X8.0530 Y13.0301
G01 X8.0418 Y13.0351
G01 X8.0304 Y13.0395
G01 X7.9565 Y13.0659
G01 X7.9448 Y13.0698
G01 X7.9330 Y13.0731
G01 X7.8568 Y13.0921
G01 X7.8448 Y13.0948
G01 X7.8328 Y13.0969
G01 X7.7551 Y13.1084
G01 X7.7429 Y13.1099
G01 X7.7307 Y13.1108
G01 X7.6523 Y13.1147
G01 X7.6400 Y13.1150
G01 X6.0339 Y13.1149
G01 X5.9493 Y13.1108
G01 X5.9371 Y13.1099
G01 X5.9249 Y13.1084
G01 X5.8472 Y13.0969
G01 X5.8352 Y13.0948
G01 X5.8232 Y13.0921
G01 X5.7470 Y13.0731
G01 X5.7352 Y13.0698
G01 X5.7235 Y13.0659
G01 X5.6496 Y13.0395
G01 X5.6382 Y13.0351
G01 X5.6270 Y13.0301
G01 X5.5560 Y12.9965
G01 X5.5450 Y12.9910
G01 X5.5344 Y12.9850
G01 X5.4670 Y12.9446
G01 X5.4567 Y12.9380
G01 X5.4466 Y12.9310
G01 X5.3836 Y12.8842
G01 X5.3739 Y12.8767
G01 X5.3646 Y12.8686
G01 X5.3064 Y12.8159
G01 X5.2975 Y12.8075
G01 X5.2891 Y12.7986
G01 X5.2364 Y12.7404
G01 X5.2283 Y12.7311
G01 X5.2208 Y12.7214
G01 X5.1740 Y12.6584
G01 X5.1670 Y12.6483
G01 X5.1604 Y12.6380
G01 X5.1200 Y12.5706
G01 X5.1140 Y12.5600
G01 X5.1085 Y12.5490
G01 X5.0749 Y12.4780
G01 X5.0699 Y12.4668
G01 X5.0655 Y12.4554
G01 X5.0391 Y12.3815
G01 X5.0352 Y12.3698
G01 X5.0319 Y12.3580
G01 X5.0129 Y12.2818
G01 X5.0102 Y12.2698
G01 X5.0081 Y12.2578
G01 X4.9966 Y12.1801
G01 X4.9951 Y12.1679
G01 X4.9942 Y12.1557
G01 X4.9903 Y12.0773
G01 X4.9900 Y12.0650
G01 X4.9903 Y12.0527
G01 X4.9942 Y11.9743
G01 X4.9951 Y11.9621
G01 X4.9966 Y11.9499
G01 X5.0081 Y11.8722
G01 X5.0102 Y11.8602
G01 X5.0129 Y11.8482
G01 X5.0319 Y11.7720
G01 X5.0352 Y11.7602
G01 X5.0391 Y11.7485
G01 X5.0655 Y11.6746
G01 X5.0699 Y11.6632
G01 X5.0749 Y11.6520
G01 X5.1085 Y11.5810
G01 X5.1140 Y11.5700
G01 X5.1200 Y11.5594
G01 X5.1604 Y11.4920
G01 X5.1670 Y11.4817
G01 X5.1740 Y11.4716
G01 X5.2208 Y11.4086
G01 X5.2283 Y11.3989
G01 X5.2364 Y11.3896
G01 X5.2891 Y11.3314
G01 X5.2975 Y11.3225
G01 X5.3064 Y11.3141
G01 X5.3646 Y11.2614
G01 X5.3739 Y11.2533
G01 X5.3836 Y11.2458
G01 X5.4466 Y11.1990
G01 X5.4567 Y11.1920
G01 X5.4670 Y11.1854
G01 X5.5344 Y11.1450
G01 X5.5450 Y11.1390
G01 X5.5560 Y11.1335
G01 X5.6270 Y11.0999
G01 X5.6382 Y11.0949
G01 X5.6496 Y11.0905
G01 X5.7235 Y11.0641
G01 X5.7352 Y11.0602
G01 X5.7470 Y11.0569
G01 X5.8232 Y11.0379
G01 X5.8352 Y11.0352
G01 X5.8472 Y11.0331
G01 X5.9249 Y11.0216
G01 X5.9371 Y11.0201
G01 X5.9493 Y11.0192
G01 X6.0277 Y11.0153
G01 X6.0400 Y11.0150
G01 X6.0400 Y10.4150
G00 Z5.0000
G00 X8.3743 Y13.8547
G01 F60.00
G01 Z-0.1000
G01 F300.00
G01 X15.5462 Y13.8547
G01 X17.8509 Y11.5502
G01 X17.8918 Y11.5131
G01 X17.9058 Y11.5012
G01 X17.9551 Y11.4647
G01 X17.9706 Y11.4546
G01 X18.0180 Y11.4263
G01 X18.0343 Y11.4178
G01 X18.0899 Y11.3919
G01 X18.1476 Y11.3709
G01 X18.1592 Y11.3671
G01 X18.1710 Y11.3638
G01 X18.2187 Y11.3519
G01 X18.2367 Y11.3480
G01 X18.2913 Y11.3399
G01 X18.3035 Y11.3384
G01 X18.3157 Y11.3375
G01 X18.3709 Y11.3348
G01 X19.4011 Y11.3347
G01 X19.4125 Y11.3225
G01 X19.4214 Y11.3141
G01 X19.4796 Y11.2614
G01 X19.4889 Y11.2533
G01 X19.4986 Y11.2458
G01 X19.5616 Y11.1990
G01 X19.5717 Y11.1920
G01 X19.5820 Y11.1854
G01 X19.6494 Y11.1450
G01 X19.6600 Y11.1390
G01 X19.6710 Y11.1335
G01 X19.7420 Y11.0999
G01 X19.7532 Y11.0949
G01 X19.7646 Y11.0905
G01 X19.8385 Y11.0641
G01 X19.8502 Y11.0602
G01 X19.8620 Y11.0569
G01 X19.9382 Y11.0379
G01 X19.9502 Y11.0352
G01 X19.9622 Y11.0331
G01 X20.0399 Y11.0216
G01 X20.0521 Y11.0201
G01 X20.0643 Y11.0192
G01 X20.1427 Y11.0153
G01 X20.1550 Y11.0150
G01 X20.1673 Y11.0153
G01 X20.2457 Y11.0192
G01 X20.2579 Y11.0201
G01 X20.2701 Y11.0216
G01 X20.3538 Y11.0341
G01 X20.3718 Y11.0379
G01 X20.4480 Y11.0569
G01 X20.4598 Y11.0602
G01 X20.4715 Y11.0641
G01 X20.5454 Y11.0905
G01 X20.5568 Y11.0949
G01 X20.5680 Y11.0999
G01 X20.6390 Y11.1335
G01 X20.6500 Y11.1390
G01 X20.6606 Y11.1450
G01 X20.7280 Y11.1854
G01 X20.7383 Y11.1920
G01 X20.7484 Y11.1990
G01 X20.8114 Y11.2458
G01 X20.8211 Y11.2533
G01 X20.8304 Y11.2614
G01 X20.8886 Y11.3141
G01 X20.8975 Y11.3225
G01 X20.9059 Y11.3314
G01 X20.9586 Y11.3896
G01 X20.9667 Y11.3989
G01 X20.9742 Y11.4086
G01 X21.0210 Y11.4716
G01 X21.0280 Y11.4817
G01 X21.0346 Y11.4920
G01 X21.0750 Y11.5594
G01 X21.0810 Y11.5700
G01 X21.0865 Y11.5810
G01 X21.1201 Y11.6520
G01 X21.1251 Y11.6632
G01 X21.1295 Y11.6746
G01 X21.1559 Y11.7485
G01 X21.1598 Y11.7602
G01 X21.1631 Y11.7720
G01 X21.1821 Y11.8482
G01 X21.1848 Y11.8602
G01 X21.1869 Y11.8722
G01 X21.1984 Y11.9499
G01 X21.1999 Y11.9621
G01 X21.2008 Y11.9743
G01 X21.2047 Y12.0527
G01 X21.2050 Y12.0650
G01 X21.2047 Y12.0773
G01 X21.2008 Y12.1557
G01 X21.1999 Y12.1679
G01 X21.1984 Y12.1801
G01 X21.1869 Y12.2578
G01 X21.1848 Y12.2698
G01 X21.1821 Y12.2818
G01 X21.1631 Y12.3580
G01 X21.1598 Y12.3698
G01 X21.1559 Y12.3815
G01 X21.1295 Y12.4554
G01 X21.1251 Y12.4668
G01 X21.1201 Y12.4780
G01 X21.0865 Y12.5490
G01 X21.0810 Y12.5600
G01 X21.0750 Y12.5706
G01 X21.0346 Y12.6380
G01 X21.0280 Y12.6483
G01 X21.0210 Y12.6584
G01 X20.9742 Y12.7214
G01 X20.9667 Y12.7311
G01 X20.9586 Y12.7404
G01 X20.9059 Y12.7986
G01 X20.8975 Y12.8075
G01 X20.8886 Y12.8159
G01 X20.8304 Y12.8686
G01 X20.8211 Y12.8767
G01 X20.8114 Y12.8842
G01 X20.7484 Y12.9310
G01 X20.7383 Y12.9380
G01 X20.7280 Y12.9446
G01 X20.6606 Y12.9850
G01 X20.6500 Y12.9910
G01 X20.6390 Y12.9965
G01 X20.5680 Y13.0301
G01 X20.5568 Y13.0351
G01 X20.5454 Y13.0395
G01 X20.4715 Y13.0659
G01 X20.4598 Y13.0698
G01 X20.4480 Y13.0731
G01 X20.3718 Y13.0921
G01 X20.3598 Y13.0948
G01 X20.3478 Y13.0969
G01 X20.2701 Y13.1084
G01 X20.2579 Y13.1099
G01 X20.2457 Y13.1108
G01 X20.1673 Y13.1147
G01 X20.1550 Y13.1150
G01 X20.1427 Y13.1147
G01 X20.0643 Y13.1108
G01 X20.0521 Y13.1099
G01 X20.0399 Y13.1084
G01 X19.9622 Y13.0969
G01 X19.9502 Y13.0948
G01 X19.9382 Y13.0921
G01 X19.8620 Y13.0731
G01 X19.8502 Y13.0698
G01 X19.8385 Y13.0659
G01 X19.7646 Y13.0395
G01 X19.7475 Y13.0327
G01 X19.6710 Y12.9965
G01 X19.6600 Y12.9910
G01 X19.6494 Y12.9850
G01 X19.5768 Y12.9414
G01 X19.5616 Y12.9310
G01 X19.4937 Y12.8805
G01 X19.4796 Y12.8686
G01 X19.4427 Y12.8353
G01 X18.6878 Y12.8353
G01 X16.3831 Y15.1398
G01 X16.3423 Y15.1769
G01 X16.3330 Y15.1850
G01 X16.2839 Y15.2217
G01 X16.2738 Y15.2288
G01 X16.2635 Y15.2354
G01 X16.2107 Y15.2667
G01 X16.1553 Y15.2932
G01 X16.1441 Y15.2981
G01 X16.1327 Y15.3026
G01 X16.0748 Y15.3229
G01 X16.0153 Y15.3381
G01 X16.0034 Y15.3408
G01 X15.9913 Y15.3429
G01 X15.9305 Y15.3516
G01 X15.8693 Y15.3549
G01 X15.8570 Y15.3553
G01 X8.3743 Y15.3553
G01 X8.3154 Y15.4086
G01 X8.3061 Y15.4167
G01 X8.2964 Y15.4242
G01 X8.2334 Y15.4710
G01 X8.2233 Y15.4780
G01 X8.2130 Y15.4846
G01 X8.1456 Y15.5250
G01 X8.1350 Y15.5310
G01 X8.1240 Y15.5365
G01 X8.0530 Y15.5701
G01 X8.0418 Y15.5751
G01 X8.0304 Y15.5795
G01 X7.9565 Y15.6059
G01 X7.9448 Y15.6098
G01 X7.9330 Y15.6131
G01 X7.8568 Y15.6321
G01 X7.8448 Y15.6348
G01 X7.8328 Y15.6369
G01 X7.7490 Y15.6493
G01 X7.7307 Y15.6508
G01 X7.6523 Y15.6547
G01 X7.6400 Y15.6550
G01 X6.0400 Y15.6550
G01 X6.0277 Y15.6547
G01 X5.9493 Y15.6508
G01 X5.9371 Y15.6499
G01 X5.9249 Y15.6484
G01 X5.8472 Y15.6369
G01 X5.8352 Y15.6348
G01 X5.8232 Y15.6321
G01 X5.7470 Y15.6131
G01 X5.7352 Y15.6098
G01 X5.7235 Y15.6059
G01 X5.6496 Y15.5795
G01 X5.6382 Y15.5751
G01 X5.6270 Y15.5701
G01 X5.5560 Y15.5365
G01 X5.5450 Y15.5310
G01 X5.5344 Y15.5250
G01 X5.4670 Y15.4846
G01 X5.4567 Y15.4780
G01 X5.4466 Y15.4710
G01 X5.3836 Y15.4242
G01 X5.3739 Y15.4167
G01 X5.3646 Y15.4086
G01 X5.3064 Y15.3559
G01 X5.2975 Y15.3475
G01 X5.2891 Y15.3386
G01 X5.2364 Y15.2804
G01 X5.2283 Y15.2711
G01 X5.2208 Y15.2614
G01 X5.1740 Y15.1984
G01 X5.1670 Y15.1883
G01 X5.1604 Y15.1780
G01 X5.1200 Y15.1106
G01 X5.1140 Y15.1000
G01 X5.1085 Y15.0890
G01 X5.0749 Y15.0180
G01 X5.0699 Y15.0068
G01 X5.0655 Y14.9954
G01 X5.0371 Y14.9156
G01 X5.0319 Y14.8980
G01 X5.0129 Y14.8218
G01 X5.0102 Y14.8098
G01 X5.0081 Y14.7978
G01 X4.9966 Y14.7201
G01 X4.9951 Y14.7079
G01 X4.9942 Y14.6957
G01 X4.9903 Y14.6173
G01 X4.9900 Y14.6050
G01 X4.9903 Y14.5927
G01 X4.9942 Y14.5143
G01 X4.9951 Y14.5021
G01 X4.9966 Y14.4899
G01 X5.0081 Y14.4122
G01 X5.0102 Y14.4002
G01 X5.0129 Y14.3882
G01 X5.0319 Y14.3120
G01 X5.0352 Y14.3002
G01 X5.0391 Y14.2885
G01 X5.0655 Y14.2146
G01 X5.0699 Y14.2032
G01 X5.0749 Y14.1920
G01 X5.1085 Y14.1210
G01 X5.1140 Y14.1100
G01 X5.1200 Y14.0994
G01 X5.1604 Y14.0320
G01 X5.1670 Y14.0217
G01 X5.1740 Y14.0116
G01 X5.2208 Y13.9486
G01 X5.2283 Y13.9389
G01 X5.2364 Y13.9296
G01 X5.2891 Y13.8714
G01 X5.2975 Y13.8625
G01 X5.3064 Y13.8541
G01 X5.3646 Y13.8014
G01 X5.3739 Y13.7933
G01 X5.3836 Y13.7858
G01 X5.4466 Y13.7390
G01 X5.4567 Y13.7320
G01 X5.4670 Y13.7254
G01 X5.5344 Y13.6850
G01 X5.5450 Y13.6790
G01 X5.5560 Y13.6735
G01 X5.6270 Y13.6399
G01 X5.6382 Y13.6349
G01 X5.6496 Y13.6305
G01 X5.7294 Y13.6021
G01 X5.7470 Y13.5969
G01 X5.8232 Y13.5779
G01 X5.8352 Y13.5752
G01 X5.8472 Y13.5731
G01 X5.9249 Y13.5616
G01 X5.9371 Y13.5601
G01 X5.9493 Y13.5592
G01 X6.0339 Y13.5551
G01 X7.6400 Y13.5550
G01 X7.6523 Y13.5553
G01 X7.7307 Y13.5592
G01 X7.7429 Y13.5601
G01 X7.7551 Y13.5616
G01 X7.8328 Y13.5731
G01 X7.8448 Y13.5752
G01 X7.8568 Y13.5779
G01 X7.9330 Y13.5969
G01 X7.9448 Y13.6002
G01 X7.9565 Y13.6041
G01 X8.0304 Y13.6305
G01 X8.0418 Y13.6349
G01 X8.0530 Y13.6399
G01 X8.1240 Y13.6735
G01 X8.1350 Y13.6790
G01 X8.1456 Y13.6850
G01 X8.2130 Y13.7254
G01 X8.2233 Y13.7320
G01 X8.2334 Y13.7390
G01 X8.2964 Y13.7858
G01 X8.3061 Y13.7933
G01 X8.3154 Y13.8014
G01 X8.3743 Y13.8547
G00 Z5.0000
G00 X8.0444 Y15.7929
G01 F60.00
G01 Z-0.1000
G01 F300.00
G01 X8.2330 Y15.7109
G01 X8.2925 Y15.6725
G01 X8.3080 Y15.6637
G01 X8.3187 Y15.6584
G01 X8.4477 Y15.5990
G01 X8.4642 Y15.5921
G01 X8.4755 Y15.5882
G01 X8.4870 Y15.5848
G01 X8.4986 Y15.5820
G01 X8.5104 Y15.5797
G01 X8.6643 Y15.5573
G01 X8.6822 Y15.5558
G01 X8.6943 Y15.5555
G01 X10.1310 Y15.5555
G01 X10.1488 Y15.5561
G01 X10.1607 Y15.5573
G01 X10.3130 Y15.5792
G01 X10.3305 Y15.5828
G01 X10.3477 Y15.5876
G01 X10.3645 Y15.5936
G01 X10.3754 Y15.5983
G01 X10.5100 Y15.6598
G01 X10.5258 Y15.6682
G01 X10.5409 Y15.6777
G01 X10.5506 Y15.6846
G01 X10.5645 Y15.6958
G01 X10.6718 Y15.7888
G01 X10.6849 Y15.8009
G01 X10.6931 Y15.8096
G01 X10.7046 Y15.8232
G01 X10.7118 Y15.8327
G01 X10.7184 Y15.8426
G01 X10.7984 Y15.9671
G01 X10.8071 Y15.9827
G01 X10.8123 Y15.9934
G01 X10.8191 Y16.0098
G01 X10.8230 Y16.0211
G01 X10.8664 Y16.1688
G01 X10.8692 Y16.1803
G01 X10.8715 Y16.1920
G01 X10.8732 Y16.2038
G01 X10.8743 Y16.2157
G01 X10.8794 Y16.2867
G01 X10.8800 Y16.3045
G01 X10.8799 Y18.0585
G01 X10.8794 Y18.0704
G01 X10.8775 Y18.0881
G01 X10.8572 Y18.2287
G01 X10.8541 Y18.2463
G01 X10.8513 Y18.2578
G01 X10.8460 Y18.2749
G01 X10.8396 Y18.2915
G01 X10.7782 Y18.4262
G01 X10.7702 Y18.4421
G01 X10.7611 Y18.4575
G01 X10.7544 Y18.4673
G01 X10.7436 Y18.4815
G01 X10.6467 Y18.5934
G01 X10.6346 Y18.6064
G01 X10.6259 Y18.6147
G01 X10.6169 Y18.6224
G01 X10.6076 Y18.6298
G01 X10.5929 Y18.6400
G01 X10.4684 Y18.7199
G01 X10.4581 Y18.7259
G01 X10.4421 Y18.7339
G01 X10.4257 Y18.7407
G01 X10.4144 Y18.7446
G01 X10.2724 Y18.7863
G01 X10.2552 Y18.7908
G01 X10.2376 Y18.7939
G01 X10.2198 Y18.7958
G01 X10.2080 Y18.7964
G01 X10.0600 Y18.7965
G01 X10.0422 Y18.7958
G01 X10.0303 Y18.7947
G01 X10.0185 Y18.7930
G01 X10.0010 Y18.7894
G01 X9.9896 Y18.7863
G01 X9.8476 Y18.7446
G01 X9.8363 Y18.7407
G01 X9.8253 Y18.7363
G01 X9.8145 Y18.7313
G01 X9.8039 Y18.7259
G01 X9.7885 Y18.7168
G01 X9.6691 Y18.6400
G01 X9.6585 Y18.6328
G01 X9.6483 Y18.6251
G01 X9.6386 Y18.6169
G01 X9.6078 Y18.5884
G01 X8.8024 Y17.7832
G01 X8.7744 Y17.7535
G01 X8.7471 Y17.7226
G01 X8.6833 Y17.6720
G01 X8.6301 Y17.6278
G01 X8.6202 Y17.6215
G01 X8.6106 Y17.6148
G01 X8.6000 Y17.6089
G01 X8.5902 Y17.6029
G01 X8.5609 Y17.5835
G01 X8.5464 Y17.5722
G01 X8.5340 Y17.5610
G01 X8.4680 Y17.5132
G01 X8.4591 Y17.5058
G01 X8.4505 Y17.4980
G01 X8.3897 Y17.4398
G01 X8.2198 Y17.3240
G01 X8.0333 Y17.2374
G01 X8.0138 Y17.2311
G01 X7.9828 Y17.2194
G01 X7.8699 Y17.1679
G01 X7.8589 Y17.1625
G01 X7.8481 Y17.1566
G01 X7.8325 Y17.1467
G01 X7.8226 Y17.1395
G01 X7.8130 Y17.1319
G01 X7.7042 Y17.0405
G01 X7.6953 Y17.0326
G01 X7.6826 Y17.0200
G01 X7.6709 Y17.0066
G01 X7.6636 Y16.9971
G01 X7.6568 Y16.9874
G01 X7.5750 Y16.8641
G01 X7.5661 Y16.8487
G01 X7.5607 Y16.8380
G01 X7.5536 Y16.8217
G01 X7.5477 Y16.8048
G01 X7.5057 Y16.6691
G01 X7.5024 Y16.6577
G01 X7.4986 Y16.6403
G01 X7.4967 Y16.6285
G01 X7.4954 Y16.6167
G01 X7.4945 Y16.5989
G01 X7.4923 Y16.4569
G01 X7.4927 Y16.4390
G01 X7.4937 Y16.4272
G01 X7.4961 Y16.4095
G01 X7.4999 Y16.3920
G01 X7.5410 Y16.2437
G01 X7.5447 Y16.2324
G01 X7.5490 Y16.2213
G01 X7.5538 Y16.2104
G01 X7.5619 Y16.1945
G01 X7.5680 Y16.1843
G01 X7.6429 Y16.0636
G01 X7.6529 Y16.0488
G01 X7.6639 Y16.0348
G01 X7.6758 Y16.0215
G01 X7.6887 Y16.0092
G01 X7.7991 Y15.9106
G01 X7.8084 Y15.9031
G01 X7.8180 Y15.8961
G01 X7.8329 Y15.8864
G01 X7.8433 Y15.8805
G01 X7.8539 Y15.8752
G01 X7.9877 Y15.8117
G01 X7.9989 Y15.8070
G01 X8.0104 Y15.8029
G01 X8.0444 Y15.7929
G00 Z5.0000
G00 X5.2503 Y15.5802
G01 F60.00
G01 Z-0.1000
G01 F300.00
G01 X5.4202 Y15.6960
G01 X5.6067 Y15.7826
G01 X5.6262 Y15.7889
G01 X5.6513 Y15.7982
G01 X5.6630 Y15.8032
G01 X5.7756 Y15.8548
G01 X5.7866 Y15.8604
G01 X5.7972 Y15.8666
G01 X5.8075 Y15.8733
G01 X5.8223 Y15.8843
G01 X5.9403 Y15.9834
G01 X5.9490 Y15.9915
G01 X5.9614 Y16.0044
G01 X5.9691 Y16.0134
G01 X5.9798 Y16.0277
G01 X6.0650 Y16.1559
G01 X6.0739 Y16.1713
G01 X6.0818 Y16.1874
G01 X6.0885 Y16.2039
G01 X6.0923 Y16.2152
G01 X6.1343 Y16.3509
G01 X6.1390 Y16.3681
G01 X6.1414 Y16.3797
G01 X6.1433 Y16.3915
G01 X6.1446 Y16.4033
G01 X6.1455 Y16.4211
G01 X6.1477 Y16.5631
G01 X6.1473 Y16.5810
G01 X6.1456 Y16.5988
G01 X6.1427 Y16.6164
G01 X6.1386 Y16.6337
G01 X6.1006 Y16.7706
G01 X6.0953 Y16.7876
G01 X6.0910 Y16.7987
G01 X6.0836 Y16.8150
G01 X6.0781 Y16.8255
G01 X6.0720 Y16.8357
G01 X5.9939 Y16.9614
G01 X5.9871 Y16.9712
G01 X5.9761 Y16.9852
G01 X5.9642 Y16.9985
G01 X5.9513 Y17.0108
G01 X5.8454 Y17.1055
G01 X5.8363 Y17.1132
G01 X5.8269 Y17.1204
G01 X5.8121 Y17.1305
G01 X5.8019 Y17.1366
G01 X5.7914 Y17.1422
G01 X5.6523 Y17.2083
G01 X5.6411 Y17.2130
G01 X5.6296 Y17.2171
G01 X5.5956 Y17.2271
G01 X5.4070 Y17.3091
G01 X5.2344 Y17.4208
G01 X5.1991 Y17.4528
G01 X5.1900 Y17.4604
G01 X5.1804 Y17.4675
G01 X5.0530 Y17.5539
G01 X5.0377 Y17.5630
G01 X5.0217 Y17.5710
G01 X5.0108 Y17.5757
G01 X4.9940 Y17.5817
G01 X4.8587 Y17.6250
G01 X4.8415 Y17.6299
G01 X4.8299 Y17.6324
G01 X4.8123 Y17.6352
G01 X4.7945 Y17.6366
G01 X4.6466 Y17.6403
G01 X4.6287 Y17.6401
G01 X4.6109 Y17.6386
G01 X4.5992 Y17.6369
G01 X4.5817 Y17.6334
G01 X4.4330 Y17.5936
G01 X4.4216 Y17.5900
G01 X4.4050 Y17.5835
G01 X4.3888 Y17.5759
G01 X4.3733 Y17.5672
G01 X4.2520 Y17.4934
G01 X4.2419 Y17.4869
G01 X4.2275 Y17.4764
G01 X4.2139 Y17.4649
G01 X4.2011 Y17.4524
G01 X4.0975 Y17.3386
G01 X4.0863 Y17.3247
G01 X4.0761 Y17.3100
G01 X4.0670 Y17.2947
G01 X4.0616 Y17.2841
G01 X3.9968 Y17.1508
G01 X3.9919 Y17.1394
G01 X3.9876 Y17.1277
G01 X3.9839 Y17.1159
G01 X3.9808 Y17.1039
G01 X3.9773 Y17.0856
G01 X3.9535 Y16.9335
G01 X3.9512 Y16.9142
G01 X3.9506 Y16.9013
G01 X3.9505 Y16.0898
G01 X3.9508 Y16.0779
G01 X3.9523 Y16.0601
G01 X3.9742 Y15.9077
G01 X3.9764 Y15.8961
G01 X3.9808 Y15.8788
G01 X3.9845 Y15.8674
G01 X3.9909 Y15.8508
G01 X4.0548 Y15.7108
G01 X4.0632 Y15.6950
G01 X4.0727 Y15.6799
G01 X4.0832 Y15.6655
G01 X4.0908 Y15.6563
G01 X4.1838 Y15.5490
G01 X4.1959 Y15.5359
G01 X4.2090 Y15.5237
G01 X4.2229 Y15.5125
G01 X4.2376 Y15.5024
G01 X4.3621 Y15.4224
G01 X4.3777 Y15.4137
G01 X4.3884 Y15.4085
G01 X4.4048 Y15.4016
G01 X4.4218 Y15.3960
G01 X4.5581 Y15.3560
G01 X4.5753 Y15.3516
G01 X4.5870 Y15.3493
G01 X4.5988 Y15.3476
G01 X4.6107 Y15.3465
G01 X4.6225 Y15.3459
G01 X4.7705 Y15.3459
G01 X4.7824 Y15.3461
G01 X4.8002 Y15.3476
G01 X4.8178 Y15.3504
G01 X4.8352 Y15.3544
G01 X4.9772 Y15.3960
G01 X4.9886 Y15.3996
G01 X4.9997 Y15.4038
G01 X5.0160 Y15.4110
G01 X5.0266 Y15.4165
G01 X5.0369 Y15.4224
G01 X5.1664 Y15.5056
G01 X5.1809 Y15.5162
G01 X5.1901 Y15.5238
G01 X5.2170 Y15.5483
G01 X5.2503 Y15.5802
G00 Z5.0000
G00 X7.9998 Y19.3859
G01 F60.00
G01 Z-0.1000
G01 F300.00
G01 X7.9165 Y19.4159
G01 X7.9048 Y19.4198
G01 X7.8930 Y19.4231
G01 X7.8168 Y19.4421
G01 X7.8048 Y19.4448
G01 X7.7928 Y19.4469
G01 X7.7151 Y19.4584
G01 X7.7029 Y19.4599
G01 X7.6907 Y19.4608
G01 X7.6123 Y19.4647
G01 X7.6000 Y19.4650
G01 X5.9939 Y19.4649
G01 X5.9093 Y19.4608
G01 X5.8971 Y19.4599
G01 X5.8849 Y19.4584
G01 X5.8072 Y19.4469
G01 X5.7952 Y19.4448
G01 X5.7832 Y19.4421
G01 X5.7070 Y19.4231
G01 X5.6952 Y19.4198
G01 X5.6835 Y19.4159
G01 X5.6096 Y19.3895
G01 X5.5982 Y19.3851
G01 X5.5870 Y19.3801
G01 X5.5105 Y19.3438
G01 X5.4944 Y19.3350
G01 X5.4270 Y19.2946
G01 X5.4167 Y19.2880
G01 X5.4066 Y19.2810
G01 X5.3436 Y19.2342
G01 X5.3339 Y19.2267
G01 X5.3246 Y19.2186
G01 X5.2664 Y19.1659
G01 X5.2575 Y19.1575
G01 X5.2491 Y19.1486
G01 X5.1964 Y19.0904
G01 X5.1883 Y19.0811
G01 X5.1808 Y19.0714
G01 X5.1340 Y19.0084
G01 X5.1270 Y18.9983
G01 X5.1204 Y18.9880
G01 X5.0800 Y18.9206
G01 X5.0740 Y18.9100
G01 X5.0685 Y18.8990
G01 X5.0349 Y18.8280
G01 X5.0299 Y18.8168
G01 X5.0255 Y18.8054
G01 X4.9991 Y18.7315
G01 X4.9952 Y18.7198
G01 X4.9919 Y18.7080
G01 X4.9729 Y18.6318
G01 X4.9702 Y18.6198
G01 X4.9681 Y18.6078
G01 X4.9566 Y18.5301
G01 X4.9551 Y18.5179
G01 X4.9542 Y18.5057
G01 X4.9503 Y18.4273
G01 X4.9500 Y18.4150
G01 X4.9503 Y18.4027
G01 X4.9542 Y18.3243
G01 X4.9551 Y18.3121
G01 X4.9566 Y18.2999
G01 X4.9681 Y18.2222
G01 X4.9702 Y18.2102
G01 X4.9729 Y18.1982
G01 X4.9919 Y18.1220
G01 X4.9952 Y18.1102
G01 X4.9991 Y18.0985
G01 X5.0255 Y18.0246
G01 X5.0299 Y18.0132
G01 X5.0349 Y18.0020
G01 X5.0712 Y17.9255
G01 X5.0800 Y17.9094
G01 X5.1204 Y17.8420
G01 X5.1270 Y17.8317
G01 X5.1340 Y17.8216
G01 X5.1808 Y17.7586
G01 X5.1883 Y17.7489
G01 X5.1964 Y17.7396
G01 X5.2491 Y17.6814
G01 X5.2575 Y17.6725
G01 X5.2664 Y17.6641
G01 X5.3246 Y17.6114
G01 X5.3339 Y17.6033
G01 X5.3436 Y17.5958
G01 X5.4066 Y17.5490
G01 X5.4167 Y17.5420
G01 X5.4270 Y17.5354
G01 X5.4944 Y17.4950
G01 X5.5050 Y17.4890
G01 X5.5160 Y17.4835
G01 X5.5870 Y17.4499
G01 X5.5982 Y17.4449
G01 X5.6096 Y17.4405
G01 X5.6835 Y17.4141
G01 X5.6952 Y17.4102
G01 X5.7070 Y17.4069
G01 X5.7832 Y17.3879
G01 X5.8012 Y17.3841
G01 X5.8849 Y17.3716
G01 X5.8971 Y17.3701
G01 X5.9093 Y17.3692
G01 X5.9877 Y17.3653
G01 X6.0000 Y17.3650
G01 X7.6061 Y17.3651
G01 X7.6907 Y17.3692
G01 X7.7029 Y17.3701
G01 X7.7151 Y17.3716
G01 X7.7928 Y17.3831
G01 X7.8048 Y17.3852
G01 X7.8168 Y17.3879
G01 X7.8930 Y17.4069
G01 X7.9048 Y17.4102
G01 X7.9165 Y17.4141
G01 X7.9961 Y17.4426
G01 X8.0130 Y17.4499
G01 X8.0840 Y17.4835
G01 X8.0950 Y17.4890
G01 X8.1056 Y17.4950
G01 X8.1730 Y17.5354
G01 X8.1884 Y17.5454
G01 X8.2564 Y17.5958
G01 X8.2661 Y17.6033
G01 X8.2754 Y17.6114
G01 X8.3336 Y17.6641
G01 X8.3425 Y17.6725
G01 X8.3509 Y17.6814
G01 X8.3949 Y17.7299
G01 X8.4437 Y17.7533
G01 X8.4543 Y17.7594
G01 X8.5068 Y17.7912
G01 X8.5563 Y17.8275
G01 X8.5660 Y17.8350
G01 X8.5752 Y17.8431
G01 X8.6161 Y17.8802
G01 X10.9408 Y20.2047
G01 X20.1550 Y20.2047
G01 X20.2163 Y20.2075
G01 X20.2285 Y20.2084
G01 X20.2893 Y20.2171
G01 X20.3014 Y20.2192
G01 X20.3133 Y20.2219
G01 X20.3728 Y20.2371
G01 X20.4307 Y20.2574
G01 X20.4477 Y20.2643
G01 X20.4977 Y20.2878
G01 X20.5140 Y20.2963
G01 X20.5667 Y20.3278
G01 X20.5818 Y20.3383
G01 X20.6213 Y20.3675
G01 X20.6356 Y20.3790
G01 X20.6811 Y20.4202
G01 X20.6940 Y20.4334
G01 X20.7310 Y20.4744
G01 X20.7425 Y20.4887
G01 X20.7788 Y20.5382
G01 X20.7854 Y20.5486
G01 X20.8137 Y20.5960
G01 X20.8222 Y20.6123
G01 X20.8481 Y20.6679
G01 X20.8526 Y20.6793
G01 X20.8711 Y20.7314
G01 X20.8762 Y20.7490
G01 X20.8896 Y20.8026
G01 X20.8920 Y20.8147
G01 X20.8968 Y20.8469
G01 X20.9059 Y20.8564
G01 X20.9586 Y20.9146
G01 X20.9667 Y20.9239
G01 X20.9742 Y20.9336
G01 X21.0210 Y20.9966
G01 X21.0280 Y21.0067
G01 X21.0346 Y21.0170
G01 X21.0750 Y21.0844
G01 X21.0810 Y21.0950
G01 X21.0865 Y21.1060
G01 X21.1201 Y21.1770
G01 X21.1251 Y21.1882
G01 X21.1295 Y21.1996
G01 X21.1559 Y21.2735
G01 X21.1598 Y21.2852
G01 X21.1631 Y21.2970
G01 X21.1821 Y21.3732
G01 X21.1848 Y21.3852
G01 X21.1869 Y21.3972
G01 X21.1984 Y21.4749
G01 X21.1999 Y21.4871
G01 X21.2008 Y21.4993
G01 X21.2047 Y21.5777
G01 X21.2050 Y21.5900
G01 X21.2047 Y21.6023
G01 X21.2008 Y21.6807
G01 X21.1999 Y21.6929
G01 X21.1984 Y21.7051
G01 X21.1859 Y21.7888
G01 X21.1821 Y21.8068
G01 X21.1631 Y21.8830
G01 X21.1598 Y21.8948
G01 X21.1559 Y21.9065
G01 X21.1295 Y21.9804
G01 X21.1251 Y21.9918
G01 X21.1201 Y22.0030
G01 X21.0865 Y22.0740
G01 X21.0810 Y22.0850
G01 X21.0750 Y22.0956
G01 X21.0346 Y22.1630
G01 X21.0280 Y22.1733
G01 X21.0210 Y22.1834
G01 X20.9742 Y22.2464
G01 X20.9667 Y22.2561
G01 X20.9586 Y22.2654
G01 X20.9059 Y22.3236
G01 X20.8975 Y22.3325
G01 X20.8886 Y22.3409
G01 X20.8304 Y22.3936
G01 X20.8211 Y22.4017
G01 X20.8114 Y22.4092
G01 X20.7484 Y22.4560
G01 X20.7383 Y22.4630
G01 X20.7280 Y22.4696
G01 X20.6606 Y22.5100
G01 X20.6500 Y22.5160
G01 X20.6390 Y22.5215
G01 X20.5680 Y22.5551
G01 X20.5568 Y22.5601
G01 X20.5454 Y22.5645
G01 X20.4715 Y22.5909
G01 X20.4598 Y22.5948
G01 X20.4480 Y22.5981
G01 X20.3718 Y22.6171
G01 X20.3598 Y22.6198
G01 X20.3478 Y22.6219
G01 X20.2701 Y22.6334
G01 X20.2579 Y22.6349
G01 X20.2457 Y22.6358
G01 X20.1673 Y22.6397
G01 X20.1550 Y22.6400
G01 X20.1427 Y22.6397
G01 X20.0643 Y22.6358
G01 X20.0521 Y22.6349
G01 X20.0399 Y22.6334
G01 X19.9622 Y22.6219
G01 X19.9502 Y22.6198
G01 X19.9382 Y22.6171
G01 X19.8620 Y22.5981
G01 X19.8502 Y22.5948
G01 X19.8385 Y22.5909
G01 X19.7646 Y22.5645
G01 X19.7532 Y22.5601
G01 X19.7420 Y22.5551
G01 X19.6710 Y22.5215
G01 X19.6600 Y22.5160
G01 X19.6494 Y22.5100
G01 X19.5820 Y22.4696
G01 X19.5717 Y22.4630
G01 X19.5616 Y22.4560
G01 X19.4986 Y22.4092
G01 X19.4889 Y22.4017
G01 X19.4796 Y22.3936
G01 X19.4214 Y22.3409
G01 X19.4125 Y22.3325
G01 X19.4041 Y22.3236
G01 X19.3514 Y22.2654
G01 X19.3433 Y22.2561
G01 X19.3358 Y22.2464
G01 X19.2890 Y22.1834
G01 X19.2820 Y22.1733
G01 X19.2754 Y22.1630
G01 X19.2350 Y22.0956
G01 X19.2290 Y22.0850
G01 X19.2235 Y22.0740
G01 X19.1899 Y22.0030
G01 X19.1849 Y21.9918
G01 X19.1805 Y21.9804
G01 X19.1541 Y21.9065
G01 X19.1502 Y21.8948
G01 X19.1469 Y21.8830
G01 X19.1279 Y21.8068
G01 X19.1252 Y21.7948
G01 X19.1231 Y21.7828
G01 X19.1116 Y21.7053
G01 X10.6300 Y21.7053
G01 X10.5687 Y21.7025
G01 X10.5565 Y21.7016
G01 X10.5443 Y21.7001
G01 X10.4897 Y21.6920
G01 X10.4717 Y21.6881
G01 X10.4240 Y21.6762
G01 X10.4122 Y21.6729
G01 X10.4006 Y21.6691
G01 X10.3429 Y21.6481
G01 X10.2873 Y21.6222
G01 X10.2763 Y21.6167
G01 X10.2236 Y21.5854
G01 X10.2132 Y21.5788
G01 X10.2032 Y21.5717
G01 X10.1540 Y21.5350
G01 X10.1084 Y21.4940
G01 X10.0995 Y21.4855
G01 X7.9998 Y19.3859
G00 Z5.0000
G00 X8.0044 Y22.1429
G01 F60.00
G01 Z-0.1000
G01 F300.00
G01 X8.1930 Y22.0609
G01 X8.3656 Y21.9492
G01 X8.5177 Y21.8108
G01 X8.6452 Y21.6494
G01 X8.6557 Y21.6319
G01 X8.6705 Y21.6098
G01 X8.6778 Y21.5999
G01 X8.6896 Y21.5858
G01 X8.7020 Y21.5730
G01 X8.7475 Y21.5130
G01 X8.7551 Y21.5039
G01 X8.7632 Y21.4951
G01 X8.7760 Y21.4827
G01 X8.7897 Y21.4712
G01 X8.9085 Y21.3830
G01 X8.9182 Y21.3762
G01 X8.9334 Y21.3668
G01 X8.9439 Y21.3611
G01 X8.9546 Y21.3560
G01 X8.9656 Y21.3513
G01 X9.1044 Y21.3002
G01 X9.1157 Y21.2964
G01 X9.1329 Y21.2916
G01 X9.1504 Y21.2881
G01 X9.1681 Y21.2859
G01 X9.3157 Y21.2759
G01 X9.3276 Y21.2754
G01 X9.3395 Y21.2755
G01 X9.3514 Y21.2761
G01 X9.3692 Y21.2781
G01 X9.3809 Y21.2801
G01 X9.5253 Y21.3122
G01 X9.5369 Y21.3150
G01 X9.5539 Y21.3204
G01 X9.5705 Y21.3269
G01 X9.5867 Y21.3346
G01 X9.7162 Y21.4060
G01 X9.7264 Y21.4119
G01 X9.7411 Y21.4217
G01 X9.7551 Y21.4325
G01 X9.8200 Y21.4893
G01 X9.9233 Y21.5927
G01 X9.9511 Y21.6226
G01 X9.9729 Y21.6474
G01 X10.0367 Y21.6980
G01 X10.0899 Y21.7422
G01 X10.0998 Y21.7485
G01 X10.1094 Y21.7552
G01 X10.1706 Y21.7875
G01 X10.2424 Y21.8274
G01 X10.2533 Y21.8318
G01 X10.2640 Y21.8367
G01 X10.3424 Y21.8613
G01 X10.4079 Y21.8835
G01 X10.4194 Y21.8858
G01 X10.4308 Y21.8886
G01 X10.4994 Y21.8968
G01 X10.5800 Y21.9083
G01 X10.6361 Y21.9061
G01 X10.6655 Y21.9055
G01 X18.4621 Y21.9055
G01 X18.4800 Y21.9061
G01 X18.4977 Y21.9080
G01 X18.6383 Y21.9283
G01 X18.6559 Y21.9314
G01 X18.6731 Y21.9358
G01 X18.6845 Y21.9395
G01 X18.7011 Y21.9459
G01 X18.8358 Y22.0073
G01 X18.8517 Y22.0153
G01 X18.8671 Y22.0244
G01 X18.8817 Y22.0346
G01 X18.8911 Y22.0419
G01 X19.0030 Y22.1388
G01 X19.0117 Y22.1467
G01 X19.0241 Y22.1594
G01 X19.0318 Y22.1683
G01 X19.0392 Y22.1776
G01 X19.0878 Y22.2428
G01 X19.1608 Y22.3556
G01 X19.2994 Y22.5079
G01 X19.3155 Y22.5222
G01 X19.3243 Y22.5311
G01 X19.3326 Y22.5404
G01 X19.4282 Y22.6592
G01 X19.4385 Y22.6737
G01 X19.4478 Y22.6890
G01 X19.4534 Y22.6995
G01 X19.4608 Y22.7157
G01 X19.5150 Y22.8470
G01 X19.5212 Y22.8637
G01 X19.5247 Y22.8751
G01 X19.5277 Y22.8866
G01 X19.5310 Y22.9042
G01 X19.5326 Y22.9159
G01 X19.5482 Y23.0631
G01 X19.5490 Y23.0809
G01 X19.5489 Y23.0928
G01 X19.5482 Y23.1047
G01 X19.5469 Y23.1165
G01 X19.5450 Y23.1283
G01 X19.5197 Y23.2680
G01 X19.5173 Y23.2797
G01 X19.5127 Y23.2969
G01 X19.5089 Y23.3082
G01 X19.5046 Y23.3193
G01 X19.4972 Y23.3355
G01 X19.4308 Y23.4678
G01 X19.4218 Y23.4832
G01 X19.4153 Y23.4932
G01 X19.4083 Y23.5028
G01 X19.3969 Y23.5165
G01 X19.2919 Y23.6291
G01 X19.2790 Y23.6414
G01 X19.2699 Y23.6491
G01 X19.2604 Y23.6563
G01 X19.2457 Y23.6663
G01 X19.1184 Y23.7418
G01 X19.1027 Y23.7503
G01 X19.0919 Y23.7554
G01 X19.0754 Y23.7620
G01 X19.0584 Y23.7674
G01 X18.9150 Y23.8040
G01 X18.9030 Y23.8067
G01 X18.8910 Y23.8088
G01 X18.8788 Y23.8104
G01 X18.8666 Y23.8113
G01 X18.8137 Y23.8141
G01 X18.8004 Y23.8145
G01 X8.6570 Y23.8145
G01 X8.6391 Y23.8139
G01 X8.6214 Y23.8120
G01 X8.4746 Y23.7908
G01 X8.4624 Y23.7884
G01 X8.4503 Y23.7854
G01 X8.4384 Y23.7818
G01 X8.4266 Y23.7776
G01 X8.4094 Y23.7702
G01 X8.2629 Y23.7008
G01 X8.2458 Y23.6913
G01 X8.2198 Y23.6740
G01 X8.0333 Y23.5874
G01 X8.0050 Y23.5792
G01 X7.9883 Y23.5731
G01 X7.8527 Y23.5137
G01 X7.8367 Y23.5059
G01 X7.8263 Y23.5002
G01 X7.8112 Y23.4906
G01 X7.8016 Y23.4836
G01 X7.7923 Y23.4761
G01 X7.6791 Y23.3809
G01 X7.6661 Y23.3686
G01 X7.6580 Y23.3599
G01 X7.6503 Y23.3508
G01 X7.6395 Y23.3366
G01 X7.5544 Y23.2084
G01 X7.5483 Y23.1982
G01 X7.5426 Y23.1877
G01 X7.5375 Y23.1769
G01 X7.5330 Y23.1659
G01 X7.5271 Y23.1491
G01 X7.4850 Y23.0134
G01 X7.4803 Y22.9962
G01 X7.4769 Y22.9787
G01 X7.4747 Y22.9610
G01 X7.4740 Y22.9491
G01 X7.4717 Y22.7952
G01 X7.4720 Y22.7833
G01 X7.4737 Y22.7655
G01 X7.4755 Y22.7538
G01 X7.4792 Y22.7363
G01 X7.5204 Y22.5880
G01 X7.5261 Y22.5711
G01 X7.5331 Y22.5547
G01 X7.5384 Y22.5440
G01 X7.5473 Y22.5285
G01 X7.6223 Y22.4079
G01 X7.6322 Y22.3931
G01 X7.6394 Y22.3836
G01 X7.6511 Y22.3701
G01 X7.6636 Y22.3575
G01 X7.7740 Y22.2588
G01 X7.7882 Y22.2470
G01 X7.8033 Y22.2363
G01 X7.8138 Y22.2297
G01 X7.8302 Y22.2209
G01 X7.9512 Y22.1615
G01 X7.9631 Y22.1564
G01 X7.9752 Y22.1519
G01 X7.9913 Y22.1465
G01 X8.0044 Y22.1429
G00 Z5.0000
G00 X8.3343 Y24.0147
G01 F60.00
G01 Z-0.1000
G01 F300.00
G01 X19.4207 Y24.0147
G01 X19.4796 Y23.9614
G01 X19.4889 Y23.9533
G01 X19.4986 Y23.9458
G01 X19.5616 Y23.8990
G01 X19.5717 Y23.8920
G01 X19.5820 Y23.8854
G01 X19.6494 Y23.8450
G01 X19.6600 Y23.8390
G01 X19.6710 Y23.8335
G01 X19.7420 Y23.7999
G01 X19.7532 Y23.7949
G01 X19.7646 Y23.7905
G01 X19.8385 Y23.7641
G01 X19.8502 Y23.7602
G01 X19.8620 Y23.7569
G01 X19.9382 Y23.7379
G01 X19.9502 Y23.7352
G01 X19.9622 Y23.7331
G01 X20.0399 Y23.7216
G01 X20.0521 Y23.7201
G01 X20.0643 Y23.7192
G01 X20.1427 Y23.7153
G01 X20.1550 Y23.7150
G01 X20.1673 Y23.7153
G01 X20.2518 Y23.7195
G01 X20.2701 Y23.7216
G01 X20.3478 Y23.7331
G01 X20.3598 Y23.7352
G01 X20.3718 Y23.7379
G01 X20.4480 Y23.7569
G01 X20.4598 Y23.7602
G01 X20.4715 Y23.7641
G01 X20.5454 Y23.7905
G01 X20.5568 Y23.7949
G01 X20.5680 Y23.7999
G01 X20.6390 Y23.8335
G01 X20.6500 Y23.8390
G01 X20.6606 Y23.8450
G01 X20.7280 Y23.8854
G01 X20.7383 Y23.8920
G01 X20.7484 Y23.8990
G01 X20.8114 Y23.9458
G01 X20.8211 Y23.9533
G01 X20.8304 Y23.9614
G01 X20.8886 Y24.0141
G01 X20.8975 Y24.0225
G01 X20.9059 Y24.0314
G01 X20.9586 Y24.0896
G01 X20.9667 Y24.0989
G01 X20.9742 Y24.1086
G01 X21.0210 Y24.1716
G01 X21.0280 Y24.1817
G01 X21.0346 Y24.1920
G01 X21.0750 Y24.2594
G01 X21.0810 Y24.2700
G01 X21.0865 Y24.2810
G01 X21.1201 Y24.3520
G01 X21.1251 Y24.3632
G01 X21.1295 Y24.3746
G01 X21.1559 Y24.4485
G01 X21.1598 Y24.4602
G01 X21.1631 Y24.4720
G01 X21.1821 Y24.5482
G01 X21.1848 Y24.5602
G01 X21.1869 Y24.5722
G01 X21.1984 Y24.6499
G01 X21.1999 Y24.6621
G01 X21.2008 Y24.6743
G01 X21.2047 Y24.7527
G01 X21.2050 Y24.7650
G01 X21.2047 Y24.7773
G01 X21.2005 Y24.8618
G01 X21.1984 Y24.8801
G01 X21.1869 Y24.9578
G01 X21.1848 Y24.9698
G01 X21.1821 Y24.9818
G01 X21.1631 Y25.0580
G01 X21.1598 Y25.0698
G01 X21.1559 Y25.0815
G01 X21.1295 Y25.1554
G01 X21.1251 Y25.1668
G01 X21.1201 Y25.1780
G01 X21.0865 Y25.2490
G01 X21.0810 Y25.2600
G01 X21.0750 Y25.2706
G01 X21.0346 Y25.3380
G01 X21.0280 Y25.3483
G01 X21.0210 Y25.3584
G01 X20.9742 Y25.4214
G01 X20.9667 Y25.4311
G01 X20.9586 Y25.4404
G01 X20.9059 Y25.4986
G01 X20.8975 Y25.5075
G01 X20.8886 Y25.5159
G01 X20.8304 Y25.5686
G01 X20.8211 Y25.5767
G01 X20.8114 Y25.5842
G01 X20.7484 Y25.6310
G01 X20.7383 Y25.6380
G01 X20.7280 Y25.6446
G01 X20.6606 Y25.6850
G01 X20.6500 Y25.6910
G01 X20.6390 Y25.6965
G01 X20.5680 Y25.7301
G01 X20.5568 Y25.7351
G01 X20.5454 Y25.7395
G01 X20.4715 Y25.7659
G01 X20.4598 Y25.7698
G01 X20.4480 Y25.7731
G01 X20.3718 Y25.7921
G01 X20.3598 Y25.7948
G01 X20.3478 Y25.7969
G01 X20.2701 Y25.8084
G01 X20.2579 Y25.8099
G01 X20.2457 Y25.8108
G01 X20.1611 Y25.8149
G01 X20.1427 Y25.8147
G01 X20.0643 Y25.8108
G01 X20.0521 Y25.8099
G01 X20.0399 Y25.8084
G01 X19.9622 Y25.7969
G01 X19.9502 Y25.7948
G01 X19.9382 Y25.7921
G01 X19.8620 Y25.7731
G01 X19.8502 Y25.7698
G01 X19.8385 Y25.7659
G01 X19.7646 Y25.7395
G01 X19.7532 Y25.7351
G01 X19.7420 Y25.7301
G01 X19.6710 Y25.6965
G01 X19.6600 Y25.6910
G01 X19.6494 Y25.6850
G01 X19.5820 Y25.6446
G01 X19.5717 Y25.6380
G01 X19.5616 Y25.6310
G01 X19.4986 Y25.5842
G01 X19.4889 Y25.5767
G01 X19.4796 Y25.5686
G01 X19.4207 Y25.5153
G01 X8.3343 Y25.5153
G01 X8.2754 Y25.5686
G01 X8.2661 Y25.5767
G01 X8.2564 Y25.5842
G01 X8.1934 Y25.6310
G01 X8.1833 Y25.6380
G01 X8.1730 Y25.6446
G01 X8.1056 Y25.6850
G01 X8.0950 Y25.6910
G01 X8.0840 Y25.6965
G01 X8.0130 Y25.7301
G01 X8.0018 Y25.7351
G01 X7.9904 Y25.7395
G01 X7.9165 Y25.7659
G01 X7.9048 Y25.7698
G01 X7.8930 Y25.7731
G01 X7.8168 Y25.7921
G01 X7.8048 Y25.7948
G01 X7.7928 Y25.7969
G01 X7.7090 Y25.8093
G01 X7.6907 Y25.8108
G01 X7.6123 Y25.8147
G01 X7.6000 Y25.8150
G01 X6.0000 Y25.8150
G01 X5.9877 Y25.8147
G01 X5.9093 Y25.8108
G01 X5.8971 Y25.8099
G01 X5.8849 Y25.8084
G01 X5.8072 Y25.7969
G01 X5.7952 Y25.7948
G01 X5.7832 Y25.7921
G01 X5.7070 Y25.7731
G01 X5.6952 Y25.7698
G01 X5.6835 Y25.7659
G01 X5.6096 Y25.7395
G01 X5.5982 Y25.7351
G01 X5.5870 Y25.7301
G01 X5.5160 Y25.6965
G01 X5.5050 Y25.6910
G01 X5.4944 Y25.6850
G01 X5.4270 Y25.6446
G01 X5.4167 Y25.6380
G01 X5.4066 Y25.6310
G01 X5.3436 Y25.5842
G01 X5.3339 Y25.5767
G01 X5.3246 Y25.5686
G01 X5.2664 Y25.5159
G01 X5.2575 Y25.5075
G01 X5.2491 Y25.4986
G01 X5.1964 Y25.4404
G01 X5.1883 Y25.4311
G01 X5.1808 Y25.4214
G01 X5.1340 Y25.3584
G01 X5.1270 Y25.3483
G01 X5.1204 Y25.3380
G01 X5.0800 Y25.2706
G01 X5.0740 Y25.2600
G01 X5.0685 Y25.2490
G01 X5.0349 Y25.1780
G01 X5.0299 Y25.1668
G01 X5.0255 Y25.1554
G01 X4.9971 Y25.0756
G01 X4.9919 Y25.0580
G01 X4.9729 Y24.9818
G01 X4.9702 Y24.9698
G01 X4.9681 Y24.9578
G01 X4.9566 Y24.8801
G01 X4.9551 Y24.8679
G01 X4.9542 Y24.8557
G01 X4.9503 Y24.7773
G01 X4.9500 Y24.7650
G01 X4.9503 Y24.7527
G01 X4.9542 Y24.6743
G01 X4.9551 Y24.6621
G01 X4.9566 Y24.6499
G01 X4.9681 Y24.5722
G01 X4.9702 Y24.5602
G01 X4.9729 Y24.5482
G01 X4.9919 Y24.4720
G01 X4.9952 Y24.4602
G01 X4.9991 Y24.4485
G01 X5.0255 Y24.3746
G01 X5.0299 Y24.3632
G01 X5.0349 Y24.3520
G01 X5.0685 Y24.2810
G01 X5.0740 Y24.2700
G01 X5.0800 Y24.2594
G01 X5.1204 Y24.1920
G01 X5.1270 Y24.1817
G01 X5.1340 Y24.1716
G01 X5.1808 Y24.1086
G01 X5.1883 Y24.0989
G01 X5.1964 Y24.0896
G01 X5.2491 Y24.0314
G01 X5.2575 Y24.0225
G01 X5.2664 Y24.0141
G01 X5.3246 Y23.9614
G01 X5.3339 Y23.9533
G01 X5.3436 Y23.9458
G01 X5.4066 Y23.8990
G01 X5.4167 Y23.8920
G01 X5.4270 Y23.8854
G01 X5.4944 Y23.8450
G01 X5.5050 Y23.8390
G01 X5.5160 Y23.8335
G01 X5.5870 Y23.7999
G01 X5.5982 Y23.7949
G01 X5.6096 Y23.7905
G01 X5.6894 Y23.7621
G01 X5.7070 Y23.7569
G01 X5.7832 Y23.7379
G01 X5.7952 Y23.7352
G01 X5.8072 Y23.7331
G01 X5.8849 Y23.7216
G01 X5.8971 Y23.7201
G01 X5.9093 Y23.7192
G01 X5.9939 Y23.7151
G01 X7.6000 Y23.7150
G01 X7.6123 Y23.7153
G01 X7.6907 Y23.7192
G01 X7.7029 Y23.7201
G01 X7.7151 Y23.7216
G01 X7.7928 Y23.7331
G01 X7.8048 Y23.7352
G01 X7.8168 Y23.7379
G01 X7.8930 Y23.7569
G01 X7.9048 Y23.7602
G01 X7.9165 Y23.7641
G01 X7.9904 Y23.7905
G01 X8.0018 Y23.7949
G01 X8.0130 Y23.7999
G01 X8.0840 Y23.8335
G01 X8.0950 Y23.8390
G01 X8.1056 Y23.8450
G01 X8.1730 Y23.8854
G01 X8.1833 Y23.8920
G01 X8.1934 Y23.8990
G01 X8.2564 Y23.9458
G01 X8.2661 Y23.9533
G01 X8.2754 Y23.9614
G01 X8.3343 Y24.0147
G00 Z5.0000
G00 X5.3802 Y22.0460
G01 F60.00
G01 Z-0.1000
G01 F300.00
G01 X5.5667 Y22.1326
G01 X5.5950 Y22.1408
G01 X5.6117 Y22.1469
G01 X5.7473 Y22.2063
G01 X5.7580 Y22.2113
G01 X5.7686 Y22.2169
G01 X5.7788 Y22.2229
G01 X5.7888 Y22.2294
G01 X5.7984 Y22.2364
G01 X5.8077 Y22.2439
G01 X5.9164 Y22.3353
G01 X5.9297 Y22.3472
G01 X5.9420 Y22.3601
G01 X5.9534 Y22.3738
G01 X5.9605 Y22.3834
G01 X6.0424 Y22.5066
G01 X6.0487 Y22.5167
G01 X6.0546 Y22.5271
G01 X6.0625 Y22.5431
G01 X6.0670 Y22.5541
G01 X6.0711 Y22.5652
G01 X6.1150 Y22.7066
G01 X6.1197 Y22.7238
G01 X6.1231 Y22.7413
G01 X6.1253 Y22.7590
G01 X6.1262 Y22.7768
G01 X6.1283 Y22.9248
G01 X6.1276 Y22.9426
G01 X6.1255 Y22.9604
G01 X6.1234 Y22.9721
G01 X6.1193 Y22.9894
G01 X6.0796 Y23.1320
G01 X6.0759 Y23.1433
G01 X6.0717 Y23.1544
G01 X6.0669 Y23.1653
G01 X6.0616 Y23.1760
G01 X6.0527 Y23.1915
G01 X5.9777 Y23.3121
G01 X5.9678 Y23.3269
G01 X5.9568 Y23.3410
G01 X5.9448 Y23.3542
G01 X5.9320 Y23.3666
G01 X5.8260 Y23.4612
G01 X5.8166 Y23.4692
G01 X5.8068 Y23.4767
G01 X5.7914 Y23.4871
G01 X5.7754 Y23.4963
G01 X5.6488 Y23.5585
G01 X5.6369 Y23.5636
G01 X5.6248 Y23.5681
G01 X5.6087 Y23.5735
G01 X5.5956 Y23.5771
G01 X5.4070 Y23.6591
G01 X5.2344 Y23.7708
G01 X5.1991 Y23.8028
G01 X5.1900 Y23.8104
G01 X5.1804 Y23.8175
G01 X5.0530 Y23.9039
G01 X5.0377 Y23.9130
G01 X5.0217 Y23.9210
G01 X5.0052 Y23.9278
G01 X4.9940 Y23.9317
G01 X4.8587 Y23.9750
G01 X4.8415 Y23.9799
G01 X4.8299 Y23.9824
G01 X4.8123 Y23.9852
G01 X4.7945 Y23.9866
G01 X4.6406 Y23.9904
G01 X4.6287 Y23.9901
G01 X4.6109 Y23.9886
G01 X4.5933 Y23.9859
G01 X4.5759 Y23.9819
G01 X4.4330 Y23.9436
G01 X4.4216 Y23.9400
G01 X4.4105 Y23.9358
G01 X4.3995 Y23.9311
G01 X4.3888 Y23.9259
G01 X4.3733 Y23.9172
G01 X4.2520 Y23.8434
G01 X4.2371 Y23.8335
G01 X4.2229 Y23.8227
G01 X4.2095 Y23.8108
G01 X4.2011 Y23.8024
G01 X4.0975 Y23.6886
G01 X4.0863 Y23.6747
G01 X4.0761 Y23.6600
G01 X4.0699 Y23.6499
G01 X4.0616 Y23.6341
G01 X3.9994 Y23.5064
G01 X3.9943 Y23.4951
G01 X3.9897 Y23.4836
G01 X3.9857 Y23.4718
G01 X3.9823 Y23.4599
G01 X3.9795 Y23.4478
G01 X3.9773 Y23.4356
G01 X3.9535 Y23.2835
G01 X3.9518 Y23.2707
G01 X3.9506 Y23.2513
G01 X3.9505 Y22.6545
G01 X3.9511 Y22.6367
G01 X3.9530 Y22.6189
G01 X3.9733 Y22.4783
G01 X3.9764 Y22.4608
G01 X3.9808 Y22.4435
G01 X3.9845 Y22.4321
G01 X3.9909 Y22.4155
G01 X4.0523 Y22.2809
G01 X4.0575 Y22.2702
G01 X4.0632 Y22.2597
G01 X4.0694 Y22.2496
G01 X4.0796 Y22.2349
G01 X4.0869 Y22.2255
G01 X4.1838 Y22.1137
G01 X4.1959 Y22.1006
G01 X4.2046 Y22.0924
G01 X4.2182 Y22.0809
G01 X4.2326 Y22.0703
G01 X4.3621 Y21.9871
G01 X4.3777 Y21.9784
G01 X4.3938 Y21.9708
G01 X4.4104 Y21.9643
G01 X4.4218 Y21.9607
G01 X4.5581 Y21.9207
G01 X4.5695 Y21.9176
G01 X4.5870 Y21.9140
G01 X4.5988 Y21.9123
G01 X4.6107 Y21.9112
G01 X4.6936 Y21.9056
G01 X4.9490 Y21.9056
G01 X4.9668 Y21.9066
G01 X4.9786 Y21.9080
G01 X5.1254 Y21.9292
G01 X5.1437 Y21.9330
G01 X5.1616 Y21.9382
G01 X5.1792 Y21.9447
G01 X5.1906 Y21.9498
G01 X5.3371 Y22.0192
G01 X5.3542 Y22.0287
G01 X5.3802 Y22.0460
G00 Z5.0000
G00 X5.2657 Y26.5547
G01 F60.00
G01 Z-0.1000
G01 F300.00
G01 X5.3246 Y26.5014
G01 X5.3339 Y26.4933
G01 X5.3436 Y26.4858
G01 X5.4066 Y26.4390
G01 X5.4167 Y26.4320
G01 X5.4270 Y26.4254
G01 X5.4944 Y26.3850
G01 X5.5050 Y26.3790
G01 X5.5160 Y26.3735
G01 X5.5870 Y26.3399
G01 X5.5982 Y26.3349
G01 X5.6096 Y26.3305
G01 X5.6835 Y26.3041
G01 X5.6952 Y26.3002
G01 X5.7070 Y26.2969
G01 X5.7832 Y26.2779
G01 X5.7952 Y26.2752
G01 X5.8072 Y26.2731
G01 X5.8849 Y26.2616
G01 X5.8971 Y26.2601
G01 X5.9093 Y26.2592
G01 X5.9877 Y26.2553
G01 X6.0000 Y26.2550
G01 X7.6061 Y26.2551
G01 X7.6907 Y26.2592
G01 X7.7029 Y26.2601
G01 X7.7151 Y26.2616
G01 X7.7928 Y26.2731
G01 X7.8048 Y26.2752
G01 X7.8168 Y26.2779
G01 X7.8930 Y26.2969
G01 X7.9106 Y26.3021
G01 X7.9904 Y26.3305
G01 X8.0018 Y26.3349
G01 X8.0130 Y26.3399
G01 X8.0840 Y26.3735
G01 X8.0950 Y26.3790
G01 X8.1056 Y26.3850
G01 X8.1730 Y26.4254
G01 X8.1833 Y26.4320
G01 X8.1934 Y26.4390
G01 X8.2564 Y26.4858
G01 X8.2661 Y26.4933
G01 X8.2754 Y26.5014
G01 X8.3336 Y26.5541
G01 X8.3425 Y26.5625
G01 X8.3509 Y26.5714
G01 X8.4036 Y26.6296
G01 X8.4117 Y26.6389
G01 X8.4192 Y26.6486
G01 X8.4660 Y26.7116
G01 X8.4730 Y26.7217
G01 X8.4796 Y26.7320
G01 X8.5200 Y26.7994
G01 X8.5260 Y26.8100
G01 X8.5315 Y26.8210
G01 X8.5651 Y26.8920
G01 X8.5701 Y26.9032
G01 X8.5745 Y26.9146
G01 X8.6009 Y26.9885
G01 X8.6048 Y27.0002
G01 X8.6081 Y27.0120
G01 X8.6271 Y27.0882
G01 X8.6298 Y27.1002
G01 X8.6319 Y27.1122
G01 X8.6434 Y27.1899
G01 X8.6449 Y27.2021
G01 X8.6458 Y27.2143
G01 X8.6497 Y27.2927
G01 X8.6500 Y27.3050
G01 X8.6497 Y27.3173
G01 X8.6458 Y27.3957
G01 X8.6449 Y27.4079
G01 X8.6434 Y27.4201
G01 X8.6319 Y27.4978
G01 X8.6298 Y27.5098
G01 X8.6271 Y27.5218
G01 X8.6081 Y27.5980
G01 X8.6029 Y27.6156
G01 X8.5745 Y27.6954
G01 X8.5701 Y27.7068
G01 X8.5651 Y27.7180
G01 X8.5315 Y27.7890
G01 X8.5260 Y27.8000
G01 X8.5200 Y27.8106
G01 X8.4796 Y27.8780
G01 X8.4730 Y27.8883
G01 X8.4660 Y27.8984
G01 X8.4192 Y27.9614
G01 X8.4117 Y27.9711
G01 X8.4036 Y27.9804
G01 X8.3509 Y28.0386
G01 X8.3425 Y28.0475
G01 X8.3336 Y28.0559
G01 X8.2754 Y28.1086
G01 X8.2661 Y28.1167
G01 X8.2564 Y28.1242
G01 X8.1934 Y28.1710
G01 X8.1833 Y28.1780
G01 X8.1730 Y28.1846
G01 X8.1056 Y28.2250
G01 X8.0950 Y28.2310
G01 X8.0840 Y28.2365
G01 X8.0130 Y28.2701
G01 X8.0018 Y28.2751
G01 X7.9904 Y28.2795
G01 X7.9165 Y28.3059
G01 X7.8989 Y28.3115
G01 X7.8168 Y28.3321
G01 X7.8048 Y28.3348
G01 X7.7928 Y28.3369
G01 X7.7151 Y28.3484
G01 X7.7029 Y28.3499
G01 X7.6907 Y28.3508
G01 X7.6061 Y28.3549
G01 X6.0000 Y28.3550
G01 X5.9877 Y28.3547
G01 X5.9093 Y28.3508
G01 X5.8971 Y28.3499
G01 X5.8849 Y28.3484
G01 X5.8072 Y28.3369
G01 X5.7952 Y28.3348
G01 X5.7832 Y28.3321
G01 X5.7070 Y28.3131
G01 X5.6952 Y28.3098
G01 X5.6835 Y28.3059
G01 X5.6096 Y28.2795
G01 X5.5982 Y28.2751
G01 X5.5870 Y28.2701
G01 X5.5160 Y28.2365
G01 X5.5050 Y28.2310
G01 X5.4944 Y28.2250
G01 X5.4270 Y28.1846
G01 X5.4167 Y28.1780
G01 X5.4066 Y28.1710
G01 X5.3436 Y28.1242
G01 X5.3339 Y28.1167
G01 X5.3246 Y28.1086
G01 X5.2657 Y28.0553
G01 X3.4739 Y28.0552
G01 X3.4187 Y28.0525
G01 X3.4065 Y28.0516
G01 X3.3457 Y28.0429
G01 X3.3336 Y28.0408
G01 X3.3217 Y28.0381
G01 X3.2622 Y28.0229
G01 X3.2506 Y28.0191
G01 X3.1986 Y28.0004
G01 X3.1817 Y27.9932
G01 X3.1263 Y27.9667
G01 X3.0736 Y27.9354
G01 X3.0581 Y27.9253
G01 X3.0137 Y27.8925
G01 X3.0040 Y27.8850
G01 X2.9948 Y27.8769
G01 X2.9495 Y27.8355
G01 X2.4695 Y27.3555
G01 X2.4610 Y27.3466
G01 X2.4200 Y27.3010
G01 X2.3833 Y27.2518
G01 X2.3762 Y27.2418
G01 X2.3696 Y27.2314
G01 X2.3383 Y27.1787
G01 X2.3118 Y27.1233
G01 X2.3069 Y27.1121
G01 X2.3024 Y27.1007
G01 X2.2821 Y27.0428
G01 X2.2669 Y26.9833
G01 X2.2642 Y26.9714
G01 X2.2621 Y26.9593
G01 X2.2534 Y26.8985
G01 X2.2501 Y26.8373
G01 X2.2497 Y26.8250
G01 X2.2497 Y4.6550
G01 X2.2525 Y4.5937
G01 X2.2540 Y4.5754
G01 X2.2621 Y4.5207
G01 X2.2642 Y4.5086
G01 X2.2669 Y4.4967
G01 X2.2821 Y4.4372
G01 X2.3024 Y4.3793
G01 X2.3069 Y4.3679
G01 X2.3328 Y4.3123
G01 X2.3383 Y4.3013
G01 X2.3696 Y4.2486
G01 X2.3762 Y4.2382
G01 X2.3833 Y4.2282
G01 X2.4125 Y4.1887
G01 X2.4240 Y4.1744
G01 X2.4610 Y4.1334
G01 X2.4695 Y4.1245
G01 X3.4739 Y3.1202
G01 X3.5148 Y3.0831
G01 X3.5240 Y3.0750
G01 X3.5732 Y3.0383
G01 X3.5832 Y3.0312
G01 X3.5936 Y3.0246
G01 X3.6463 Y2.9933
G01 X3.7017 Y2.9668
G01 X3.7129 Y2.9619
G01 X3.7243 Y2.9574
G01 X3.7822 Y2.9371
G01 X3.8417 Y2.9219
G01 X3.8536 Y2.9192
G01 X3.8657 Y2.9171
G01 X3.9265 Y2.9084
G01 X3.9877 Y2.9051
G01 X4.0000 Y2.9047
G01 X22.5461 Y2.9048
G01 X22.6013 Y2.9075
G01 X22.6135 Y2.9084
G01 X22.6743 Y2.9171
G01 X22.6864 Y2.9192
G01 X22.6983 Y2.9219
G01 X22.7578 Y2.9371
G01 X22.8157 Y2.9574
G01 X22.8271 Y2.9619
G01 X22.8827 Y2.9878
G01 X22.8937 Y2.9933
G01 X22.9043 Y2.9994
G01 X22.9464 Y3.0246
G01 X22.9619 Y3.0347
G01 X23.0063 Y3.0675
G01 X23.0160 Y3.0750
G01 X23.0252 Y3.0831
G01 X23.0661 Y3.1202
G01 X23.6408 Y3.6947
G01 X25.5592 Y3.6947
G01 X26.1339 Y3.1202
G01 X26.1748 Y3.0831
G01 X26.1840 Y3.0750
G01 X26.2332 Y3.0383
G01 X26.2432 Y3.0312
G01 X26.2536 Y3.0246
G01 X26.2957 Y2.9994
G01 X26.3118 Y2.9905
G01 X26.3617 Y2.9668
G01 X26.3729 Y2.9619
G01 X26.3843 Y2.9574
G01 X26.4364 Y2.9389
G01 X26.4540 Y2.9338
G01 X26.5017 Y2.9219
G01 X26.5136 Y2.9192
G01 X26.5257 Y2.9171
G01 X26.5865 Y2.9084
G01 X26.6477 Y2.9051
G01 X26.6600 Y2.9047
G01 X46.0411 Y2.9048
G01 X46.0963 Y2.9075
G01 X46.1085 Y2.9084
G01 X46.1693 Y2.9171
G01 X46.1814 Y2.9192
G01 X46.1933 Y2.9219
G01 X46.2528 Y2.9371
G01 X46.3107 Y2.9574
G01 X46.3277 Y2.9643
G01 X46.3777 Y2.9878
G01 X46.3887 Y2.9933
G01 X46.3993 Y2.9994
G01 X46.4518 Y3.0312
G01 X46.5013 Y3.0675
G01 X46.5110 Y3.0750
G01 X46.5202 Y3.0831
G01 X46.5655 Y3.1245
G01 X47.3598 Y3.9189
G01 X47.3969 Y3.9598
G01 X47.4050 Y3.9690
G01 X47.4417 Y4.0182
G01 X47.4488 Y4.0282
G01 X47.4554 Y4.0386
G01 X47.4867 Y4.0913
G01 X47.5132 Y4.1467
G01 X47.5181 Y4.1579
G01 X47.5226 Y4.1693
G01 X47.5429 Y4.2272
G01 X47.5581 Y4.2867
G01 X47.5608 Y4.2986
G01 X47.5629 Y4.3107
G01 X47.5716 Y4.3715
G01 X47.5749 Y4.4327
G01 X47.5753 Y4.4450
G01 X47.5749 Y4.4573
G01 X47.5716 Y4.5185
G01 X47.5701 Y4.5307
G01 X47.5620 Y4.5853
G01 X47.5581 Y4.6033
G01 X47.5447 Y4.6569
G01 X47.5411 Y4.6686
G01 X47.5353 Y4.6852
G01 X47.5353 Y16.0297
G01 X47.5886 Y16.0886
G01 X47.5967 Y16.0979
G01 X47.6042 Y16.1076
G01 X47.6510 Y16.1706
G01 X47.6580 Y16.1807
G01 X47.6646 Y16.1910
G01 X47.7050 Y16.2584
G01 X47.7110 Y16.2690
G01 X47.7165 Y16.2800
G01 X47.7501 Y16.3510
G01 X47.7551 Y16.3622
G01 X47.7595 Y16.3736
G01 X47.7859 Y16.4475
G01 X47.7898 Y16.4592
G01 X47.7931 Y16.4710
G01 X47.8121 Y16.5472
G01 X47.8148 Y16.5592
G01 X47.8169 Y16.5712
G01 X47.8284 Y16.6489
G01 X47.8299 Y16.6611
G01 X47.8308 Y16.6733
G01 X47.8347 Y16.7517
G01 X47.8350 Y16.7640
G01 X47.8347 Y16.7763
G01 X47.8308 Y16.8547
G01 X47.8299 Y16.8669
G01 X47.8284 Y16.8791
G01 X47.8169 Y16.9568
G01 X47.8148 Y16.9688
G01 X47.8121 Y16.9808
G01 X47.7931 Y17.0570
G01 X47.7898 Y17.0688
G01 X47.7859 Y17.0805
G01 X47.7595 Y17.1544
G01 X47.7551 Y17.1658
G01 X47.7501 Y17.1770
G01 X47.7165 Y17.2480
G01 X47.7110 Y17.2590
G01 X47.7050 Y17.2696
G01 X47.6646 Y17.3370
G01 X47.6580 Y17.3473
G01 X47.6510 Y17.3574
G01 X47.6042 Y17.4204
G01 X47.5967 Y17.4301
G01 X47.5886 Y17.4394
G01 X47.5353 Y17.4983
G01 X47.5353 Y28.6150
G01 X47.5349 Y28.6273
G01 X47.5322 Y28.6824
G01 X47.5301 Y28.7007
G01 X47.5229 Y28.7493
G01 X47.5208 Y28.7614
G01 X47.5181 Y28.7733
G01 X47.5029 Y28.8328
G01 X47.4826 Y28.8907
G01 X47.4781 Y28.9021
G01 X47.4522 Y28.9577
G01 X47.4467 Y28.9687
G01 X47.4154 Y29.0214
G01 X47.4053 Y29.0369
G01 X47.3725 Y29.0813
G01 X47.3650 Y29.0910
G01 X47.3569 Y29.1002
G01 X47.3155 Y29.1455
G01 X45.7680 Y30.6930
G01 X45.7227 Y30.7344
G01 X45.7135 Y30.7425
G01 X45.7038 Y30.7500
G01 X45.6543 Y30.7863
G01 X45.6018 Y30.8181
G01 X45.5912 Y30.8242
G01 X45.5358 Y30.8507
G01 X45.5246 Y30.8556
G01 X45.5132 Y30.8601
G01 X45.4553 Y30.8804
G01 X45.3958 Y30.8956
G01 X45.3839 Y30.8983
G01 X45.3718 Y30.9004
G01 X45.3110 Y30.9091
G01 X45.2498 Y30.9124
G01 X45.2375 Y30.9128
G01 X38.0343 Y30.9128
G01 X37.9754 Y30.9661
G01 X37.9661 Y30.9742
G01 X37.9564 Y30.9817
G01 X37.8934 Y31.0285
G01 X37.8833 Y31.0355
G01 X37.8730 Y31.0421
G01 X37.8056 Y31.0825
G01 X37.7950 Y31.0885
G01 X37.7840 Y31.0940
G01 X37.7130 Y31.1276
G01 X37.7018 Y31.1326
G01 X37.6904 Y31.1370
G01 X37.6165 Y31.1634
G01 X37.6048 Y31.1673
G01 X37.5930 Y31.1706
G01 X37.5168 Y31.1896
G01 X37.5048 Y31.1923
G01 X37.4928 Y31.1944
G01 X37.4151 Y31.2059
G01 X37.4029 Y31.2074
G01 X37.3907 Y31.2083
G01 X37.3123 Y31.2122
G01 X37.3000 Y31.2125
G01 X37.2877 Y31.2122
G01 X37.2032 Y31.2080
G01 X37.1849 Y31.2059
G01 X37.1072 Y31.1944
G01 X37.0952 Y31.1923
G01 X37.0832 Y31.1896
G01 X37.0070 Y31.1706
G01 X36.9952 Y31.1673
G01 X36.9835 Y31.1634
G01 X36.9096 Y31.1370
G01 X36.8982 Y31.1326
G01 X36.8870 Y31.1276
G01 X36.8160 Y31.0940
G01 X36.8050 Y31.0885
G01 X36.7944 Y31.0825
G01 X36.7270 Y31.0421
G01 X36.7167 Y31.0355
G01 X36.7066 Y31.0285
G01 X36.6436 Y30.9817
G01 X36.6339 Y30.9742
G01 X36.6246 Y30.9661
G01 X36.5664 Y30.9134
G01 X36.5575 Y30.9050
G01 X36.5491 Y30.8961
G01 X36.4964 Y30.8379
G01 X36.4883 Y30.8286
G01 X36.4808 Y30.8189
G01 X36.4340 Y30.7559
G01 X36.4270 Y30.7458
G01 X36.4204 Y30.7355
G01 X36.3800 Y30.6681
G01 X36.3740 Y30.6575
G01 X36.3685 Y30.6465
G01 X36.3349 Y30.5755
G01 X36.3299 Y30.5643
G01 X36.3255 Y30.5529
G01 X36.2991 Y30.4790
G01 X36.2952 Y30.4673
G01 X36.2919 Y30.4555
G01 X36.2729 Y30.3793
G01 X36.2702 Y30.3673
G01 X36.2681 Y30.3553
G01 X36.2566 Y30.2776
G01 X36.2551 Y30.2654
G01 X36.2542 Y30.2532
G01 X36.2503 Y30.1748
G01 X36.2500 Y30.1625
G01 X36.2503 Y30.1502
G01 X36.2542 Y30.0718
G01 X36.2551 Y30.0596
G01 X36.2566 Y30.0474
G01 X36.2681 Y29.9697
G01 X36.2702 Y29.9577
G01 X36.2729 Y29.9457
G01 X36.2919 Y29.8695
G01 X36.2952 Y29.8577
G01 X36.2991 Y29.8460
G01 X36.3255 Y29.7721
G01 X36.3299 Y29.7607
G01 X36.3349 Y29.7495
G01 X36.3685 Y29.6785
G01 X36.3740 Y29.6675
G01 X36.3800 Y29.6569
G01 X36.4204 Y29.5895
G01 X36.4270 Y29.5792
G01 X36.4340 Y29.5691
G01 X36.4808 Y29.5061
G01 X36.4883 Y29.4964
G01 X36.4964 Y29.4871
G01 X36.5491 Y29.4289
G01 X36.5575 Y29.4200
G01 X36.5664 Y29.4116
G01 X36.6246 Y29.3589
G01 X36.6339 Y29.3508
G01 X36.6436 Y29.3433
G01 X36.7066 Y29.2965
G01 X36.7167 Y29.2895
G01 X36.7270 Y29.2829
G01 X36.7944 Y29.2425
G01 X36.8050 Y29.2365
G01 X36.8160 Y29.2310
G01 X36.8870 Y29.1974
G01 X36.8982 Y29.1924
G01 X36.9096 Y29.1880
G01 X36.9835 Y29.1616
G01 X36.9952 Y29.1577
G01 X37.0070 Y29.1544
G01 X37.0832 Y29.1354
G01 X37.0952 Y29.1327
G01 X37.1072 Y29.1306
G01 X37.1910 Y29.1182
G01 X37.2093 Y29.1167
G01 X37.2877 Y29.1128
G01 X37.3000 Y29.1125
G01 X37.3123 Y29.1128
G01 X37.3907 Y29.1167
G01 X37.4029 Y29.1176
G01 X37.4151 Y29.1191
G01 X37.4928 Y29.1306
G01 X37.5048 Y29.1327
G01 X37.5168 Y29.1354
G01 X37.5930 Y29.1544
G01 X37.6048 Y29.1577
G01 X37.6165 Y29.1616
G01 X37.6904 Y29.1880
G01 X37.7018 Y29.1924
G01 X37.7130 Y29.1974
G01 X37.7840 Y29.2310
G01 X37.7950 Y29.2365
G01 X37.8056 Y29.2425
G01 X37.8730 Y29.2829
G01 X37.8833 Y29.2895
G01 X37.8934 Y29.2965
G01 X37.9564 Y29.3433
G01 X37.9661 Y29.3508
G01 X37.9754 Y29.3589
G01 X38.0343 Y29.4122
G01 X42.8997 Y29.4122
G01 X42.8997 Y28.3550
G01 X42.8439 Y28.3549
G01 X42.7593 Y28.3508
G01 X42.7410 Y28.3493
G01 X42.6572 Y28.3369
G01 X42.6452 Y28.3348
G01 X42.6332 Y28.3321
G01 X42.5570 Y28.3131
G01 X42.5394 Y28.3079
G01 X42.4596 Y28.2795
G01 X42.4482 Y28.2751
G01 X42.4370 Y28.2701
G01 X42.3660 Y28.2365
G01 X42.3550 Y28.2310
G01 X42.3444 Y28.2250
G01 X42.2770 Y28.1846
G01 X42.2667 Y28.1780
G01 X42.2566 Y28.1710
G01 X42.1936 Y28.1242
G01 X42.1792 Y28.1127
G01 X42.1164 Y28.0559
G01 X42.1075 Y28.0475
G01 X42.0991 Y28.0386
G01 X42.0464 Y27.9804
G01 X42.0383 Y27.9711
G01 X42.0308 Y27.9614
G01 X41.9840 Y27.8984
G01 X41.9770 Y27.8883
G01 X41.9704 Y27.8780
G01 X41.9300 Y27.8106
G01 X41.9240 Y27.8000
G01 X41.9185 Y27.7890
G01 X41.8849 Y27.7180
G01 X41.8799 Y27.7068
G01 X41.8755 Y27.6954
G01 X41.8491 Y27.6215
G01 X41.8452 Y27.6098
G01 X41.8419 Y27.5980
G01 X41.8229 Y27.5218
G01 X41.8202 Y27.5098
G01 X41.8181 Y27.4978
G01 X41.8066 Y27.4201
G01 X41.8045 Y27.4018
G01 X41.8003 Y27.3173
G01 X41.8000 Y27.3050
G01 X41.8003 Y27.2927
G01 X41.8042 Y27.2143
G01 X41.8051 Y27.2021
G01 X41.8066 Y27.1899
G01 X41.8181 Y27.1122
G01 X41.8202 Y27.1002
G01 X41.8229 Y27.0882
G01 X41.8419 Y27.0120
G01 X41.8452 Y27.0002
G01 X41.8491 Y26.9885
G01 X41.8755 Y26.9146
G01 X41.8799 Y26.9032
G01 X41.8849 Y26.8920
G01 X41.9185 Y26.8210
G01 X41.9240 Y26.8100
G01 X41.9300 Y26.7994
G01 X41.9704 Y26.7320
G01 X41.9770 Y26.7217
G01 X41.9840 Y26.7116
G01 X42.0308 Y26.6486
G01 X42.0383 Y26.6389
G01 X42.0464 Y26.6296
G01 X42.0991 Y26.5714
G01 X42.1075 Y26.5625
G01 X42.1164 Y26.5541
G01 X42.1746 Y26.5014
G01 X42.1839 Y26.4933
G01 X42.1936 Y26.4858
G01 X42.2566 Y26.4390
G01 X42.2667 Y26.4320
G01 X42.2770 Y26.4254
G01 X42.3444 Y26.3850
G01 X42.3550 Y26.3790
G01 X42.3660 Y26.3735
G01 X42.4370 Y26.3399
G01 X42.4482 Y26.3349
G01 X42.4596 Y26.3305
G01 X42.5335 Y26.3041
G01 X42.5452 Y26.3002
G01 X42.5570 Y26.2969
G01 X42.6332 Y26.2779
G01 X42.6452 Y26.2752
G01 X42.6572 Y26.2731
G01 X42.7349 Y26.2616
G01 X42.7471 Y26.2601
G01 X42.7593 Y26.2592
G01 X42.8377 Y26.2553
G01 X42.8500 Y26.2550
G01 X44.4500 Y26.2550
G01 X44.4623 Y26.2553
G01 X44.5407 Y26.2592
G01 X44.5529 Y26.2601
G01 X44.5651 Y26.2616
G01 X44.6428 Y26.2731
G01 X44.6548 Y26.2752
G01 X44.6668 Y26.2779
G01 X44.7430 Y26.2969
G01 X44.7548 Y26.3002
G01 X44.7665 Y26.3041
G01 X44.8404 Y26.3305
G01 X44.8518 Y26.3349
G01 X44.8630 Y26.3399
G01 X44.9340 Y26.3735
G01 X44.9450 Y26.3790
G01 X44.9556 Y26.3850
G01 X45.0230 Y26.4254
G01 X45.0333 Y26.4320
G01 X45.0434 Y26.4390
G01 X45.1064 Y26.4858
G01 X45.1161 Y26.4933
G01 X45.1254 Y26.5014
G01 X45.1836 Y26.5541
G01 X45.1925 Y26.5625
G01 X45.2009 Y26.5714
G01 X45.2536 Y26.6296
G01 X45.2617 Y26.6389
G01 X45.2692 Y26.6486
G01 X45.3160 Y26.7116
G01 X45.3230 Y26.7217
G01 X45.3296 Y26.7320
G01 X45.3731 Y26.8047
G01 X45.3815 Y26.8210
G01 X45.4151 Y26.8920
G01 X45.4201 Y26.9032
G01 X45.4245 Y26.9146
G01 X45.4509 Y26.9885
G01 X45.4548 Y27.0002
G01 X45.4581 Y27.0120
G01 X45.4771 Y27.0882
G01 X45.4798 Y27.1002
G01 X45.4819 Y27.1122
G01 X45.4934 Y27.1899
G01 X45.4949 Y27.2021
G01 X45.4958 Y27.2143
G01 X45.4997 Y27.2927
G01 X45.5000 Y27.3050
G01 X45.4997 Y27.3173
G01 X45.4958 Y27.3957
G01 X45.4949 Y27.4079
G01 X45.4934 Y27.4201
G01 X45.4819 Y27.4978
G01 X45.4798 Y27.5098
G01 X45.4771 Y27.5218
G01 X45.4581 Y27.5980
G01 X45.4548 Y27.6098
G01 X45.4509 Y27.6215
G01 X45.4245 Y27.6954
G01 X45.4201 Y27.7068
G01 X45.4151 Y27.7180
G01 X45.3815 Y27.7890
G01 X45.3760 Y27.8000
G01 X45.3700 Y27.8106
G01 X45.3264 Y27.8832
G01 X45.3160 Y27.8984
G01 X45.2692 Y27.9614
G01 X45.2617 Y27.9711
G01 X45.2536 Y27.9804
G01 X45.2009 Y28.0386
G01 X45.1925 Y28.0475
G01 X45.1836 Y28.0559
G01 X45.1254 Y28.1086
G01 X45.1161 Y28.1167
G01 X45.1064 Y28.1242
G01 X45.0434 Y28.1710
G01 X45.0333 Y28.1780
G01 X45.0230 Y28.1846
G01 X44.9556 Y28.2250
G01 X44.9395 Y28.2338
G01 X44.8630 Y28.2701
G01 X44.8518 Y28.2751
G01 X44.8404 Y28.2795
G01 X44.7665 Y28.3059
G01 X44.7548 Y28.3098
G01 X44.7430 Y28.3131
G01 X44.6608 Y28.3336
G01 X44.6428 Y28.3369
G01 X44.5651 Y28.3484
G01 X44.5468 Y28.3505
G01 X44.4561 Y28.3549
G01 X44.4003 Y28.3550
G01 X44.4003 Y29.4122
G01 X44.9267 Y29.4122
G01 X46.0347 Y28.3042
G01 X46.0347 Y17.4983
G01 X45.9814 Y17.4394
G01 X45.9733 Y17.4301
G01 X45.9658 Y17.4204
G01 X45.9190 Y17.3574
G01 X45.9120 Y17.3473
G01 X45.9054 Y17.3370
G01 X45.8650 Y17.2696
G01 X45.8590 Y17.2590
G01 X45.8535 Y17.2480
G01 X45.8199 Y17.1770
G01 X45.8149 Y17.1658
G01 X45.8105 Y17.1544
G01 X45.7841 Y17.0805
G01 X45.7802 Y17.0688
G01 X45.7769 Y17.0570
G01 X45.7579 Y16.9808
G01 X45.7552 Y16.9688
G01 X45.7531 Y16.9568
G01 X45.7416 Y16.8791
G01 X45.7401 Y16.8669
G01 X45.7392 Y16.8547
G01 X45.7353 Y16.7763
G01 X45.7350 Y16.7640
G01 X45.7353 Y16.7517
G01 X45.7392 Y16.6733
G01 X45.7401 Y16.6611
G01 X45.7416 Y16.6489
G01 X45.7531 Y16.5712
G01 X45.7552 Y16.5592
G01 X45.7579 Y16.5472
G01 X45.7769 Y16.4710
G01 X45.7802 Y16.4592
G01 X45.7841 Y16.4475
G01 X45.8105 Y16.3736
G01 X45.8149 Y16.3622
G01 X45.8199 Y16.3510
G01 X45.8535 Y16.2800
G01 X45.8590 Y16.2690
G01 X45.8650 Y16.2584
G01 X45.9054 Y16.1910
G01 X45.9120 Y16.1807
G01 X45.9190 Y16.1706
G01 X45.9658 Y16.1076
G01 X45.9733 Y16.0979
G01 X45.9814 Y16.0886
G01 X46.0347 Y16.0297
G01 X46.0347 Y4.7158
G01 X45.7242 Y4.4053
G01 X29.1603 Y4.4053
G01 X29.1603 Y5.4707
G01 X29.2136 Y5.5296
G01 X29.2217 Y5.5389
G01 X29.2292 Y5.5486
G01 X29.2760 Y5.6116
G01 X29.2830 Y5.6217
G01 X29.2896 Y5.6320
G01 X29.3300 Y5.6994
G01 X29.3360 Y5.7100
G01 X29.3415 Y5.7210
G01 X29.3751 Y5.7920
G01 X29.3801 Y5.8032
G01 X29.3845 Y5.8146
G01 X29.4109 Y5.8885
G01 X29.4148 Y5.9002
G01 X29.4181 Y5.9120
G01 X29.4371 Y5.9882
G01 X29.4398 Y6.0002
G01 X29.4419 Y6.0122
G01 X29.4534 Y6.0899
G01 X29.4549 Y6.1021
G01 X29.4558 Y6.1143
G01 X29.4597 Y6.1927
G01 X29.4600 Y6.2050
G01 X29.4600 Y7.8050
G01 X29.4597 Y7.8173
G01 X29.4558 Y7.8957
G01 X29.4549 Y7.9079
G01 X29.4534 Y7.9201
G01 X29.4419 Y7.9978
G01 X29.4398 Y8.0098
G01 X29.4371 Y8.0218
G01 X29.4181 Y8.0980
G01 X29.4148 Y8.1098
G01 X29.4109 Y8.1215
G01 X29.3845 Y8.1954
G01 X29.3801 Y8.2068
G01 X29.3751 Y8.2180
G01 X29.3415 Y8.2890
G01 X29.3360 Y8.3000
G01 X29.3300 Y8.3106
G01 X29.2896 Y8.3780
G01 X29.2830 Y8.3883
G01 X29.2760 Y8.3984
G01 X29.2292 Y8.4614
G01 X29.2217 Y8.4711
G01 X29.2136 Y8.4804
G01 X29.1603 Y8.5393
G01 X29.1603 Y11.4300
G01 X29.1575 Y11.4913
G01 X29.1566 Y11.5035
G01 X29.1479 Y11.5643
G01 X29.1446 Y11.5824
G01 X29.1297 Y11.6419
G01 X29.1241 Y11.6594
G01 X29.1054 Y11.7114
G01 X29.0982 Y11.7283
G01 X29.0717 Y11.7837
G01 X29.0656 Y11.7943
G01 X29.0372 Y11.8417
G01 X29.0267 Y11.8568
G01 X28.9975 Y11.8963
G01 X28.9900 Y11.9060
G01 X28.9819 Y11.9152
G01 X28.9405 Y11.9605
G01 X28.8247 Y12.0763
G01 X28.8208 Y12.1557
G01 X28.8199 Y12.1679
G01 X28.8184 Y12.1801
G01 X28.8069 Y12.2578
G01 X28.8048 Y12.2698
G01 X28.8021 Y12.2818
G01 X28.7831 Y12.3580
G01 X28.7798 Y12.3698
G01 X28.7759 Y12.3815
G01 X28.7495 Y12.4554
G01 X28.7451 Y12.4668
G01 X28.7401 Y12.4780
G01 X28.7065 Y12.5490
G01 X28.7010 Y12.5600
G01 X28.6950 Y12.5706
G01 X28.6546 Y12.6380
G01 X28.6480 Y12.6483
G01 X28.6410 Y12.6584
G01 X28.5942 Y12.7214
G01 X28.5867 Y12.7311
G01 X28.5786 Y12.7404
G01 X28.5259 Y12.7986
G01 X28.5175 Y12.8075
G01 X28.5086 Y12.8159
G01 X28.4504 Y12.8686
G01 X28.4411 Y12.8767
G01 X28.4314 Y12.8842
G01 X28.3684 Y12.9310
G01 X28.3583 Y12.9380
G01 X28.3480 Y12.9446
G01 X28.2806 Y12.9850
G01 X28.2700 Y12.9910
G01 X28.2590 Y12.9965
G01 X28.1880 Y13.0301
G01 X28.1768 Y13.0351
G01 X28.1654 Y13.0395
G01 X28.0915 Y13.0659
G01 X28.0798 Y13.0698
G01 X28.0680 Y13.0731
G01 X27.9918 Y13.0921
G01 X27.9798 Y13.0948
G01 X27.9678 Y13.0969
G01 X27.8901 Y13.1084
G01 X27.8779 Y13.1099
G01 X27.8657 Y13.1108
G01 X27.7873 Y13.1147
G01 X27.7750 Y13.1150
G01 X27.7627 Y13.1147
G01 X27.6843 Y13.1108
G01 X27.6721 Y13.1099
G01 X27.6599 Y13.1084
G01 X27.5822 Y13.0969
G01 X27.5702 Y13.0948
G01 X27.5582 Y13.0921
G01 X27.4820 Y13.0731
G01 X27.4702 Y13.0698
G01 X27.4585 Y13.0659
G01 X27.3846 Y13.0395
G01 X27.3732 Y13.0351
G01 X27.3620 Y13.0301
G01 X27.2910 Y12.9965
G01 X27.2800 Y12.9910
G01 X27.2694 Y12.9850
G01 X27.2020 Y12.9446
G01 X27.1917 Y12.9380
G01 X27.1816 Y12.9310
G01 X27.1186 Y12.8842
G01 X27.1089 Y12.8767
G01 X27.0996 Y12.8686
G01 X27.0414 Y12.8159
G01 X27.0325 Y12.8075
G01 X27.0241 Y12.7986
G01 X26.9714 Y12.7404
G01 X26.9633 Y12.7311
G01 X26.9558 Y12.7214
G01 X26.9090 Y12.6584
G01 X26.9020 Y12.6483
G01 X26.8954 Y12.6380
G01 X26.8550 Y12.5706
G01 X26.8490 Y12.5600
G01 X26.8435 Y12.5490
G01 X26.8099 Y12.4780
G01 X26.8049 Y12.4668
G01 X26.8005 Y12.4554
G01 X26.7741 Y12.3815
G01 X26.7702 Y12.3698
G01 X26.7669 Y12.3580
G01 X26.7479 Y12.2818
G01 X26.7452 Y12.2698
G01 X26.7431 Y12.2578
G01 X26.7316 Y12.1801
G01 X26.7301 Y12.1679
G01 X26.7292 Y12.1557
G01 X26.7251 Y12.0711
G01 X26.7253 Y12.0527
G01 X26.7292 Y11.9743
G01 X26.7301 Y11.9621
G01 X26.7316 Y11.9499
G01 X26.7431 Y11.8722
G01 X26.7452 Y11.8602
G01 X26.7479 Y11.8482
G01 X26.7669 Y11.7720
G01 X26.7702 Y11.7602
G01 X26.7741 Y11.7485
G01 X26.8005 Y11.6746
G01 X26.8049 Y11.6632
G01 X26.8099 Y11.6520
G01 X26.8435 Y11.5810
G01 X26.8490 Y11.5700
G01 X26.8550 Y11.5594
G01 X26.8954 Y11.4920
G01 X26.9020 Y11.4817
G01 X26.9090 Y11.4716
G01 X26.9558 Y11.4086
G01 X26.9633 Y11.3989
G01 X26.9714 Y11.3896
G01 X27.0241 Y11.3314
G01 X27.0325 Y11.3225
G01 X27.0414 Y11.3141
G01 X27.0996 Y11.2614
G01 X27.1089 Y11.2533
G01 X27.1186 Y11.2458
G01 X27.1816 Y11.1990
G01 X27.1917 Y11.1920
G01 X27.2020 Y11.1854
G01 X27.2694 Y11.1450
G01 X27.2800 Y11.1390
G01 X27.2910 Y11.1335
G01 X27.3620 Y11.0999
G01 X27.3732 Y11.0949
G01 X27.3846 Y11.0905
G01 X27.4585 Y11.0641
G01 X27.4702 Y11.0602
G01 X27.4820 Y11.0569
G01 X27.5582 Y11.0379
G01 X27.5702 Y11.0352
G01 X27.5822 Y11.0331
G01 X27.6597 Y11.0216
G01 X27.6597 Y8.5393
G01 X27.6064 Y8.4804
G01 X27.5983 Y8.4711
G01 X27.5908 Y8.4614
G01 X27.5440 Y8.3984
G01 X27.5370 Y8.3883
G01 X27.5304 Y8.3780
G01 X27.4900 Y8.3106
G01 X27.4840 Y8.3000
G01 X27.4785 Y8.2890
G01 X27.4449 Y8.2180
G01 X27.4399 Y8.2068
G01 X27.4355 Y8.1954
G01 X27.4091 Y8.1215
G01 X27.4052 Y8.1098
G01 X27.4019 Y8.0980
G01 X27.3829 Y8.0218
G01 X27.3802 Y8.0098
G01 X27.3781 Y7.9978
G01 X27.3657 Y7.9140
G01 X27.3642 Y7.8957
G01 X27.3603 Y7.8173
G01 X27.3600 Y7.8050
G01 X27.3600 Y6.2050
G01 X27.3603 Y6.1927
G01 X27.3642 Y6.1143
G01 X27.3651 Y6.1021
G01 X27.3666 Y6.0899
G01 X27.3781 Y6.0122
G01 X27.3802 Y6.0002
G01 X27.3829 Y5.9882
G01 X27.4019 Y5.9120
G01 X27.4052 Y5.9002
G01 X27.4091 Y5.8885
G01 X27.4355 Y5.8146
G01 X27.4399 Y5.8032
G01 X27.4449 Y5.7920
G01 X27.4785 Y5.7210
G01 X27.4840 Y5.7100
G01 X27.4900 Y5.6994
G01 X27.5304 Y5.6320
G01 X27.5370 Y5.6217
G01 X27.5440 Y5.6116
G01 X27.5908 Y5.5486
G01 X27.5983 Y5.5389
G01 X27.6064 Y5.5296
G01 X27.6597 Y5.4707
G01 X27.6597 Y4.4053
G01 X26.9708 Y4.4053
G01 X26.4005 Y4.9755
G01 X26.3552 Y5.0169
G01 X26.3460 Y5.0250
G01 X26.2968 Y5.0617
G01 X26.2868 Y5.0688
G01 X26.2764 Y5.0754
G01 X26.2237 Y5.1067
G01 X26.1683 Y5.1332
G01 X26.1571 Y5.1381
G01 X26.1457 Y5.1426
G01 X26.0878 Y5.1629
G01 X26.0283 Y5.1781
G01 X26.0103 Y5.1820
G01 X25.9557 Y5.1901
G01 X25.9435 Y5.1916
G01 X25.8823 Y5.1949
G01 X25.8700 Y5.1953
G01 X23.3300 Y5.1953
G01 X23.2687 Y5.1925
G01 X23.2565 Y5.1916
G01 X23.2443 Y5.1901
G01 X23.1836 Y5.1808
G01 X23.1717 Y5.1781
G01 X23.1122 Y5.1629
G01 X23.0543 Y5.1426
G01 X23.0429 Y5.1381
G01 X22.9873 Y5.1122
G01 X22.9763 Y5.1067
G01 X22.9657 Y5.1006
G01 X22.9236 Y5.0754
G01 X22.9081 Y5.0653
G01 X22.8637 Y5.0325
G01 X22.8540 Y5.0250
G01 X22.8448 Y5.0169
G01 X22.8039 Y4.9798
G01 X22.2292 Y4.4053
G01 X13.9203 Y4.4053
G01 X13.9203 Y5.4907
G01 X13.9736 Y5.5496
G01 X13.9817 Y5.5589
G01 X13.9892 Y5.5686
G01 X14.0360 Y5.6316
G01 X14.0430 Y5.6417
G01 X14.0496 Y5.6520
G01 X14.0900 Y5.7194
G01 X14.0960 Y5.7300
G01 X14.1015 Y5.7410
G01 X14.1351 Y5.8120
G01 X14.1401 Y5.8232
G01 X14.1445 Y5.8346
G01 X14.1709 Y5.9085
G01 X14.1748 Y5.9202
G01 X14.1781 Y5.9320
G01 X14.1971 Y6.0082
G01 X14.1998 Y6.0202
G01 X14.2019 Y6.0322
G01 X14.2134 Y6.1099
G01 X14.2155 Y6.1282
G01 X14.2197 Y6.2127
G01 X14.2200 Y6.2250
G01 X14.2200 Y7.8250
G01 X14.2197 Y7.8373
G01 X14.2158 Y7.9157
G01 X14.2149 Y7.9279
G01 X14.2134 Y7.9401
G01 X14.2009 Y8.0238
G01 X14.1971 Y8.0418
G01 X14.1781 Y8.1180
G01 X14.1748 Y8.1298
G01 X14.1709 Y8.1415
G01 X14.1445 Y8.2154
G01 X14.1401 Y8.2268
G01 X14.1351 Y8.2380
G01 X14.1015 Y8.3090
G01 X14.0960 Y8.3200
G01 X14.0900 Y8.3306
G01 X14.0496 Y8.3980
G01 X14.0430 Y8.4083
G01 X14.0360 Y8.4184
G01 X13.9892 Y8.4814
G01 X13.9817 Y8.4911
G01 X13.9736 Y8.5004
G01 X13.9209 Y8.5586
G01 X13.9125 Y8.5675
G01 X13.9036 Y8.5759
G01 X13.8454 Y8.6286
G01 X13.8361 Y8.6367
G01 X13.8264 Y8.6442
G01 X13.7634 Y8.6910
G01 X13.7533 Y8.6980
G01 X13.7430 Y8.7046
G01 X13.6756 Y8.7450
G01 X13.6650 Y8.7510
G01 X13.6540 Y8.7565
G01 X13.5830 Y8.7901
G01 X13.5718 Y8.7951
G01 X13.5604 Y8.7995
G01 X13.4865 Y8.8259
G01 X13.4748 Y8.8298
G01 X13.4630 Y8.8331
G01 X13.3868 Y8.8521
G01 X13.3748 Y8.8548
G01 X13.3628 Y8.8569
G01 X13.2851 Y8.8684
G01 X13.2729 Y8.8699
G01 X13.2607 Y8.8708
G01 X13.1823 Y8.8747
G01 X13.1700 Y8.8750
G01 X13.1577 Y8.8747
G01 X13.0793 Y8.8708
G01 X13.0671 Y8.8699
G01 X13.0549 Y8.8684
G01 X12.9772 Y8.8569
G01 X12.9652 Y8.8548
G01 X12.9532 Y8.8521
G01 X12.8770 Y8.8331
G01 X12.8652 Y8.8298
G01 X12.8535 Y8.8259
G01 X12.7796 Y8.7995
G01 X12.7682 Y8.7951
G01 X12.7570 Y8.7901
G01 X12.6860 Y8.7565
G01 X12.6750 Y8.7510
G01 X12.6644 Y8.7450
G01 X12.5970 Y8.7046
G01 X12.5867 Y8.6980
G01 X12.5766 Y8.6910
G01 X12.5136 Y8.6442
G01 X12.5039 Y8.6367
G01 X12.4946 Y8.6286
G01 X12.4364 Y8.5759
G01 X12.4275 Y8.5675
G01 X12.4191 Y8.5586
G01 X12.3664 Y8.5004
G01 X12.3583 Y8.4911
G01 X12.3508 Y8.4814
G01 X12.3040 Y8.4184
G01 X12.2970 Y8.4083
G01 X12.2904 Y8.3980
G01 X12.2500 Y8.3306
G01 X12.2440 Y8.3200
G01 X12.2385 Y8.3090
G01 X12.2049 Y8.2380
G01 X12.1999 Y8.2268
G01 X12.1955 Y8.2154
G01 X12.1691 Y8.1415
G01 X12.1652 Y8.1298
G01 X12.1619 Y8.1180
G01 X12.1429 Y8.0418
G01 X12.1391 Y8.0238
G01 X12.1266 Y7.9401
G01 X12.1251 Y7.9279
G01 X12.1242 Y7.9157
G01 X12.1203 Y7.8373
G01 X12.1200 Y7.8250
G01 X12.1200 Y6.2250
G01 X12.1203 Y6.2127
G01 X12.1245 Y6.1282
G01 X12.1266 Y6.1099
G01 X12.1381 Y6.0322
G01 X12.1402 Y6.0202
G01 X12.1429 Y6.0082
G01 X12.1619 Y5.9320
G01 X12.1652 Y5.9202
G01 X12.1691 Y5.9085
G01 X12.1955 Y5.8346
G01 X12.1999 Y5.8232
G01 X12.2049 Y5.8120
G01 X12.2385 Y5.7410
G01 X12.2440 Y5.7300
G01 X12.2500 Y5.7194
G01 X12.2904 Y5.6520
G01 X12.2970 Y5.6417
G01 X12.3040 Y5.6316
G01 X12.3508 Y5.5686
G01 X12.3583 Y5.5589
G01 X12.3664 Y5.5496
G01 X12.4197 Y5.4907
G01 X12.4197 Y4.4053
G01 X4.3108 Y4.4053
G01 X3.7503 Y4.9658
G01 X3.7503 Y20.2047
G01 X5.2657 Y20.2047
G01 X5.3246 Y20.1514
G01 X5.3339 Y20.1433
G01 X5.3436 Y20.1358
G01 X5.4066 Y20.0890
G01 X5.4167 Y20.0820
G01 X5.4270 Y20.0754
G01 X5.4944 Y20.0350
G01 X5.5050 Y20.0290
G01 X5.5160 Y20.0235
G01 X5.5870 Y19.9899
G01 X5.5982 Y19.9849
G01 X5.6096 Y19.9805
G01 X5.6835 Y19.9541
G01 X5.6952 Y19.9502
G01 X5.7070 Y19.9469
G01 X5.7832 Y19.9279
G01 X5.7952 Y19.9252
G01 X5.8072 Y19.9231
G01 X5.8849 Y19.9116
G01 X5.9032 Y19.9095
G01 X5.9877 Y19.9053
G01 X6.0000 Y19.9050
G01 X7.6000 Y19.9050
G01 X7.6123 Y19.9053
G01 X7.6907 Y19.9092
G01 X7.7029 Y19.9101
G01 X7.7151 Y19.9116
G01 X7.7928 Y19.9231
G01 X7.8048 Y19.9252
G01 X7.8168 Y19.9279
G01 X7.8930 Y19.9469
G01 X7.9048 Y19.9502
G01 X7.9165 Y19.9541
G01 X7.9904 Y19.9805
G01 X8.0018 Y19.9849
G01 X8.0130 Y19.9899
G01 X8.0840 Y20.0235
G01 X8.0950 Y20.0290
G01 X8.1056 Y20.0350
G01 X8.1730 Y20.0754
G01 X8.1833 Y20.0820
G01 X8.1934 Y20.0890
G01 X8.2564 Y20.1358
G01 X8.2661 Y20.1433
G01 X8.2754 Y20.1514
G01 X8.3336 Y20.2041
G01 X8.3425 Y20.2125
G01 X8.3509 Y20.2214
G01 X8.4036 Y20.2796
G01 X8.4117 Y20.2889
G01 X8.4192 Y20.2986
G01 X8.4660 Y20.3616
G01 X8.4730 Y20.3717
G01 X8.4796 Y20.3820
G01 X8.5200 Y20.4494
G01 X8.5260 Y20.4600
G01 X8.5315 Y20.4710
G01 X8.5651 Y20.5420
G01 X8.5701 Y20.5532
G01 X8.5745 Y20.5646
G01 X8.6009 Y20.6385
G01 X8.6048 Y20.6502
G01 X8.6081 Y20.6620
G01 X8.6271 Y20.7382
G01 X8.6298 Y20.7502
G01 X8.6319 Y20.7622
G01 X8.6434 Y20.8399
G01 X8.6449 Y20.8521
G01 X8.6458 Y20.8643
G01 X8.6497 Y20.9427
G01 X8.6500 Y20.9550
G01 X8.6497 Y20.9673
G01 X8.6458 Y21.0457
G01 X8.6449 Y21.0579
G01 X8.6434 Y21.0701
G01 X8.6319 Y21.1478
G01 X8.6298 Y21.1598
G01 X8.6271 Y21.1718
G01 X8.6081 Y21.2480
G01 X8.6048 Y21.2598
G01 X8.6009 Y21.2715
G01 X8.5745 Y21.3454
G01 X8.5701 Y21.3568
G01 X8.5651 Y21.3680
G01 X8.5315 Y21.4390
G01 X8.5260 Y21.4500
G01 X8.5200 Y21.4606
G01 X8.4796 Y21.5280
G01 X8.4730 Y21.5383
G01 X8.4660 Y21.5484
G01 X8.4192 Y21.6114
G01 X8.4117 Y21.6211
G01 X8.4036 Y21.6304
G01 X8.3509 Y21.6886
G01 X8.3425 Y21.6975
G01 X8.3336 Y21.7059
G01 X8.2754 Y21.7586
G01 X8.2661 Y21.7667
G01 X8.2564 Y21.7742
G01 X8.1934 Y21.8210
G01 X8.1833 Y21.8280
G01 X8.1730 Y21.8346
G01 X8.1056 Y21.8750
G01 X8.0950 Y21.8810
G01 X8.0840 Y21.8865
G01 X8.0130 Y21.9201
G01 X8.0018 Y21.9251
G01 X7.9904 Y21.9295
G01 X7.9165 Y21.9559
G01 X7.9048 Y21.9598
G01 X7.8930 Y21.9631
G01 X7.8168 Y21.9821
G01 X7.8048 Y21.9848
G01 X7.7928 Y21.9869
G01 X7.7151 Y21.9984
G01 X7.7029 Y21.9999
G01 X7.6907 Y22.0008
G01 X7.6123 Y22.0047
G01 X7.6000 Y22.0050
G01 X6.0000 Y22.0050
G01 X5.9877 Y22.0047
G01 X5.9032 Y22.0005
G01 X5.8849 Y21.9984
G01 X5.8072 Y21.9869
G01 X5.7952 Y21.9848
G01 X5.7832 Y21.9821
G01 X5.7070 Y21.9631
G01 X5.6952 Y21.9598
G01 X5.6835 Y21.9559
G01 X5.6096 Y21.9295
G01 X5.5982 Y21.9251
G01 X5.5870 Y21.9201
G01 X5.5160 Y21.8865
G01 X5.5050 Y21.8810
G01 X5.4944 Y21.8750
G01 X5.4270 Y21.8346
G01 X5.4167 Y21.8280
G01 X5.4066 Y21.8210
G01 X5.3436 Y21.7742
G01 X5.3339 Y21.7667
G01 X5.3246 Y21.7586
G01 X5.2657 Y21.7053
G01 X3.7503 Y21.7053
G01 X3.7503 Y26.5142
G01 X3.7908 Y26.5547
G01 X5.2657 Y26.5547
G00 Z5.0000
G00 X1.7626 Y33.5529
G01 F60.00
G01 Z-0.1000
G01 F300.00
G01 X1.7515 Y33.5659
G01 X1.7387 Y33.5795
G01 X1.7301 Y33.5877
G01 X1.7211 Y33.5955
G01 X1.6050 Y33.6874
G01 X1.5907 Y33.6979
G01 X1.5807 Y33.7044
G01 X1.5704 Y33.7103
G01 X1.5598 Y33.7158
G01 X1.5435 Y33.7231
G01 X1.4118 Y33.7762
G01 X1.3950 Y33.7823
G01 X1.3836 Y33.7856
G01 X1.3662 Y33.7897
G01 X1.3545 Y33.7917
G01 X1.3427 Y33.7931
G01 X1.1954 Y33.8075
G01 X1.1775 Y33.8081
G01 X1.1656 Y33.8079
G01 X1.1479 Y33.8065
G01 X1.1361 Y33.8048
G01 X0.9907 Y33.7772
G01 X0.9733 Y33.7732
G01 X0.9619 Y33.7699
G01 X0.9506 Y33.7660
G01 X0.9396 Y33.7617
G01 X0.9234 Y33.7541
G01 X0.7970 Y33.6893
G01 X0.7814 Y33.6806
G01 X0.7714 Y33.6742
G01 X0.7617 Y33.6673
G01 X0.7478 Y33.6561
G01 X0.7389 Y33.6482
G01 X0.6316 Y33.5463
G01 X0.6234 Y33.5377
G01 X0.6156 Y33.5287
G01 X0.6047 Y33.5146
G01 X0.5980 Y33.5047
G01 X0.5918 Y33.4946
G01 X0.5176 Y33.3666
G01 X0.5121 Y33.3560
G01 X0.5071 Y33.3452
G01 X0.5006 Y33.3286
G01 X0.4970 Y33.3172
G01 X0.4939 Y33.3057
G01 X0.4601 Y33.1678
G01 X0.4575 Y33.1561
G01 X0.4547 Y33.1384
G01 X0.4535 Y33.1264
G01 X0.4506 Y33.0658
G01 X0.4505 Y1.1995
G01 X0.4511 Y1.1817
G01 X0.4530 Y1.1639
G01 X0.4733 Y1.0233
G01 X0.4752 Y1.0116
G01 X0.4792 Y0.9942
G01 X0.4845 Y0.9771
G01 X0.4909 Y0.9605
G01 X0.5548 Y0.8205
G01 X0.5632 Y0.8047
G01 X0.5727 Y0.7896
G01 X0.5796 Y0.7799
G01 X0.5908 Y0.7660
G01 X0.6838 Y0.6587
G01 X0.6918 Y0.6499
G01 X0.7046 Y0.6374
G01 X0.7136 Y0.6296
G01 X0.7229 Y0.6222
G01 X0.7326 Y0.6153
G01 X0.8621 Y0.5321
G01 X0.8724 Y0.5262
G01 X0.8830 Y0.5207
G01 X0.8993 Y0.5135
G01 X0.9104 Y0.5093
G01 X0.9218 Y0.5057
G01 X1.0581 Y0.4657
G01 X1.0695 Y0.4626
G01 X1.0812 Y0.4601
G01 X1.0929 Y0.4581
G01 X1.1107 Y0.4562
G01 X1.1817 Y0.4511
G01 X1.1995 Y0.4505
G01 X21.5669 Y0.4506
G01 X21.5788 Y0.4511
G01 X21.5966 Y0.4530
G01 X21.7430 Y0.4742
G01 X21.7605 Y0.4778
G01 X21.7777 Y0.4826
G01 X21.7945 Y0.4886
G01 X21.8054 Y0.4933
G01 X21.9400 Y0.5548
G01 X21.9558 Y0.5632
G01 X21.9659 Y0.5694
G01 X21.9758 Y0.5761
G01 X21.9900 Y0.5869
G01 X22.1018 Y0.6838
G01 X22.1106 Y0.6918
G01 X22.1231 Y0.7046
G01 X22.1309 Y0.7136
G01 X22.1383 Y0.7229
G01 X22.1452 Y0.7326
G01 X22.2284 Y0.8621
G01 X22.2371 Y0.8777
G01 X22.2447 Y0.8938
G01 X22.2512 Y0.9104
G01 X22.2548 Y0.9218
G01 X22.2948 Y1.0581
G01 X22.2979 Y1.0695
G01 X22.3004 Y1.0812
G01 X22.3032 Y1.0988
G01 X22.3074 Y1.1547
G01 X23.8877 Y1.1547
G01 X23.9246 Y1.1214
G01 X23.9387 Y1.1095
G01 X24.0066 Y1.0590
G01 X24.0218 Y1.0486
G01 X24.0944 Y1.0050
G01 X24.1050 Y0.9990
G01 X24.1160 Y0.9935
G01 X24.1870 Y0.9599
G01 X24.2039 Y0.9526
G01 X24.2835 Y0.9241
G01 X24.2952 Y0.9202
G01 X24.3070 Y0.9169
G01 X24.3832 Y0.8979
G01 X24.3952 Y0.8952
G01 X24.4072 Y0.8931
G01 X24.4849 Y0.8816
G01 X24.4971 Y0.8801
G01 X24.5093 Y0.8792
G01 X24.5877 Y0.8753
G01 X24.6000 Y0.8750
G01 X24.6123 Y0.8753
G01 X24.6907 Y0.8792
G01 X24.7029 Y0.8801
G01 X24.7151 Y0.8816
G01 X24.7928 Y0.8931
G01 X24.8048 Y0.8952
G01 X24.8168 Y0.8979
G01 X24.8930 Y0.9169
G01 X24.9048 Y0.9202
G01 X24.9165 Y0.9241
G01 X24.9961 Y0.9526
G01 X25.0130 Y0.9599
G01 X25.0840 Y0.9935
G01 X25.0950 Y0.9990
G01 X25.1056 Y1.0050
G01 X25.1782 Y1.0486
G01 X25.1934 Y1.0590
G01 X25.2613 Y1.1095
G01 X25.2754 Y1.1214
G01 X25.3123 Y1.1547
G01 X26.8939 Y1.1547
G01 X26.9137 Y1.0175
G01 X26.9159 Y1.0058
G01 X26.9203 Y0.9885
G01 X26.9240 Y0.9771
G01 X26.9304 Y0.9605
G01 X26.9943 Y0.8205
G01 X26.9998 Y0.8099
G01 X27.0089 Y0.7946
G01 X27.0191 Y0.7799
G01 X27.0264 Y0.7705
G01 X27.1233 Y0.6587
G01 X27.1313 Y0.6499
G01 X27.1397 Y0.6414
G01 X27.1485 Y0.6334
G01 X27.1577 Y0.6259
G01 X27.1672 Y0.6187
G01 X27.1771 Y0.6121
G01 X27.3016 Y0.5321
G01 X27.3119 Y0.5262
G01 X27.3225 Y0.5207
G01 X27.3388 Y0.5135
G01 X27.3499 Y0.5093
G01 X27.3613 Y0.5057
G01 X27.4976 Y0.4657
G01 X27.5148 Y0.4613
G01 X27.5324 Y0.4581
G01 X27.5442 Y0.4567
G01 X27.6212 Y0.4511
G01 X27.6331 Y0.4506
G01 X48.8064 Y0.4506
G01 X48.8183 Y0.4511
G01 X48.8361 Y0.4530
G01 X48.9767 Y0.4733
G01 X48.9884 Y0.4752
G01 X49.0058 Y0.4792
G01 X49.0229 Y0.4845
G01 X49.0395 Y0.4909
G01 X49.1795 Y0.5548
G01 X49.1901 Y0.5603
G01 X49.2054 Y0.5694
G01 X49.2201 Y0.5796
G01 X49.2340 Y0.5908
G01 X49.3413 Y0.6838
G01 X49.3501 Y0.6918
G01 X49.3586 Y0.7002
G01 X49.3666 Y0.7090
G01 X49.3741 Y0.7182
G01 X49.3847 Y0.7326
G01 X49.4679 Y0.8621
G01 X49.4766 Y0.8777
G01 X49.4818 Y0.8884
G01 X49.4865 Y0.8993
G01 X49.4907 Y0.9104
G01 X49.4943 Y0.9218
G01 X49.5343 Y1.0581
G01 X49.5374 Y1.0695
G01 X49.5399 Y1.0812
G01 X49.5419 Y1.0929
G01 X49.5438 Y1.1107
G01 X49.5489 Y1.1817
G01 X49.5495 Y1.1995
G01 X49.5495 Y48.8005
G01 X49.5489 Y48.8183
G01 X49.5470 Y48.8361
G01 X49.5267 Y48.9767
G01 X49.5236 Y48.9942
G01 X49.5208 Y49.0058
G01 X49.5155 Y49.0229
G01 X49.5091 Y49.0395
G01 X49.4452 Y49.1795
G01 X49.4397 Y49.1901
G01 X49.4306 Y49.2054
G01 X49.4204 Y49.2201
G01 X49.4092 Y49.2340
G01 X49.3162 Y49.3413
G01 X49.3082 Y49.3501
G01 X49.2998 Y49.3586
G01 X49.2910 Y49.3666
G01 X49.2771 Y49.3778
G01 X49.2674 Y49.3847
G01 X49.1379 Y49.4679
G01 X49.1223 Y49.4766
G01 X49.1062 Y49.4842
G01 X49.0896 Y49.4907
G01 X49.0782 Y49.4943
G01 X48.9362 Y49.5359
G01 X48.9247 Y49.5387
G01 X48.9130 Y49.5410
G01 X48.8953 Y49.5433
G01 X48.8183 Y49.5489
G01 X48.8005 Y49.5495
G01 X47.7959 Y49.5494
G01 X47.7840 Y49.5489
G01 X47.7662 Y49.5470
G01 X47.6256 Y49.5267
G01 X47.6081 Y49.5236
G01 X47.5965 Y49.5208
G01 X47.5851 Y49.5174
G01 X47.5739 Y49.5135
G01 X47.5628 Y49.5091
G01 X47.4282 Y49.4477
G01 X47.4175 Y49.4425
G01 X47.4019 Y49.4338
G01 X47.3870 Y49.4239
G01 X47.3775 Y49.4168
G01 X47.3683 Y49.4092
G01 X47.2610 Y49.3162
G01 X47.2522 Y49.3082
G01 X47.2397 Y49.2954
G01 X47.2319 Y49.2864
G01 X47.2245 Y49.2771
G01 X47.2144 Y49.2624
G01 X47.1376 Y49.1430
G01 X47.1285 Y49.1276
G01 X47.1230 Y49.1170
G01 X47.1158 Y49.1007
G01 X47.1098 Y49.0839
G01 X47.0680 Y48.9419
G01 X47.0649 Y48.9305
G01 X47.0624 Y48.9188
G01 X47.0604 Y48.9071
G01 X47.0585 Y48.8893
G01 X47.0580 Y48.8775
G01 X47.0579 Y48.7295
G01 X47.0582 Y48.7172
G01 X47.0598 Y48.6987
G01 X47.0616 Y48.6865
G01 X47.0640 Y48.6745
G01 X47.0829 Y48.5911
G01 X47.0865 Y48.5784
G01 X47.0963 Y48.5476
G01 X47.1185 Y48.4821
G01 X47.1208 Y48.4706
G01 X47.1236 Y48.4592
G01 X47.1318 Y48.3906
G01 X47.1433 Y48.3100
G01 X47.1411 Y48.2539
G01 X47.1405 Y48.2245
G01 X47.1405 Y40.7469
G01 X47.1417 Y40.7061
G01 X47.1443 Y40.6650
G01 X47.1349 Y40.5841
G01 X47.1285 Y40.5153
G01 X47.1260 Y40.5038
G01 X47.1240 Y40.4923
G01 X47.0998 Y40.4138
G01 X47.0810 Y40.3472
G01 X47.0764 Y40.3364
G01 X47.0723 Y40.3254
G01 X47.0342 Y40.2526
G01 X47.0036 Y40.1905
G01 X46.9971 Y40.1808
G01 X46.9911 Y40.1707
G01 X46.9482 Y40.1163
G01 X46.8994 Y40.0513
G01 X46.8582 Y40.0132
G01 X46.8370 Y39.9928
G01 X46.2124 Y39.3682
G01 X46.1844 Y39.3385
G01 X46.1571 Y39.3076
G01 X46.0933 Y39.2570
G01 X46.0401 Y39.2128
G01 X46.0302 Y39.2065
G01 X46.0206 Y39.1998
G01 X45.9480 Y39.1613
G01 X45.8876 Y39.1276
G01 X45.8767 Y39.1232
G01 X45.8660 Y39.1183
G01 X45.8000 Y39.0978
G01 X45.7221 Y39.0715
G01 X45.7106 Y39.0692
G01 X45.6992 Y39.0664
G01 X45.6305 Y39.0582
G01 X45.5500 Y39.0467
G01 X45.4939 Y39.0489
G01 X45.4645 Y39.0495
G01 X41.6980 Y39.0494
G01 X41.6861 Y39.0489
G01 X41.6684 Y39.0470
G01 X41.5278 Y39.0267
G01 X41.5102 Y39.0236
G01 X41.4929 Y39.0192
G01 X41.4760 Y39.0135
G01 X41.4650 Y39.0091
G01 X41.3303 Y38.9477
G01 X41.3136 Y38.9393
G01 X41.2975 Y38.9296
G01 X41.2872 Y38.9225
G01 X41.2773 Y38.9149
G01 X41.1942 Y38.8480
G01 X41.1840 Y38.8393
G01 X41.1743 Y38.8301
G01 X34.6599 Y32.3157
G01 X34.6477 Y32.3026
G01 X34.6401 Y32.2934
G01 X34.5479 Y32.1702
G01 X34.5412 Y32.1603
G01 X34.5321 Y32.1450
G01 X34.5241 Y32.1290
G01 X34.5194 Y32.1181
G01 X34.4677 Y31.9795
G01 X34.4636 Y31.9677
G01 X34.4586 Y31.9496
G01 X34.4550 Y31.9312
G01 X34.4533 Y31.9188
G01 X34.4419 Y31.8128
G01 X34.4406 Y31.7927
G01 X34.4405 Y28.3620
G01 X34.4408 Y28.3501
G01 X34.4416 Y28.3382
G01 X34.4430 Y28.3264
G01 X34.4642 Y28.1796
G01 X34.4680 Y28.1613
G01 X34.4713 Y28.1493
G01 X34.4752 Y28.1375
G01 X34.4797 Y28.1258
G01 X34.4848 Y28.1144
G01 X34.5542 Y27.9679
G01 X34.5637 Y27.9508
G01 X34.5810 Y27.9248
G01 X34.6676 Y27.7383
G01 X34.7226 Y27.5401
G01 X34.7444 Y27.3357
G01 X34.7326 Y27.1304
G01 X34.6874 Y26.9298
G01 X34.6100 Y26.7392
G01 X34.5026 Y26.5639
G01 X34.3679 Y26.4085
G01 X34.3480 Y26.3915
G01 X34.3352 Y26.3790
G01 X34.2359 Y26.2693
G01 X34.2245 Y26.2557
G01 X34.2173 Y26.2461
G01 X34.2076 Y26.2312
G01 X34.1989 Y26.2156
G01 X34.1345 Y26.0824
G01 X34.1296 Y26.0715
G01 X34.1232 Y26.0549
G01 X34.1196 Y26.0435
G01 X34.1166 Y26.0320
G01 X34.1141 Y26.0204
G01 X34.0898 Y25.8744
G01 X34.0882 Y25.8626
G01 X34.0867 Y25.8448
G01 X34.0865 Y25.8329
G01 X34.0868 Y25.8210
G01 X34.0883 Y25.8033
G01 X34.1064 Y25.6564
G01 X34.1096 Y25.6388
G01 X34.1124 Y25.6273
G01 X34.1177 Y25.6102
G01 X34.1242 Y25.5936
G01 X34.1805 Y25.4632
G01 X34.1854 Y25.4524
G01 X34.1938 Y25.4368
G01 X34.2032 Y25.4217
G01 X34.2101 Y25.4121
G01 X34.2862 Y25.3154
G01 X34.2937 Y25.3064
G01 X34.3058 Y25.2935
G01 X35.3918 Y24.2074
G01 X35.4215 Y24.1794
G01 X35.4524 Y24.1521
G01 X35.5030 Y24.0883
G01 X35.5472 Y24.0351
G01 X35.5535 Y24.0252
G01 X35.5602 Y24.0156
G01 X35.5924 Y23.9544
G01 X35.6324 Y23.8826
G01 X35.6368 Y23.8717
G01 X35.6424 Y23.8595
G01 X35.6493 Y23.8423
G01 X35.6544 Y23.8316
G01 X35.6600 Y23.8212
G01 X35.6661 Y23.8110
G01 X35.7410 Y23.6919
G01 X35.7476 Y23.6820
G01 X35.7547 Y23.6724
G01 X35.7661 Y23.6586
G01 X35.7742 Y23.6500
G01 X35.7827 Y23.6417
G01 X35.8936 Y23.5436
G01 X35.9027 Y23.5360
G01 X35.9121 Y23.5288
G01 X35.9219 Y23.5220
G01 X35.9372 Y23.5127
G01 X35.9531 Y23.5046
G01 X36.0871 Y23.4419
G01 X36.1037 Y23.4353
G01 X36.1207 Y23.4299
G01 X36.1322 Y23.4270
G01 X36.1498 Y23.4237
G01 X36.2902 Y23.4021
G01 X36.3079 Y23.4001
G01 X36.3198 Y23.3994
G01 X36.3317 Y23.3993
G01 X36.3495 Y23.4002
G01 X36.3613 Y23.4015
G01 X36.5021 Y23.4203
G01 X36.5138 Y23.4222
G01 X36.5311 Y23.4260
G01 X36.5481 Y23.4310
G01 X36.5976 Y23.4476
G01 X36.8054 Y23.5279
G01 X36.8222 Y23.5331
G01 X37.0327 Y23.5819
G01 X37.0500 Y23.5846
G01 X37.2653 Y23.6033
G01 X37.2828 Y23.6035
G01 X37.4986 Y23.5917
G01 X37.5159 Y23.5895
G01 X37.7279 Y23.5473
G01 X37.7448 Y23.5427
G01 X37.7570 Y23.5384
G01 X37.2147 Y22.9961
G01 X37.1971 Y22.9949
G01 X37.1849 Y22.9934
G01 X37.1072 Y22.9819
G01 X37.0952 Y22.9798
G01 X37.0832 Y22.9771
G01 X37.0070 Y22.9581
G01 X36.9952 Y22.9548
G01 X36.9835 Y22.9509
G01 X36.9096 Y22.9245
G01 X36.8982 Y22.9201
G01 X36.8870 Y22.9151
G01 X36.8160 Y22.8815
G01 X36.8050 Y22.8760
G01 X36.7944 Y22.8700
G01 X36.7270 Y22.8296
G01 X36.7167 Y22.8230
G01 X36.7066 Y22.8160
G01 X36.6436 Y22.7692
G01 X36.6339 Y22.7617
G01 X36.6246 Y22.7536
G01 X36.5664 Y22.7009
G01 X36.5533 Y22.6881
G01 X36.4964 Y22.6254
G01 X36.4883 Y22.6161
G01 X36.4808 Y22.6064
G01 X36.4340 Y22.5434
G01 X36.4270 Y22.5333
G01 X36.4204 Y22.5230
G01 X36.3800 Y22.4556
G01 X36.3740 Y22.4450
G01 X36.3685 Y22.4340
G01 X36.3349 Y22.3630
G01 X36.3299 Y22.3518
G01 X36.3255 Y22.3404
G01 X36.2991 Y22.2665
G01 X36.2952 Y22.2548
G01 X36.2919 Y22.2430
G01 X36.2729 Y22.1668
G01 X36.2702 Y22.1548
G01 X36.2681 Y22.1428
G01 X36.2566 Y22.0651
G01 X36.2551 Y22.0529
G01 X36.2542 Y22.0407
G01 X36.2503 Y21.9623
G01 X36.2500 Y21.9500
G01 X36.2503 Y21.9377
G01 X36.2542 Y21.8593
G01 X36.2551 Y21.8471
G01 X36.2566 Y21.8349
G01 X36.2681 Y21.7572
G01 X36.2702 Y21.7452
G01 X36.2729 Y21.7332
G01 X36.2919 Y21.6570
G01 X36.2952 Y21.6452
G01 X36.2991 Y21.6335
G01 X36.3255 Y21.5596
G01 X36.3299 Y21.5482
G01 X36.3349 Y21.5370
G01 X36.3685 Y21.4660
G01 X36.3740 Y21.4550
G01 X36.3800 Y21.4444
G01 X36.4204 Y21.3770
G01 X36.4270 Y21.3667
G01 X36.4340 Y21.3566
G01 X36.4808 Y21.2936
G01 X36.4883 Y21.2839
G01 X36.4964 Y21.2746
G01 X36.5533 Y21.2119
G01 X36.5664 Y21.1991
G01 X36.6246 Y21.1464
G01 X36.6339 Y21.1383
G01 X36.6436 Y21.1308
G01 X36.7066 Y21.0840
G01 X36.7167 Y21.0770
G01 X36.7270 Y21.0704
G01 X36.7944 Y21.0300
G01 X36.8050 Y21.0240
G01 X36.8160 Y21.0185
G01 X36.8870 Y20.9849
G01 X36.8982 Y20.9799
G01 X36.9096 Y20.9755
G01 X36.9835 Y20.9491
G01 X36.9952 Y20.9452
G01 X37.0070 Y20.9419
G01 X37.0832 Y20.9229
G01 X37.0952 Y20.9202
G01 X37.1072 Y20.9181
G01 X37.1849 Y20.9066
G01 X37.1971 Y20.9051
G01 X37.2147 Y20.9039
G01 X37.7581 Y20.3606
G01 X37.6291 Y20.3057
G01 X37.6132 Y20.2977
G01 X37.6028 Y20.2918
G01 X37.5928 Y20.2854
G01 X37.5831 Y20.2785
G01 X37.5737 Y20.2712
G01 X37.4594 Y20.1772
G01 X37.4463 Y20.1651
G01 X37.4381 Y20.1565
G01 X37.4265 Y20.1429
G01 X37.4194 Y20.1334
G01 X37.3328 Y20.0062
G01 X37.3266 Y19.9961
G01 X37.3209 Y19.9858
G01 X37.3157 Y19.9752
G01 X37.3111 Y19.9644
G01 X37.3069 Y19.9534
G01 X37.2684 Y19.8439
G01 X37.2631 Y19.8272
G01 X37.2603 Y19.8159
G01 X37.2274 Y19.6698
G01 X37.1500 Y19.4792
G01 X37.0426 Y19.3039
G01 X36.9079 Y19.1485
G01 X36.7497 Y19.0171
G01 X36.5722 Y18.9134
G01 X36.3801 Y18.8400
G01 X36.3305 Y18.8299
G01 X36.3189 Y18.8269
G01 X36.3075 Y18.8235
G01 X36.1682 Y18.7737
G01 X36.1512 Y18.7669
G01 X36.1402 Y18.7617
G01 X36.1295 Y18.7560
G01 X36.1190 Y18.7497
G01 X36.1089 Y18.7430
G01 X35.9843 Y18.6511
G01 X35.9697 Y18.6395
G01 X35.9560 Y18.6268
G01 X35.1124 Y17.7832
G01 X35.0844 Y17.7535
G01 X35.0571 Y17.7226
G01 X34.9933 Y17.6720
G01 X34.9401 Y17.6278
G01 X34.9302 Y17.6215
G01 X34.9206 Y17.6148
G01 X34.8594 Y17.5825
G01 X34.7876 Y17.5426
G01 X34.7767 Y17.5382
G01 X34.7660 Y17.5333
G01 X34.6876 Y17.5087
G01 X34.6221 Y17.4865
G01 X34.6106 Y17.4842
G01 X34.5992 Y17.4814
G01 X34.5306 Y17.4732
G01 X34.4500 Y17.4617
G01 X34.3939 Y17.4639
G01 X34.3645 Y17.4645
G01 X30.5307 Y17.4645
G01 X30.5128 Y17.4639
G01 X30.5010 Y17.4627
G01 X30.3545 Y17.4417
G01 X30.3370 Y17.4386
G01 X30.3254 Y17.4358
G01 X30.3083 Y17.4305
G01 X30.2917 Y17.4241
G01 X30.1570 Y17.3627
G01 X30.1411 Y17.3547
G01 X30.1308 Y17.3488
G01 X30.1208 Y17.3423
G01 X30.1111 Y17.3354
G01 X30.0972 Y17.3242
G01 X29.9898 Y17.2312
G01 X29.9768 Y17.2191
G01 X29.9686 Y17.2104
G01 X29.9608 Y17.2014
G01 X29.9534 Y17.1921
G01 X29.9432 Y17.1774
G01 X29.8633 Y17.0529
G01 X29.8546 Y17.0373
G01 X29.8494 Y17.0266
G01 X29.8425 Y17.0102
G01 X29.8386 Y16.9989
G01 X29.7953 Y16.8512
G01 X29.7925 Y16.8397
G01 X29.7902 Y16.8280
G01 X29.7885 Y16.8162
G01 X29.7874 Y16.8043
G01 X29.7868 Y16.7865
G01 X29.7868 Y16.6445
G01 X29.7874 Y16.6267
G01 X29.7893 Y16.6089
G01 X29.7925 Y16.5913
G01 X29.7953 Y16.5798
G01 X29.8369 Y16.4378
G01 X29.8425 Y16.4208
G01 X29.8494 Y16.4044
G01 X29.8574 Y16.3884
G01 X29.8633 Y16.3781
G01 X29.9432 Y16.2536
G01 X29.9502 Y16.2433
G01 X29.9615 Y16.2287
G01 X29.9739 Y16.2149
G01 X29.9872 Y16.2021
G01 X30.1083 Y16.0994
G01 X30.1182 Y16.0913
G01 X30.1286 Y16.0838
G01 X30.1393 Y16.0769
G01 X30.1637 Y16.0620
G01 X30.1794 Y16.0536
G01 X30.1892 Y16.0471
G01 X30.1993 Y16.0411
G01 X30.2537 Y15.9982
G01 X30.3187 Y15.9494
G01 X30.3569 Y15.9082
G01 X30.3772 Y15.8870
G01 X31.5818 Y14.6824
G01 X31.6115 Y14.6544
G01 X31.6424 Y14.6271
G01 X31.6930 Y14.5633
G01 X31.7372 Y14.5101
G01 X31.7435 Y14.5002
G01 X31.7502 Y14.4906
G01 X31.7824 Y14.4294
G01 X31.8224 Y14.3576
G01 X31.8268 Y14.3467
G01 X31.8317 Y14.3360
G01 X31.8563 Y14.2576
G01 X31.8785 Y14.1921
G01 X31.8808 Y14.1806
G01 X31.8836 Y14.1692
G01 X31.8918 Y14.1006
G01 X31.9033 Y14.0200
G01 X31.9011 Y13.9639
G01 X31.9005 Y13.9394
G01 X31.9006 Y13.8773
G01 X31.9016 Y13.8594
G01 X31.9030 Y13.8476
G01 X31.9242 Y13.7012
G01 X31.9264 Y13.6895
G01 X31.9292 Y13.6779
G01 X31.9345 Y13.6609
G01 X31.9386 Y13.6497
G01 X31.9433 Y13.6388
G01 X32.0023 Y13.5096
G01 X32.0103 Y13.4936
G01 X32.0194 Y13.4783
G01 X32.0296 Y13.4636
G01 X32.0408 Y13.4497
G01 X32.1377 Y13.3379
G01 X32.1459 Y13.3293
G01 X32.1590 Y13.3172
G01 X32.1729 Y13.3060
G01 X32.1826 Y13.2991
G01 X32.3070 Y13.2190
G01 X32.3172 Y13.2128
G01 X32.3277 Y13.2071
G01 X32.3438 Y13.1995
G01 X32.3604 Y13.1931
G01 X32.3718 Y13.1894
G01 X32.5138 Y13.1478
G01 X32.5312 Y13.1438
G01 X32.5429 Y13.1418
G01 X32.5547 Y13.1404
G01 X32.5725 Y13.1394
G01 X32.7264 Y13.1394
G01 X32.7382 Y13.1399
G01 X32.7499 Y13.1410
G01 X32.7615 Y13.1427
G01 X32.7731 Y13.1449
G01 X32.7902 Y13.1492
G01 X32.9238 Y13.1880
G01 X32.9349 Y13.1915
G01 X32.9458 Y13.1955
G01 X32.9565 Y13.2000
G01 X32.9756 Y13.2095
G01 X33.1695 Y13.2782
G01 X33.3719 Y13.3142
G01 X33.5775 Y13.3167
G01 X33.7808 Y13.2856
G01 X33.9763 Y13.2218
G01 X34.1587 Y13.1268
G01 X34.3231 Y13.0033
G01 X34.4652 Y12.8547
G01 X34.5810 Y12.6848
G01 X34.6676 Y12.4983
G01 X34.7226 Y12.3001
G01 X34.7444 Y12.0957
G01 X34.7326 Y11.8904
G01 X34.6874 Y11.6898
G01 X34.6100 Y11.4992
G01 X34.5478 Y11.3976
G01 X34.5421 Y11.3872
G01 X34.5345 Y11.3711
G01 X34.4782 Y11.2406
G01 X34.4736 Y11.2290
G01 X34.4695 Y11.2172
G01 X34.4660 Y11.2052
G01 X34.4632 Y11.1931
G01 X34.4609 Y11.1808
G01 X34.4427 Y11.0443
G01 X34.4413 Y11.0312
G01 X34.4406 Y11.0180
G01 X34.4405 Y10.0525
G01 X34.4408 Y10.0406
G01 X34.4423 Y10.0228
G01 X34.4642 Y9.8704
G01 X34.4664 Y9.8587
G01 X34.4708 Y9.8415
G01 X34.4765 Y9.8245
G01 X34.4809 Y9.8135
G01 X34.5448 Y9.6735
G01 X34.5532 Y9.6577
G01 X34.5594 Y9.6475
G01 X34.5696 Y9.6329
G01 X34.5769 Y9.6235
G01 X34.6738 Y9.5116
G01 X34.6859 Y9.4986
G01 X34.6946 Y9.4904
G01 X34.7082 Y9.4788
G01 X34.7226 Y9.4683
G01 X34.8521 Y9.3851
G01 X34.8624 Y9.3791
G01 X34.8730 Y9.3737
G01 X34.8893 Y9.3665
G01 X34.9004 Y9.3623
G01 X34.9118 Y9.3587
G01 X35.0481 Y9.3187
G01 X35.0595 Y9.3156
G01 X35.0770 Y9.3120
G01 X35.0947 Y9.3097
G01 X35.1125 Y9.3086
G01 X35.2300 Y9.3086
G01 X35.2300 Y8.4844
G01 X35.2183 Y8.4711
G01 X35.2108 Y8.4614
G01 X35.1640 Y8.3984
G01 X35.1570 Y8.3883
G01 X35.1504 Y8.3780
G01 X35.1100 Y8.3106
G01 X35.1040 Y8.3000
G01 X35.0985 Y8.2890
G01 X35.0649 Y8.2180
G01 X35.0599 Y8.2068
G01 X35.0555 Y8.1954
G01 X35.0291 Y8.1215
G01 X35.0252 Y8.1098
G01 X35.0219 Y8.0980
G01 X35.0029 Y8.0218
G01 X35.0002 Y8.0098
G01 X34.9981 Y7.9978
G01 X34.9866 Y7.9201
G01 X34.9845 Y7.9018
G01 X34.9803 Y7.8173
G01 X34.9800 Y7.8050
G01 X34.9801 Y6.1989
G01 X34.9842 Y6.1143
G01 X34.9851 Y6.1021
G01 X34.9866 Y6.0899
G01 X34.9981 Y6.0122
G01 X35.0002 Y6.0002
G01 X35.0029 Y5.9882
G01 X35.0219 Y5.9120
G01 X35.0252 Y5.9002
G01 X35.0291 Y5.8885
G01 X35.0555 Y5.8146
G01 X35.0599 Y5.8032
G01 X35.0649 Y5.7920
G01 X35.0985 Y5.7210
G01 X35.1040 Y5.7100
G01 X35.1100 Y5.6994
G01 X35.1504 Y5.6320
G01 X35.1570 Y5.6217
G01 X35.1640 Y5.6116
G01 X35.2108 Y5.5486
G01 X35.2183 Y5.5389
G01 X35.2264 Y5.5296
G01 X35.2791 Y5.4714
G01 X35.2875 Y5.4625
G01 X35.2964 Y5.4541
G01 X35.3546 Y5.4014
G01 X35.3639 Y5.3933
G01 X35.3736 Y5.3858
G01 X35.4366 Y5.3390
G01 X35.4467 Y5.3320
G01 X35.4570 Y5.3254
G01 X35.5244 Y5.2850
G01 X35.5350 Y5.2790
G01 X35.5460 Y5.2735
G01 X35.6170 Y5.2399
G01 X35.6282 Y5.2349
G01 X35.6396 Y5.2305
G01 X35.7135 Y5.2041
G01 X35.7252 Y5.2002
G01 X35.7370 Y5.1969
G01 X35.8132 Y5.1779
G01 X35.8252 Y5.1752
G01 X35.8372 Y5.1731
G01 X35.9149 Y5.1616
G01 X35.9271 Y5.1601
G01 X35.9393 Y5.1592
G01 X36.0177 Y5.1553
G01 X36.0300 Y5.1550
G01 X36.0423 Y5.1553
G01 X36.1207 Y5.1592
G01 X36.1329 Y5.1601
G01 X36.1451 Y5.1616
G01 X36.2228 Y5.1731
G01 X36.2348 Y5.1752
G01 X36.2468 Y5.1779
G01 X36.3230 Y5.1969
G01 X36.3348 Y5.2002
G01 X36.3465 Y5.2041
G01 X36.4204 Y5.2305
G01 X36.4318 Y5.2349
G01 X36.4430 Y5.2399
G01 X36.5140 Y5.2735
G01 X36.5250 Y5.2790
G01 X36.5356 Y5.2850
G01 X36.6030 Y5.3254
G01 X36.6133 Y5.3320
G01 X36.6234 Y5.3390
G01 X36.6864 Y5.3858
G01 X36.6961 Y5.3933
G01 X36.7054 Y5.4014
G01 X36.7636 Y5.4541
G01 X36.7725 Y5.4625
G01 X36.7809 Y5.4714
G01 X36.8336 Y5.5296
G01 X36.8417 Y5.5389
G01 X36.8492 Y5.5486
G01 X36.8960 Y5.6116
G01 X36.9030 Y5.6217
G01 X36.9096 Y5.6320
G01 X36.9500 Y5.6994
G01 X36.9560 Y5.7100
G01 X36.9615 Y5.7210
G01 X36.9951 Y5.7920
G01 X37.0001 Y5.8032
G01 X37.0045 Y5.8146
G01 X37.0309 Y5.8885
G01 X37.0348 Y5.9002
G01 X37.0381 Y5.9120
G01 X37.0571 Y5.9882
G01 X37.0598 Y6.0002
G01 X37.0619 Y6.0122
G01 X37.0734 Y6.0899
G01 X37.0749 Y6.1021
G01 X37.0758 Y6.1143
G01 X37.0797 Y6.1927
G01 X37.0800 Y6.2050
G01 X37.6800 Y6.2050
G01 X37.6800 Y6.1485
G01 X37.6797 Y6.1395
G01 X37.6677 Y5.9751
G01 X37.6652 Y5.9574
G01 X37.6174 Y5.7411
G01 X37.6123 Y5.7239
G01 X37.5729 Y5.6199
G01 X37.5689 Y5.6086
G01 X37.5655 Y5.5972
G01 X37.5626 Y5.5857
G01 X37.5317 Y5.4471
G01 X37.5294 Y5.4354
G01 X37.5277 Y5.4236
G01 X37.5265 Y5.4118
G01 X37.5258 Y5.3999
G01 X37.5260 Y5.3821
G01 X37.5357 Y5.2344
G01 X37.5368 Y5.2225
G01 X37.5384 Y5.2108
G01 X37.5406 Y5.1991
G01 X37.5449 Y5.1818
G01 X37.5504 Y5.1648
G01 X37.6015 Y5.0259
G01 X37.6086 Y5.0095
G01 X37.6169 Y4.9937
G01 X37.6231 Y4.9835
G01 X37.6332 Y4.9688
G01 X37.7177 Y4.8547
G01 X37.7250 Y4.8453
G01 X37.7328 Y4.8363
G01 X37.7452 Y4.8234
G01 X37.7539 Y4.8154
G01 X37.7678 Y4.8041
G01 X37.8810 Y4.7184
G01 X37.8907 Y4.7115
G01 X37.9007 Y4.7050
G01 X37.9162 Y4.6962
G01 X37.9268 Y4.6909
G01 X37.9433 Y4.6840
G01 X38.0820 Y4.6315
G01 X38.0941 Y4.6276
G01 X38.1063 Y4.6244
G01 X38.1248 Y4.6207
G01 X38.1373 Y4.6190
G01 X38.2459 Y4.6070
G01 X38.2596 Y4.6059
G01 X38.2733 Y4.6055
G01 X45.0914 Y4.6056
G01 X45.1033 Y4.6061
G01 X45.1211 Y4.6080
G01 X45.2675 Y4.6292
G01 X45.2792 Y4.6314
G01 X45.2965 Y4.6358
G01 X45.3079 Y4.6395
G01 X45.3245 Y4.6459
G01 X45.4645 Y4.7098
G01 X45.4751 Y4.7153
G01 X45.4904 Y4.7244
G01 X45.5003 Y4.7311
G01 X45.5145 Y4.7419
G01 X45.6263 Y4.8388
G01 X45.6351 Y4.8468
G01 X45.6476 Y4.8596
G01 X45.6591 Y4.8732
G01 X45.6697 Y4.8876
G01 X45.7529 Y5.0171
G01 X45.7616 Y5.0327
G01 X45.7668 Y5.0434
G01 X45.7715 Y5.0543
G01 X45.7757 Y5.0654
G01 X45.7793 Y5.0768
G01 X45.8193 Y5.2131
G01 X45.8237 Y5.2303
G01 X45.8260 Y5.2420
G01 X45.8283 Y5.2597
G01 X45.8339 Y5.3367
G01 X45.8344 Y5.3486
G01 X45.8345 Y15.7035
G01 X45.8339 Y15.7213
G01 X45.8327 Y15.7332
G01 X45.8117 Y15.8796
G01 X45.8097 Y15.8918
G01 X45.8071 Y15.9038
G01 X45.8038 Y15.9156
G01 X45.8000 Y15.9273
G01 X45.7932 Y15.9445
G01 X45.7395 Y16.0667
G01 X45.7338 Y16.0781
G01 X45.7275 Y16.0892
G01 X45.7171 Y16.1065
G01 X45.7094 Y16.1177
G01 X45.6183 Y16.3021
G01 X45.5585 Y16.4988
G01 X45.5308 Y16.7099
G01 X45.5296 Y16.7568
G01 X45.5471 Y16.9689
G01 X45.5971 Y17.1684
G01 X45.6791 Y17.3570
G01 X45.7175 Y17.4165
G01 X45.7263 Y17.4320
G01 X45.7316 Y17.4427
G01 X45.7910 Y17.5717
G01 X45.7979 Y17.5882
G01 X45.8018 Y17.5995
G01 X45.8052 Y17.6110
G01 X45.8080 Y17.6226
G01 X45.8103 Y17.6344
G01 X45.8319 Y17.7823
G01 X45.8333 Y17.7942
G01 X45.8342 Y17.8062
G01 X45.8345 Y17.8183
G01 X45.8345 Y19.9886
G01 X45.8339 Y20.0065
G01 X45.8320 Y20.0242
G01 X45.8117 Y20.1648
G01 X45.8086 Y20.1823
G01 X45.8042 Y20.1996
G01 X45.7985 Y20.2166
G01 X45.7941 Y20.2276
G01 X45.7327 Y20.3623
G01 X45.7247 Y20.3782
G01 X45.7156 Y20.3936
G01 X45.7054 Y20.4082
G01 X45.6942 Y20.4221
G01 X45.5973 Y20.5339
G01 X45.5848 Y20.5467
G01 X45.5760 Y20.5547
G01 X45.5621 Y20.5659
G01 X45.5474 Y20.5761
G01 X45.4229 Y20.6560
G01 X45.4126 Y20.6619
G01 X45.3966 Y20.6699
G01 X45.3802 Y20.6768
G01 X45.3632 Y20.6824
G01 X45.2269 Y20.7224
G01 X45.2155 Y20.7255
G01 X45.1980 Y20.7291
G01 X45.1803 Y20.7314
G01 X45.1625 Y20.7325
G01 X45.0081 Y20.7325
G01 X44.9890 Y20.7312
G01 X44.9700 Y20.7286
G01 X44.9575 Y20.7260
G01 X44.8911 Y20.7105
G01 X44.8409 Y20.6981
G01 X44.6190 Y20.6596
G01 X44.6039 Y20.6579
G01 X44.5489 Y20.6552
G01 X44.4500 Y20.6550
G01 X44.4500 Y21.2550
G01 X44.4623 Y21.2553
G01 X44.5407 Y21.2592
G01 X44.5529 Y21.2601
G01 X44.5651 Y21.2616
G01 X44.6428 Y21.2731
G01 X44.6548 Y21.2752
G01 X44.6668 Y21.2779
G01 X44.7430 Y21.2969
G01 X44.7548 Y21.3002
G01 X44.7665 Y21.3041
G01 X44.8404 Y21.3305
G01 X44.8518 Y21.3349
G01 X44.8630 Y21.3399
G01 X44.9340 Y21.3735
G01 X44.9450 Y21.3790
G01 X44.9556 Y21.3850
G01 X45.0230 Y21.4254
G01 X45.0333 Y21.4320
G01 X45.0434 Y21.4390
G01 X45.1064 Y21.4858
G01 X45.1161 Y21.4933
G01 X45.1254 Y21.5014
G01 X45.1836 Y21.5541
G01 X45.1925 Y21.5625
G01 X45.2009 Y21.5714
G01 X45.2536 Y21.6296
G01 X45.2617 Y21.6389
G01 X45.2692 Y21.6486
G01 X45.3160 Y21.7116
G01 X45.3230 Y21.7217
G01 X45.3296 Y21.7320
G01 X45.3700 Y21.7994
G01 X45.3760 Y21.8100
G01 X45.3815 Y21.8210
G01 X45.4151 Y21.8920
G01 X45.4201 Y21.9032
G01 X45.4245 Y21.9146
G01 X45.4509 Y21.9885
G01 X45.4548 Y22.0002
G01 X45.4581 Y22.0120
G01 X45.4771 Y22.0882
G01 X45.4798 Y22.1002
G01 X45.4819 Y22.1122
G01 X45.4934 Y22.1899
G01 X45.4949 Y22.2021
G01 X45.4958 Y22.2143
G01 X45.4997 Y22.2927
G01 X45.5000 Y22.3050
G01 X45.4997 Y22.3173
G01 X45.4958 Y22.3957
G01 X45.4949 Y22.4079
G01 X45.4934 Y22.4201
G01 X45.4819 Y22.4978
G01 X45.4798 Y22.5098
G01 X45.4771 Y22.5218
G01 X45.4581 Y22.5980
G01 X45.4548 Y22.6098
G01 X45.4509 Y22.6215
G01 X45.4245 Y22.6954
G01 X45.4201 Y22.7068
G01 X45.4151 Y22.7180
G01 X45.3815 Y22.7890
G01 X45.3760 Y22.8000
G01 X45.3700 Y22.8106
G01 X45.3296 Y22.8780
G01 X45.3230 Y22.8883
G01 X45.3160 Y22.8984
G01 X45.2692 Y22.9614
G01 X45.2617 Y22.9711
G01 X45.2536 Y22.9804
G01 X45.2009 Y23.0386
G01 X45.1925 Y23.0475
G01 X45.1836 Y23.0559
G01 X45.1254 Y23.1086
G01 X45.1161 Y23.1167
G01 X45.1064 Y23.1242
G01 X45.0434 Y23.1710
G01 X45.0333 Y23.1780
G01 X45.0230 Y23.1846
G01 X44.9556 Y23.2250
G01 X44.9450 Y23.2310
G01 X44.9340 Y23.2365
G01 X44.8630 Y23.2701
G01 X44.8518 Y23.2751
G01 X44.8404 Y23.2795
G01 X44.7665 Y23.3059
G01 X44.7548 Y23.3098
G01 X44.7430 Y23.3131
