(G-CODE GENERATED BY FLATCAM v8.994 - www.flatcam.org - Version Date: 2020/11/7)

(Name: hub_exterior.drl_cnc)
(Type: G-code from Geometry)
(Units: MM)

(Created on Wednesday, 24 August 2022 at 12:06)

(This preprocessor is the default preprocessor used by FlatCAM.)
(It is made to work with MACH3 compatible motion controllers.)


(TOOLS DIAMETER: )
(Tool: 1 -> Dia: 0.8)
(Tool: 2 -> Dia: 0.8)
(Tool: 3 -> Dia: 0.8)
(Tool: 4 -> Dia: 0.8)

(FEEDRATE Z: )
(Tool: 1 -> Feedrate: 400.0)
(Tool: 2 -> Feedrate: 400.0)
(Tool: 3 -> Feedrate: 400.0)
(Tool: 4 -> Feedrate: 400.0)

(FEEDRATE RAPIDS: )
(Tool: 1 -> Feedrate Rapids: 1500)
(Tool: 2 -> Feedrate Rapids: 1500)
(Tool: 3 -> Feedrate Rapids: 1500)
(Tool: 4 -> Feedrate Rapids: 1500)

(Z_CUT: )
(Tool: 1 -> Z_Cut: -3.000000000000001)
(Tool: 2 -> Z_Cut: -3.000000000000001)
(Tool: 3 -> Z_Cut: -3.000000000000001)
(Tool: 4 -> Z_Cut: -3.000000000000001)

(Tools Offset: )
(Tool: 4 -> Offset Z: 0.0)

(Z_MOVE: )
(Tool: 1 -> Z_Move: 5.0)
(Tool: 2 -> Z_Move: 5.0)
(Tool: 3 -> Z_Move: 5.0)
(Tool: 4 -> Z_Move: 5.0)

(Z Toolchange: 15 mm)
(X,Y Toolchange: 0.0000, 0.0000 mm)
(Z Start: None mm)
(Z End: 0.5 mm)
(X,Y End: None mm)
(Steps per circle: 64)
(Preprocessor Excellon: default)

(X range:    2.8150 ...   47.9450  mm)
(Y range:    1.5250 ...   47.3900  mm)

(Spindle Speed: 0 RPM)
G21
G90
G94

G01 F400.00

M5
G00 Z15.0000
T1
G00 X0.0000 Y0.0000                
M6
(MSG, Change to Tool Dia = 0.8000 ||| Total drills for tool T1 = 59)
M0
G00 Z15.0000

G01 F400.00
M03
G00 X37.3000 Y30.1620
G01 Z-3.0000
G01 Z0
G00 Z5.0000
G00 X37.3000 Y30.1620
G01 Z-3.0000
G01 Z0
G00 Z5.0000
G00 X33.4900 Y27.3050
G01 Z-3.0000
G01 Z0
G00 Z5.0000
G00 X33.4900 Y27.3050
G01 Z-3.0000
G01 Z0
G00 Z5.0000
G00 X30.9500 Y27.3250
G01 Z-3.0000
G01 Z0
G00 Z5.0000
G00 X30.9500 Y27.3250
G01 Z-3.0000
G01 Z0
G00 Z5.0000
G00 X27.7750 Y27.9400
G01 Z-3.0000
G01 Z0
G00 Z5.0000
G00 X27.7750 Y27.9400
G01 Z-3.0000
G01 Z0
G00 Z5.0000
G00 X27.7750 Y30.1620
G01 Z-3.0000
G01 Z0
G00 Z5.0000
G00 X27.7750 Y30.1620
G01 Z-3.0000
G01 Z0
G00 Z5.0000
G00 X27.7750 Y32.3850
G01 Z-3.0000
G01 Z0
G00 Z5.0000
G00 X27.7750 Y32.3850
G01 Z-3.0000
G01 Z0
G00 Z5.0000
G00 X27.7750 Y35.5600
G01 Z-3.0000
G01 Z0
G00 Z5.0000
G00 X27.7750 Y35.5600
G01 Z-3.0000
G01 Z0
G00 Z5.0000
G00 X29.6800 Y37.5920
G01 Z-3.0000
G01 Z0
G00 Z5.0000
G00 X29.6800 Y37.5920
G01 Z-3.0000
G01 Z0
G00 Z5.0000
G00 X32.4230 Y39.3700
G01 Z-3.0000
G01 Z0
G00 Z5.0000
G00 X32.4230 Y39.3700
G01 Z-3.0000
G01 Z0
G00 Z5.0000
G00 X32.4230 Y43.8150
G01 Z-3.0000
G01 Z0
G00 Z5.0000
G00 X32.4230 Y43.8150
G01 Z-3.0000
G01 Z0
G00 Z5.0000
G00 X35.1660 Y43.8150
G01 Z-3.0000
G01 Z0
G00 Z5.0000
G00 X35.1660 Y43.8150
G01 Z-3.0000
G01 Z0
G00 Z5.0000
G00 X42.2020 Y45.0850
G01 Z-3.0000
G01 Z0
G00 Z5.0000
G00 X42.2020 Y45.0850
G01 Z-3.0000
G01 Z0
G00 Z5.0000
G00 X33.7950 Y46.3550
G01 Z-3.0000
G01 Z0
G00 Z5.0000
G00 X33.7950 Y46.3550
G01 Z-3.0000
G01 Z0
G00 Z5.0000
G00 X31.0520 Y46.3550
G01 Z-3.0000
G01 Z0
G00 Z5.0000
G00 X31.0520 Y46.3550
G01 Z-3.0000
G01 Z0
G00 Z5.0000
G00 X29.6800 Y43.8150
G01 Z-3.0000
G01 Z0
G00 Z5.0000
G00 X29.6800 Y43.8150
G01 Z-3.0000
G01 Z0
G00 Z5.0000
G00 X28.3080 Y46.3550
G01 Z-3.0000
G01 Z0
G00 Z5.0000
G00 X28.3080 Y46.3550
G01 Z-3.0000
G01 Z0
G00 Z5.0000
G00 X25.5650 Y46.3550
G01 Z-3.0000
G01 Z0
G00 Z5.0000
G00 X25.5650 Y46.3550
G01 Z-3.0000
G01 Z0
G00 Z5.0000
G00 X24.1940 Y43.8150
G01 Z-3.0000
G01 Z0
G00 Z5.0000
G00 X24.1940 Y43.8150
G01 Z-3.0000
G01 Z0
G00 Z5.0000
G00 X26.9370 Y43.8150
G01 Z-3.0000
G01 Z0
G00 Z5.0000
G00 X26.9370 Y43.8150
G01 Z-3.0000
G01 Z0
G00 Z5.0000
G00 X26.4450 Y40.6400
G01 Z-3.0000
G01 Z0
G00 Z5.0000
G00 X26.4450 Y40.6400
G01 Z-3.0000
G01 Z0
G00 Z5.0000
G00 X21.4450 Y40.6400
G01 Z-3.0000
G01 Z0
G00 Z5.0000
G00 X21.4450 Y40.6400
G01 Z-3.0000
G01 Z0
G00 Z5.0000
G00 X20.1550 Y35.5600
G01 Z-3.0000
G01 Z0
G00 Z5.0000
G00 X20.1550 Y35.5600
G01 Z-3.0000
G01 Z0
G00 Z5.0000
G00 X20.1550 Y32.3850
G01 Z-3.0000
G01 Z0
G00 Z5.0000
G00 X20.1550 Y32.3850
G01 Z-3.0000
G01 Z0
G00 Z5.0000
G00 X15.7100 Y35.5600
G01 Z-3.0000
G01 Z0
G00 Z5.0000
G00 X15.7100 Y35.5600
G01 Z-3.0000
G01 Z0
G00 Z5.0000
G00 X15.7100 Y39.3700
G01 Z-3.0000
G01 Z0
G00 Z5.0000
G00 X15.7100 Y39.3700
G01 Z-3.0000
G01 Z0
G00 Z5.0000
G00 X17.1580 Y45.0850
G01 Z-3.0000
G01 Z0
G00 Z5.0000
G00 X17.1580 Y45.0850
G01 Z-3.0000
G01 Z0
G00 Z5.0000
G00 X12.4550 Y41.9900
G01 Z-3.0000
G01 Z0
G00 Z5.0000
G00 X12.4550 Y41.9900
G01 Z-3.0000
G01 Z0
G00 Z5.0000
G00 X9.9550 Y41.9900
G01 Z-3.0000
G01 Z0
G00 Z5.0000
G00 X9.9550 Y41.9900
G01 Z-3.0000
G01 Z0
G00 Z5.0000
G00 X7.4550 Y46.9900
G01 Z-3.0000
G01 Z0
G00 Z5.0000
G00 X7.4550 Y46.9900
G01 Z-3.0000
G01 Z0
G00 Z5.0000
G00 X4.9550 Y41.9900
G01 Z-3.0000
G01 Z0
G00 Z5.0000
G00 X4.9550 Y41.9900
G01 Z-3.0000
G01 Z0
G00 Z5.0000
G00 X2.4550 Y41.9900
G01 Z-3.0000
G01 Z0
G00 Z5.0000
G00 X2.4550 Y41.9900
G01 Z-3.0000
G01 Z0
G00 Z5.0000
G00 X7.4550 Y37.5920
G01 Z-3.0000
G01 Z0
G00 Z5.0000
G00 X7.4550 Y37.5920
G01 Z-3.0000
G01 Z0
G00 Z5.0000
G00 X6.8200 Y33.5900
G01 Z-3.0000
G01 Z0
G00 Z5.0000
G00 X6.8200 Y33.5900
G01 Z-3.0000
G01 Z0
G00 Z5.0000
G00 X6.8200 Y31.0900
G01 Z-3.0000
G01 Z0
G00 Z5.0000
G00 X6.8200 Y31.0900
G01 Z-3.0000
G01 Z0
G00 Z5.0000
G00 X6.8000 Y27.3050
G01 Z-3.0000
G01 Z0
G00 Z5.0000
G00 X6.8000 Y27.3050
G01 Z-3.0000
G01 Z0
G00 Z5.0000
G00 X6.8000 Y24.7650
G01 Z-3.0000
G01 Z0
G00 Z5.0000
G00 X6.8000 Y24.7650
G01 Z-3.0000
G01 Z0
G00 Z5.0000
G00 X6.8000 Y20.9550
G01 Z-3.0000
G01 Z0
G00 Z5.0000
G00 X6.8000 Y20.9550
G01 Z-3.0000
G01 Z0
G00 Z5.0000
G00 X6.8000 Y18.4150
G01 Z-3.0000
G01 Z0
G00 Z5.0000
G00 X6.8000 Y18.4150
G01 Z-3.0000
G01 Z0
G00 Z5.0000
G00 X6.8400 Y14.6050
G01 Z-3.0000
G01 Z0
G00 Z5.0000
G00 X6.8400 Y14.6050
G01 Z-3.0000
G01 Z0
G00 Z5.0000
G00 X6.8400 Y12.0650
G01 Z-3.0000
G01 Z0
G00 Z5.0000
G00 X6.8400 Y12.0650
G01 Z-3.0000
G01 Z0
G00 Z5.0000
G00 X12.5350 Y17.7800
G01 Z-3.0000
G01 Z0
G00 Z5.0000
G00 X12.5350 Y17.7800
G01 Z-3.0000
G01 Z0
G00 Z5.0000
G00 X12.5350 Y12.0650
G01 Z-3.0000
G01 Z0
G00 Z5.0000
G00 X12.5350 Y12.0650
G01 Z-3.0000
G01 Z0
G00 Z5.0000
G00 X15.7100 Y12.0650
G01 Z-3.0000
G01 Z0
G00 Z5.0000
G00 X15.7100 Y12.0650
G01 Z-3.0000
G01 Z0
G00 Z5.0000
G00 X20.1550 Y12.0650
G01 Z-3.0000
G01 Z0
G00 Z5.0000
G00 X20.1550 Y12.0650
G01 Z-3.0000
G01 Z0
G00 Z5.0000
G00 X20.1550 Y15.2400
G01 Z-3.0000
G01 Z0
G00 Z5.0000
G00 X20.1550 Y15.2400
G01 Z-3.0000
G01 Z0
G00 Z5.0000
G00 X20.1550 Y18.4150
G01 Z-3.0000
G01 Z0
G00 Z5.0000
G00 X20.1550 Y18.4150
G01 Z-3.0000
G01 Z0
G00 Z5.0000
G00 X20.1550 Y21.5900
G01 Z-3.0000
G01 Z0
G00 Z5.0000
G00 X20.1550 Y21.5900
G01 Z-3.0000
G01 Z0
G00 Z5.0000
G00 X20.1550 Y24.7650
G01 Z-3.0000
G01 Z0
G00 Z5.0000
G00 X20.1550 Y24.7650
G01 Z-3.0000
G01 Z0
G00 Z5.0000
G00 X20.1550 Y27.9400
G01 Z-3.0000
G01 Z0
G00 Z5.0000
G00 X20.1550 Y27.9400
G01 Z-3.0000
G01 Z0
G00 Z5.0000
G00 X27.7750 Y24.7650
G01 Z-3.0000
G01 Z0
G00 Z5.0000
G00 X27.7750 Y24.7650
G01 Z-3.0000
G01 Z0
G00 Z5.0000
G00 X27.7750 Y21.5900
G01 Z-3.0000
G01 Z0
G00 Z5.0000
G00 X27.7750 Y21.5900
G01 Z-3.0000
G01 Z0
G00 Z5.0000
G00 X27.7750 Y18.4150
G01 Z-3.0000
G01 Z0
G00 Z5.0000
G00 X27.7750 Y18.4150
G01 Z-3.0000
G01 Z0
G00 Z5.0000
G00 X27.7750 Y15.2400
G01 Z-3.0000
G01 Z0
G00 Z5.0000
G00 X27.7750 Y15.2400
G01 Z-3.0000
G01 Z0
G00 Z5.0000
G00 X27.7750 Y12.0650
G01 Z-3.0000
G01 Z0
G00 Z5.0000
G00 X27.7750 Y12.0650
G01 Z-3.0000
G01 Z0
G00 Z5.0000
G00 X30.9500 Y12.0850
G01 Z-3.0000
G01 Z0
G00 Z5.0000
G00 X30.9500 Y12.0850
G01 Z-3.0000
G01 Z0
G00 Z5.0000
G00 X33.4900 Y12.0650
G01 Z-3.0000
G01 Z0
G00 Z5.0000
G00 X33.4900 Y12.0650
G01 Z-3.0000
G01 Z0
G00 Z5.0000
G00 X30.9500 Y7.0050
G01 Z-3.0000
G01 Z0
G00 Z5.0000
G00 X30.9500 Y7.0050
G01 Z-3.0000
G01 Z0
G00 Z5.0000
G00 X28.4100 Y7.0050
G01 Z-3.0000
G01 Z0
G00 Z5.0000
G00 X28.4100 Y7.0050
G01 Z-3.0000
G01 Z0
G00 Z5.0000
G00 X24.6000 Y6.9850
G01 Z-3.0000
G01 Z0
G00 Z5.0000
G00 X24.6000 Y6.9850
G01 Z-3.0000
G01 Z0
G00 Z5.0000
G00 X20.7900 Y7.0250
G01 Z-3.0000
G01 Z0
G00 Z5.0000
G00 X20.7900 Y7.0250
G01 Z-3.0000
G01 Z0
G00 Z5.0000
G00 X18.2500 Y7.0250
G01 Z-3.0000
G01 Z0
G00 Z5.0000
G00 X18.2500 Y7.0250
G01 Z-3.0000
G01 Z0
G00 Z5.0000
G00 X15.7100 Y7.0250
G01 Z-3.0000
G01 Z0
G00 Z5.0000
G00 X15.7100 Y7.0250
G01 Z-3.0000
G01 Z0
G00 Z5.0000
G00 X13.1700 Y7.0250
G01 Z-3.0000
G01 Z0
G00 Z5.0000
G00 X13.1700 Y7.0250
G01 Z-3.0000
G01 Z0
G00 Z5.0000
G00 X24.6000 Y1.9250
G01 Z-3.0000
G01 Z0
G00 Z5.0000
G00 X24.6000 Y1.9250
G01 Z-3.0000
G01 Z0
G00 Z5.0000
G00 X33.4900 Y7.0050
G01 Z-3.0000
G01 Z0
G00 Z5.0000
G00 X33.4900 Y7.0050
G01 Z-3.0000
G01 Z0
G00 Z5.0000
G00 X36.0300 Y7.0050
G01 Z-3.0000
G01 Z0
G00 Z5.0000
G00 X36.0300 Y7.0050
G01 Z-3.0000
G01 Z0
G00 Z5.0000
G00 X41.7850 Y16.7640
G01 Z-3.0000
G01 Z0
G00 Z5.0000
G00 X41.7850 Y16.7640
G01 Z-3.0000
G01 Z0
G00 Z5.0000
G00 X46.7850 Y16.7640
G01 Z-3.0000
G01 Z0
G00 Z5.0000
G00 X46.7850 Y16.7640
G01 Z-3.0000
G01 Z0
G00 Z5.0000
G00 X43.6500 Y22.3050
G01 Z-3.0000
G01 Z0
G00 Z5.0000
G00 X43.6500 Y22.3050
G01 Z-3.0000
G01 Z0
G00 Z5.0000
G00 X36.0300 Y20.0450
G01 Z-3.0000
G01 Z0
G00 Z5.0000
G00 X36.0300 Y20.0450
G01 Z-3.0000
G01 Z0
G00 Z5.0000
G00 X34.7600 Y21.9500
G01 Z-3.0000
G01 Z0
G00 Z5.0000
G00 X34.7600 Y21.9500
G01 Z-3.0000
G01 Z0
G00 Z5.0000
G00 X37.3000 Y21.9500
G01 Z-3.0000
G01 Z0
G00 Z5.0000
G00 X37.3000 Y21.9500
G01 Z-3.0000
G01 Z0
G00 Z5.0000
G00 X43.6500 Y27.3050
G01 Z-3.0000
G01 Z0
G00 Z5.0000
G00 X43.6500 Y27.3050
G01 Z-3.0000
G01 Z0
G00 Z5.0000
M05
G00 Z0.50


