(G-CODE GENERATED BY FLATCAM v8.994 - www.flatcam.org - Version Date: 2020/11/7)

(Name: hub_interior-B_Cu.gbr_cutout_cnc)
(Type: G-code from Geometry)
(Units: MM)

(Created on Wednesday, 24 August 2022 at 11:53)

(This preprocessor is the default preprocessor used by FlatCAM.)
(It is made to work with MACH3 compatible motion controllers.)

(TOOL DIAMETER: 4.0 mm)
(Feedrate_XY: 400.0 mm/min)
(Feedrate_Z: 60.0 mm/min)
(Feedrate rapids 1500.0 mm/min)

(Z_Cut: -2.0 mm)
(Z_Move: 5.0 mm)
(Z Start: None mm)
(Z End: 15.0 mm)
(X,Y End: None mm)
(Steps per circle: 64)
(Preprocessor Geometry: default)

(X range:   -1.7995 ...   51.7995  mm)
(Y range:   -1.7995 ...   51.7995  mm)

(Spindle Speed: 0.0 RPM)
G21
G90
G94

G01 F400.00

M5
G00 Z15.0000
G00 X0.0000 Y0.0000
T1
M6    
(MSG, Change to Tool Dia = 4.0000)
M0
G00 Z15.0000

M03
G01 F400.00
G00 X22.5000 Y-1.7995
G01 F60.00
G01 Z-2.0000
G01 F400.00
G01 X0.7005 Y-1.7995
G01 X0.4555 Y-1.7875
G01 X0.2128 Y-1.7515
G01 X-0.0252 Y-1.6919
G01 X-0.2562 Y-1.6092
G01 X-0.4780 Y-1.5043
G01 X-0.6884 Y-1.3782
G01 X-0.8855 Y-1.2320
G01 X-1.0673 Y-1.0673
G01 X-1.2320 Y-0.8855
G01 X-1.3782 Y-0.6884
G01 X-1.5043 Y-0.4780
G01 X-1.6092 Y-0.2562
G01 X-1.6919 Y-0.0252
G01 X-1.7515 Y0.2128
G01 X-1.7875 Y0.4555
G01 X-1.7995 Y0.7005
G01 X-1.7995 Y22.5000
G00 Z5.0000
G00 X-1.7995 Y28.5000
G01 F60.00
G01 Z-2.0000
G01 F400.00
G01 X-1.7995 Y49.2995
G01 X-1.7875 Y49.5445
G01 X-1.7515 Y49.7872
G01 X-1.6919 Y50.0252
G01 X-1.6092 Y50.2562
G01 X-1.5043 Y50.4780
G01 X-1.3782 Y50.6884
G01 X-1.2320 Y50.8855
G01 X-1.0673 Y51.0673
G01 X-0.8855 Y51.2320
G01 X-0.6884 Y51.3782
G01 X-0.4780 Y51.5043
G01 X-0.2562 Y51.6092
G01 X-0.0252 Y51.6919
G01 X0.2128 Y51.7515
G01 X0.4555 Y51.7875
G01 X0.7005 Y51.7995
G01 X22.5000 Y51.7995
G00 Z5.0000
G00 X28.5000 Y51.7995
G01 F60.00
G01 Z-2.0000
G01 F400.00
G01 X49.2995 Y51.7995
G01 X49.5445 Y51.7875
G01 X49.7872 Y51.7515
G01 X50.0252 Y51.6919
G01 X50.2562 Y51.6092
G01 X50.4780 Y51.5043
G01 X50.6884 Y51.3782
G01 X50.8855 Y51.2320
G01 X51.0673 Y51.0673
G01 X51.2320 Y50.8855
G01 X51.3782 Y50.6884
G01 X51.5043 Y50.4780
G01 X51.6092 Y50.2562
G01 X51.6919 Y50.0252
G01 X51.7515 Y49.7872
G01 X51.7875 Y49.5445
G01 X51.7995 Y49.2995
G01 X51.7995 Y28.5000
G00 Z5.0000
G00 X51.7995 Y22.5000
G01 F60.00
G01 Z-2.0000
G01 F400.00
G01 X51.7995 Y0.7005
G01 X51.7875 Y0.4555
G01 X51.7515 Y0.2128
G01 X51.6919 Y-0.0252
G01 X51.6092 Y-0.2562
G01 X51.5043 Y-0.4780
G01 X51.3782 Y-0.6884
G01 X51.2320 Y-0.8855
G01 X51.0673 Y-1.0673
G01 X50.8855 Y-1.2320
G01 X50.6884 Y-1.3782
G01 X50.4780 Y-1.5043
G01 X50.2562 Y-1.6092
G01 X50.0252 Y-1.6919
G01 X49.7872 Y-1.7515
G01 X49.5445 Y-1.7875
G01 X49.2995 Y-1.7995
G01 X28.5000 Y-1.7995
G00 Z5.0000
M05
G00 Z5.0000
G00 Z15.00


