(G-CODE GENERATED BY FLATCAM v8.994 - www.flatcam.org - Version Date: 2020/11/7)

(Name: hub_interior-B_Cu.gbr_cutout_cnc)
(Type: G-code from Geometry)
(Units: MM)

(Created on Wednesday, 24 August 2022 at 18:31)

(This preprocessor is the default preprocessor used by FlatCAM.)
(It is made to work with MACH3 compatible motion controllers.)

(TOOL DIAMETER: 4.0 mm)
(Feedrate_XY: 400.0 mm/min)
(Feedrate_Z: 60.0 mm/min)
(Feedrate rapids 1500.0 mm/min)

(Z_Cut: -2.0 mm)
(Z_Move: 5.0 mm)
(Z Start: None mm)
(Z End: 15.0 mm)
(X,Y End: None mm)
(Steps per circle: 64)
(Preprocessor Geometry: default)

(X range:   -1.6995 ...   51.6995  mm)
(Y range:   -1.6995 ...   51.7683  mm)

(Spindle Speed: 0.0 RPM)
G21
G90
G94

G01 F400.00

M5
G00 Z15.0000
G00 X0.0000 Y0.0000
T1
M6    
(MSG, Change to Tool Dia = 4.0000)
M0
G00 Z15.0000

M03
G01 F400.00
G00 X22.5000 Y-1.6995
G01 F60.00
G01 Z-2.0000
G01 F400.00
G01 X0.8005 Y-1.6995
G01 X0.5555 Y-1.6875
G01 X0.3128 Y-1.6515
G01 X0.0748 Y-1.5919
G01 X-0.1562 Y-1.5092
G01 X-0.3780 Y-1.4043
G01 X-0.5884 Y-1.2782
G01 X-0.7855 Y-1.1320
G01 X-0.9673 Y-0.9673
G01 X-1.1320 Y-0.7855
G01 X-1.2782 Y-0.5884
G01 X-1.4043 Y-0.3780
G01 X-1.5092 Y-0.1562
G01 X-1.5919 Y0.0748
G01 X-1.6515 Y0.3128
G01 X-1.6875 Y0.5555
G01 X-1.6995 Y0.8005
G01 X-1.6995 Y22.5344
G00 Z5.0000
G00 X-1.6995 Y28.5344
G01 F60.00
G01 Z-2.0000
G01 F400.00
G01 X-1.6995 Y49.2683
G01 X-1.6875 Y49.5133
G01 X-1.6515 Y49.7560
G01 X-1.5919 Y49.9940
G01 X-1.5092 Y50.2250
G01 X-1.4043 Y50.4467
G01 X-1.2782 Y50.6572
G01 X-1.1320 Y50.8542
G01 X-0.9673 Y51.0360
G01 X-0.7855 Y51.2008
G01 X-0.5884 Y51.3469
G01 X-0.3780 Y51.4731
G01 X-0.1562 Y51.5779
G01 X0.0748 Y51.6606
G01 X0.3128 Y51.7202
G01 X0.5555 Y51.7562
G01 X0.8005 Y51.7683
G01 X22.5000 Y51.7683
G00 Z5.0000
G00 X28.5000 Y51.7683
G01 F60.00
G01 Z-2.0000
G01 F400.00
G01 X49.1995 Y51.7683
G01 X49.4445 Y51.7562
G01 X49.6872 Y51.7202
G01 X49.9252 Y51.6606
G01 X50.1562 Y51.5779
G01 X50.3780 Y51.4731
G01 X50.5884 Y51.3469
G01 X50.7855 Y51.2008
G01 X50.9673 Y51.0360
G01 X51.1320 Y50.8542
G01 X51.2782 Y50.6572
G01 X51.4043 Y50.4467
G01 X51.5092 Y50.2250
G01 X51.5919 Y49.9940
G01 X51.6515 Y49.7560
G01 X51.6875 Y49.5133
G01 X51.6995 Y49.2683
G01 X51.6995 Y28.5344
G00 Z5.0000
G00 X51.6995 Y22.5344
G01 F60.00
G01 Z-2.0000
G01 F400.00
G01 X51.6995 Y0.8005
G01 X51.6875 Y0.5555
G01 X51.6515 Y0.3128
G01 X51.5919 Y0.0748
G01 X51.5092 Y-0.1562
G01 X51.4043 Y-0.3780
G01 X51.2782 Y-0.5884
G01 X51.1320 Y-0.7855
G01 X50.9673 Y-0.9673
G01 X50.7855 Y-1.1320
G01 X50.5884 Y-1.2782
G01 X50.3780 Y-1.4043
G01 X50.1562 Y-1.5092
G01 X49.9252 Y-1.5919
G01 X49.6872 Y-1.6515
G01 X49.4445 Y-1.6875
G01 X49.1995 Y-1.6995
G01 X28.5000 Y-1.6995
G00 Z5.0000
M05
G00 Z5.0000
G00 Z15.00


