(G-CODE GENERATED BY FLATCAM v8.994 - www.flatcam.org - Version Date: 2020/11/7)

(Name: hub_interior.drl_cnc)
(Type: G-code from Geometry)
(Units: MM)

(Created on Wednesday, 24 August 2022 at 18:30)

(This preprocessor is the default preprocessor used by FlatCAM.)
(It is made to work with MACH3 compatible motion controllers.)


(TOOLS DIAMETER: )
(Tool: 1 -> Dia: 0.8)
(Tool: 2 -> Dia: 0.8)
(Tool: 3 -> Dia: 0.8)
(Tool: 4 -> Dia: 0.8)

(FEEDRATE Z: )
(Tool: 1 -> Feedrate: 300.0)
(Tool: 2 -> Feedrate: 300.0)
(Tool: 3 -> Feedrate: 300.0)
(Tool: 4 -> Feedrate: 300.0)

(FEEDRATE RAPIDS: )
(Tool: 1 -> Feedrate Rapids: 1500)
(Tool: 2 -> Feedrate Rapids: 1500)
(Tool: 3 -> Feedrate Rapids: 1500)
(Tool: 4 -> Feedrate Rapids: 1500)

(Z_CUT: )
(Tool: 1 -> Z_Cut: -3.0)
(Tool: 2 -> Z_Cut: -3.0)
(Tool: 3 -> Z_Cut: -3.0)
(Tool: 4 -> Z_Cut: -3.0)

(Tools Offset: )
(Tool: 4 -> Offset Z: 0.0)

(Z_MOVE: )
(Tool: 1 -> Z_Move: 5.0)
(Tool: 2 -> Z_Move: 5.0)
(Tool: 3 -> Z_Move: 5.0)
(Tool: 4 -> Z_Move: 5.0)

(Z Toolchange: 15 mm)
(X,Y Toolchange: 0.0000, 0.0000 mm)
(Z Start: None mm)
(Z End: 0.5 mm)
(X,Y End: None mm)
(Steps per circle: 64)
(Preprocessor Excellon: default)

(X range:    5.1500 ...   45.3200  mm)
(Y range:    7.8550 ...   46.7550  mm)

(Spindle Speed: 0 RPM)
G21
G90
G94

G01 F300.00

M5
G00 Z15.0000
T1
G00 X0.0000 Y0.0000                
M6
(MSG, Change to Tool Dia = 0.8000 ||| Total drills for tool T1 = 45)
M0
G00 Z15.0000

G01 F300.00
M03
G00 X44.9200 Y15.8750
G01 Z-3.0000
G01 Z0
G00 Z5.0000
G00 X44.9200 Y15.8750
G01 Z-3.0000
G01 Z0
G00 Z5.0000
G00 X43.0150 Y8.2750
G01 Z-3.0000
G01 Z0
G00 Z5.0000
G00 X43.0150 Y8.2750
G01 Z-3.0000
G01 Z0
G00 Z5.0000
G00 X40.4750 Y8.2750
G01 Z-3.0000
G01 Z0
G00 Z5.0000
G00 X40.4750 Y8.2750
G01 Z-3.0000
G01 Z0
G00 Z5.0000
G00 X37.9350 Y8.2750
G01 Z-3.0000
G01 Z0
G00 Z5.0000
G00 X37.9350 Y8.2750
G01 Z-3.0000
G01 Z0
G00 Z5.0000
G00 X35.3950 Y8.2750
G01 Z-3.0000
G01 Z0
G00 Z5.0000
G00 X35.3950 Y8.2750
G01 Z-3.0000
G01 Z0
G00 Z5.0000
G00 X27.1550 Y8.2550
G01 Z-3.0000
G01 Z0
G00 Z5.0000
G00 X27.1550 Y8.2550
G01 Z-3.0000
G01 Z0
G00 Z5.0000
G00 X24.6150 Y8.2550
G01 Z-3.0000
G01 Z0
G00 Z5.0000
G00 X24.6150 Y8.2550
G01 Z-3.0000
G01 Z0
G00 Z5.0000
G00 X22.0750 Y8.2550
G01 Z-3.0000
G01 Z0
G00 Z5.0000
G00 X22.0750 Y8.2550
G01 Z-3.0000
G01 Z0
G00 Z5.0000
G00 X13.8050 Y8.2550
G01 Z-3.0000
G01 Z0
G00 Z5.0000
G00 X13.8050 Y8.2550
G01 Z-3.0000
G01 Z0
G00 Z5.0000
G00 X11.2650 Y8.2550
G01 Z-3.0000
G01 Z0
G00 Z5.0000
G00 X11.2650 Y8.2550
G01 Z-3.0000
G01 Z0
G00 Z5.0000
G00 X8.7250 Y8.2550
G01 Z-3.0000
G01 Z0
G00 Z5.0000
G00 X8.7250 Y8.2550
G01 Z-3.0000
G01 Z0
G00 Z5.0000
G00 X6.1850 Y8.2550
G01 Z-3.0000
G01 Z0
G00 Z5.0000
G00 X6.1850 Y8.2550
G01 Z-3.0000
G01 Z0
G00 Z5.0000
G00 X5.5500 Y17.0180
G01 Z-3.0000
G01 Z0
G00 Z5.0000
G00 X5.5500 Y17.0180
G01 Z-3.0000
G01 Z0
G00 Z5.0000
G00 X5.5500 Y19.5580
G01 Z-3.0000
G01 Z0
G00 Z5.0000
G00 X5.5500 Y19.5580
G01 Z-3.0000
G01 Z0
G00 Z5.0000
G00 X5.5500 Y24.8920
G01 Z-3.0000
G01 Z0
G00 Z5.0000
G00 X5.5500 Y24.8920
G01 Z-3.0000
G01 Z0
G00 Z5.0000
G00 X5.5500 Y27.4320
G01 Z-3.0000
G01 Z0
G00 Z5.0000
G00 X5.5500 Y27.4320
G01 Z-3.0000
G01 Z0
G00 Z5.0000
G00 X5.5500 Y32.5120
G01 Z-3.0000
G01 Z0
G00 Z5.0000
G00 X5.5500 Y32.5120
G01 Z-3.0000
G01 Z0
G00 Z5.0000
G00 X5.5500 Y35.0520
G01 Z-3.0000
G01 Z0
G00 Z5.0000
G00 X5.5500 Y35.0520
G01 Z-3.0000
G01 Z0
G00 Z5.0000
G00 X10.6300 Y32.3850
G01 Z-3.0000
G01 Z0
G00 Z5.0000
G00 X10.6300 Y32.3850
G01 Z-3.0000
G01 Z0
G00 Z5.0000
G00 X10.6300 Y26.0350
G01 Z-3.0000
G01 Z0
G00 Z5.0000
G00 X10.6300 Y26.0350
G01 Z-3.0000
G01 Z0
G00 Z5.0000
G00 X10.6300 Y19.6850
G01 Z-3.0000
G01 Z0
G00 Z5.0000
G00 X10.6300 Y19.6850
G01 Z-3.0000
G01 Z0
G00 Z5.0000
G00 X18.2500 Y15.8750
G01 Z-3.0000
G01 Z0
G00 Z5.0000
G00 X18.2500 Y15.8750
G01 Z-3.0000
G01 Z0
G00 Z5.0000
G00 X18.2500 Y19.6850
G01 Z-3.0000
G01 Z0
G00 Z5.0000
G00 X18.2500 Y19.6850
G01 Z-3.0000
G01 Z0
G00 Z5.0000
G00 X22.9480 Y19.6850
G01 Z-3.0000
G01 Z0
G00 Z5.0000
G00 X22.9480 Y19.6850
G01 Z-3.0000
G01 Z0
G00 Z5.0000
G00 X24.9480 Y20.9550
G01 Z-3.0000
G01 Z0
G00 Z5.0000
G00 X24.9480 Y20.9550
G01 Z-3.0000
G01 Z0
G00 Z5.0000
G00 X22.9480 Y22.2250
G01 Z-3.0000
G01 Z0
G00 Z5.0000
G00 X22.9480 Y22.2250
G01 Z-3.0000
G01 Z0
G00 Z5.0000
G00 X25.1080 Y26.0350
G01 Z-3.0000
G01 Z0
G00 Z5.0000
G00 X25.1080 Y26.0350
G01 Z-3.0000
G01 Z0
G00 Z5.0000
G00 X18.2500 Y26.0350
G01 Z-3.0000
G01 Z0
G00 Z5.0000
G00 X18.2500 Y26.0350
G01 Z-3.0000
G01 Z0
G00 Z5.0000
G00 X18.2500 Y32.3850
G01 Z-3.0000
G01 Z0
G00 Z5.0000
G00 X18.2500 Y32.3850
G01 Z-3.0000
G01 Z0
G00 Z5.0000
G00 X18.2100 Y38.1000
G01 Z-3.0000
G01 Z0
G00 Z5.0000
G00 X18.2100 Y38.1000
G01 Z-3.0000
G01 Z0
G00 Z5.0000
G00 X13.2100 Y38.1000
G01 Z-3.0000
G01 Z0
G00 Z5.0000
G00 X13.2100 Y38.1000
G01 Z-3.0000
G01 Z0
G00 Z5.0000
G00 X12.7130 Y45.0850
G01 Z-3.0000
G01 Z0
G00 Z5.0000
G00 X12.7130 Y45.0850
G01 Z-3.0000
G01 Z0
G00 Z5.0000
G00 X19.7490 Y43.8150
G01 Z-3.0000
G01 Z0
G00 Z5.0000
G00 X19.7490 Y43.8150
G01 Z-3.0000
G01 Z0
G00 Z5.0000
G00 X21.1200 Y46.3550
G01 Z-3.0000
G01 Z0
G00 Z5.0000
G00 X21.1200 Y46.3550
G01 Z-3.0000
G01 Z0
G00 Z5.0000
G00 X22.4920 Y43.8150
G01 Z-3.0000
G01 Z0
G00 Z5.0000
G00 X22.4920 Y43.8150
G01 Z-3.0000
G01 Z0
G00 Z5.0000
G00 X23.8630 Y46.3550
G01 Z-3.0000
G01 Z0
G00 Z5.0000
G00 X23.8630 Y46.3550
G01 Z-3.0000
G01 Z0
G00 Z5.0000
G00 X25.2350 Y43.8150
G01 Z-3.0000
G01 Z0
G00 Z5.0000
G00 X25.2350 Y43.8150
G01 Z-3.0000
G01 Z0
G00 Z5.0000
G00 X26.6070 Y46.3550
G01 Z-3.0000
G01 Z0
G00 Z5.0000
G00 X26.6070 Y46.3550
G01 Z-3.0000
G01 Z0
G00 Z5.0000
G00 X27.9780 Y43.8150
G01 Z-3.0000
G01 Z0
G00 Z5.0000
G00 X27.9780 Y43.8150
G01 Z-3.0000
G01 Z0
G00 Z5.0000
G00 X29.3500 Y46.3550
G01 Z-3.0000
G01 Z0
G00 Z5.0000
G00 X29.3500 Y46.3550
G01 Z-3.0000
G01 Z0
G00 Z5.0000
G00 X30.7210 Y43.8150
G01 Z-3.0000
G01 Z0
G00 Z5.0000
G00 X30.7210 Y43.8150
G01 Z-3.0000
G01 Z0
G00 Z5.0000
G00 X37.7570 Y45.0850
G01 Z-3.0000
G01 Z0
G00 Z5.0000
G00 X37.7570 Y45.0850
G01 Z-3.0000
G01 Z0
G00 Z5.0000
G00 X42.3400 Y38.1000
G01 Z-3.0000
G01 Z0
G00 Z5.0000
G00 X42.3400 Y38.1000
G01 Z-3.0000
G01 Z0
G00 Z5.0000
G00 X42.3800 Y32.3850
G01 Z-3.0000
G01 Z0
G00 Z5.0000
G00 X42.3800 Y32.3850
G01 Z-3.0000
G01 Z0
G00 Z5.0000
G00 X37.3400 Y38.1000
G01 Z-3.0000
G01 Z0
G00 Z5.0000
G00 X37.3400 Y38.1000
G01 Z-3.0000
G01 Z0
G00 Z5.0000
G00 X30.3150 Y38.1000
G01 Z-3.0000
G01 Z0
G00 Z5.0000
G00 X30.3150 Y38.1000
G01 Z-3.0000
G01 Z0
G00 Z5.0000
G00 X25.3150 Y38.1000
G01 Z-3.0000
G01 Z0
G00 Z5.0000
G00 X25.3150 Y38.1000
G01 Z-3.0000
G01 Z0
G00 Z5.0000
G00 X26.5050 Y32.3850
G01 Z-3.0000
G01 Z0
G00 Z5.0000
G00 X26.5050 Y32.3850
G01 Z-3.0000
G01 Z0
G00 Z5.0000
G00 X32.7280 Y26.0350
G01 Z-3.0000
G01 Z0
G00 Z5.0000
G00 X32.7280 Y26.0350
G01 Z-3.0000
G01 Z0
G00 Z5.0000
G00 X32.8550 Y22.8600
G01 Z-3.0000
G01 Z0
G00 Z5.0000
G00 X32.8550 Y22.8600
G01 Z-3.0000
G01 Z0
G00 Z5.0000
G00 X38.5700 Y22.8600
G01 Z-3.0000
G01 Z0
G00 Z5.0000
G00 X38.5700 Y22.8600
G01 Z-3.0000
G01 Z0
G00 Z5.0000
M05
G00 Z0.50


