(G-CODE GENERATED BY FLATCAM v8.994 - www.flatcam.org - Version Date: 2020/11/7)

(Name: hub_interior-B_Cu.gbr_iso_combined_cnc)
(Type: G-code from Geometry)
(Units: MM)

(Created on Wednesday, 24 August 2022 at 18:05)

(This preprocessor is the default preprocessor used by FlatCAM.)
(It is made to work with MACH3 compatible motion controllers.)

(TOOL DIAMETER: 0.5 mm)
(Feedrate_XY: 300.0 mm/min)
(Feedrate_Z: 60.0 mm/min)
(Feedrate rapids 1500.0 mm/min)

(Z_Cut: -0.1 mm)
(Z_Move: 5.0 mm)
(Z Start: None mm)
(Z End: 15.0 mm)
(X,Y End: None mm)
(Steps per circle: 64)
(Preprocessor Geometry: default)

(X range:    0.5505 ...   49.4495  mm)
(Y range:    0.5505 ...   49.5183  mm)

(Spindle Speed: 0.0 RPM)
G21
G90
G94

G01 F300.00

M5
G00 Z15.0000
G00 X0.0000 Y0.0000
T1
M6    
(MSG, Change to Tool Dia = 0.5000)
M0
G00 Z15.0000

M03
G01 F300.00
G00 X5.4347 Y6.3688
G01 F60.00
G01 Z-0.1000
G01 F300.00
G01 X5.4347 Y5.0800
G01 X5.4375 Y5.0187
G01 X5.4390 Y5.0004
G01 X5.4480 Y4.9397
G01 X5.4519 Y4.9217
G01 X5.4653 Y4.8681
G01 X5.4709 Y4.8506
G01 X5.4919 Y4.7929
G01 X5.4968 Y4.7817
G01 X5.5205 Y4.7318
G01 X5.5294 Y4.7157
G01 X5.5546 Y4.6736
G01 X5.5612 Y4.6632
G01 X5.5683 Y4.6532
G01 X5.6050 Y4.6040
G01 X5.6131 Y4.5948
G01 X5.6502 Y4.5539
G01 X6.2895 Y3.9145
G01 X6.2984 Y3.9060
G01 X6.3440 Y3.8650
G01 X6.3932 Y3.8283
G01 X6.4032 Y3.8212
G01 X6.4557 Y3.7894
G01 X6.4663 Y3.7833
G01 X6.4773 Y3.7778
G01 X6.5329 Y3.7519
G01 X6.5906 Y3.7309
G01 X6.6022 Y3.7271
G01 X6.6617 Y3.7119
G01 X6.6797 Y3.7080
G01 X6.7343 Y3.6999
G01 X6.7465 Y3.6984
G01 X6.7587 Y3.6975
G01 X6.8200 Y3.6947
G01 X34.7600 Y3.6947
G01 X34.7723 Y3.6951
G01 X34.8335 Y3.6984
G01 X34.8943 Y3.7071
G01 X34.9064 Y3.7092
G01 X34.9660 Y3.7238
G01 X34.9778 Y3.7271
G01 X35.0357 Y3.7474
G01 X35.0527 Y3.7543
G01 X35.1027 Y3.7778
G01 X35.1137 Y3.7833
G01 X35.1243 Y3.7894
G01 X35.1768 Y3.8212
G01 X35.2263 Y3.8575
G01 X35.2360 Y3.8650
G01 X35.2816 Y3.9060
G01 X35.2905 Y3.9145
G01 X35.9255 Y4.5495
G01 X35.9340 Y4.5584
G01 X35.9750 Y4.6040
G01 X36.0117 Y4.6532
G01 X36.0188 Y4.6632
G01 X36.0254 Y4.6736
G01 X36.0567 Y4.7263
G01 X36.0832 Y4.7817
G01 X36.0904 Y4.7986
G01 X36.1091 Y4.8506
G01 X36.1129 Y4.8622
G01 X36.1242 Y4.9058
G01 X36.1308 Y4.9336
G01 X36.1345 Y4.9565
G01 X36.1416 Y5.0065
G01 X36.1425 Y5.0187
G01 X36.1452 Y5.0739
G01 X36.1453 Y6.3888
G01 X36.1563 Y6.3974
G01 X36.1656 Y6.4054
G01 X36.2346 Y6.4680
G01 X36.2435 Y6.4765
G01 X36.2520 Y6.4854
G01 X36.3146 Y6.5544
G01 X36.3226 Y6.5637
G01 X36.3302 Y6.5734
G01 X36.3857 Y6.6483
G01 X36.3928 Y6.6583
G01 X36.3993 Y6.6687
G01 X36.4473 Y6.7486
G01 X36.4533 Y6.7593
G01 X36.4588 Y6.7703
G01 X36.4987 Y6.8546
G01 X36.5037 Y6.8658
G01 X36.5081 Y6.8772
G01 X36.5395 Y6.9650
G01 X36.5433 Y6.9767
G01 X36.5466 Y6.9885
G01 X36.5693 Y7.0789
G01 X36.5719 Y7.0909
G01 X36.5740 Y7.1030
G01 X36.5877 Y7.1952
G01 X36.5892 Y7.2074
G01 X36.5901 Y7.2196
G01 X36.5947 Y7.3127
G01 X36.5950 Y7.3250
G01 X36.5950 Y9.2250
G01 X36.5947 Y9.2373
G01 X36.5901 Y9.3304
G01 X36.5885 Y9.3487
G01 X36.5740 Y9.4470
G01 X36.5719 Y9.4591
G01 X36.5693 Y9.4711
G01 X36.5466 Y9.5615
G01 X36.5433 Y9.5733
G01 X36.5395 Y9.5850
G01 X36.5081 Y9.6728
G01 X36.5037 Y9.6842
G01 X36.4987 Y9.6954
G01 X36.4588 Y9.7797
G01 X36.4533 Y9.7907
G01 X36.4473 Y9.8014
G01 X36.3993 Y9.8813
G01 X36.3928 Y9.8917
G01 X36.3857 Y9.9017
G01 X36.3302 Y9.9766
G01 X36.3226 Y9.9863
G01 X36.3146 Y9.9956
G01 X36.2520 Y10.0646
G01 X36.2435 Y10.0735
G01 X36.2346 Y10.0820
G01 X36.1656 Y10.1446
G01 X36.1563 Y10.1526
G01 X36.1466 Y10.1602
G01 X36.0717 Y10.2157
G01 X36.0617 Y10.2228
G01 X36.0513 Y10.2293
G01 X35.9714 Y10.2773
G01 X35.9607 Y10.2833
G01 X35.9497 Y10.2888
G01 X35.8654 Y10.3287
G01 X35.8542 Y10.3337
G01 X35.8428 Y10.3381
G01 X35.7550 Y10.3695
G01 X35.7433 Y10.3733
G01 X35.7315 Y10.3766
G01 X35.6411 Y10.3993
G01 X35.6291 Y10.4019
G01 X35.6170 Y10.4040
G01 X35.5248 Y10.4177
G01 X35.5126 Y10.4192
G01 X35.5004 Y10.4201
G01 X35.4011 Y10.4249
G01 X35.3827 Y10.4247
G01 X35.2896 Y10.4201
G01 X35.2774 Y10.4192
G01 X35.2652 Y10.4177
G01 X35.1730 Y10.4040
G01 X35.1609 Y10.4019
G01 X35.1489 Y10.3993
G01 X35.0585 Y10.3766
G01 X35.0467 Y10.3733
G01 X35.0350 Y10.3695
G01 X34.9472 Y10.3381
G01 X34.9358 Y10.3337
G01 X34.9246 Y10.3287
G01 X34.8403 Y10.2888
G01 X34.8293 Y10.2833
G01 X34.8186 Y10.2773
G01 X34.7387 Y10.2293
G01 X34.7283 Y10.2228
G01 X34.7183 Y10.2157
G01 X34.6434 Y10.1602
G01 X34.6337 Y10.1526
G01 X34.6244 Y10.1446
G01 X34.5554 Y10.0820
G01 X34.5465 Y10.0735
G01 X34.5380 Y10.0646
G01 X34.4754 Y9.9956
G01 X34.4674 Y9.9863
G01 X34.4598 Y9.9766
G01 X34.4043 Y9.9017
G01 X34.3972 Y9.8917
G01 X34.3907 Y9.8813
G01 X34.3427 Y9.8014
G01 X34.3367 Y9.7907
G01 X34.3312 Y9.7797
G01 X34.2913 Y9.6954
G01 X34.2863 Y9.6842
G01 X34.2819 Y9.6728
G01 X34.2505 Y9.5850
G01 X34.2467 Y9.5733
G01 X34.2434 Y9.5615
G01 X34.2207 Y9.4711
G01 X34.2169 Y9.4531
G01 X34.2023 Y9.3548
G01 X34.2008 Y9.3426
G01 X34.1999 Y9.3304
G01 X34.1953 Y9.2373
G01 X34.1950 Y9.2250
G01 X34.1950 Y7.3250
G01 X34.1953 Y7.3127
G01 X34.1999 Y7.2196
G01 X34.2008 Y7.2074
G01 X34.2023 Y7.1952
G01 X34.2160 Y7.1030
G01 X34.2181 Y7.0909
G01 X34.2207 Y7.0789
G01 X34.2434 Y6.9885
G01 X34.2467 Y6.9767
G01 X34.2505 Y6.9650
G01 X34.2819 Y6.8772
G01 X34.2863 Y6.8658
G01 X34.2913 Y6.8546
G01 X34.3312 Y6.7703
G01 X34.3367 Y6.7593
G01 X34.3427 Y6.7486
G01 X34.3907 Y6.6687
G01 X34.3972 Y6.6583
G01 X34.4043 Y6.6483
G01 X34.4598 Y6.5734
G01 X34.4674 Y6.5637
G01 X34.4754 Y6.5544
G01 X34.5380 Y6.4854
G01 X34.5465 Y6.4765
G01 X34.5554 Y6.4680
G01 X34.6244 Y6.4054
G01 X34.6337 Y6.3974
G01 X34.6447 Y6.3888
G01 X34.6447 Y5.3908
G01 X34.4492 Y5.1953
G01 X25.3653 Y5.1953
G01 X25.3653 Y6.3688
G01 X25.3763 Y6.3774
G01 X25.3856 Y6.3854
G01 X25.4546 Y6.4480
G01 X25.4635 Y6.4565
G01 X25.4720 Y6.4654
G01 X25.5346 Y6.5344
G01 X25.5426 Y6.5437
G01 X25.5502 Y6.5534
G01 X25.6057 Y6.6283
G01 X25.6128 Y6.6383
G01 X25.6193 Y6.6487
G01 X25.6673 Y6.7286
G01 X25.6733 Y6.7393
G01 X25.6788 Y6.7503
G01 X25.7187 Y6.8346
G01 X25.7237 Y6.8458
G01 X25.7281 Y6.8572
G01 X25.7595 Y6.9450
G01 X25.7633 Y6.9567
G01 X25.7666 Y6.9685
G01 X25.7893 Y7.0589
G01 X25.7919 Y7.0709
G01 X25.7940 Y7.0830
G01 X25.8077 Y7.1752
G01 X25.8092 Y7.1874
G01 X25.8101 Y7.1996
G01 X25.8147 Y7.2927
G01 X25.8150 Y7.3050
G01 X25.8150 Y9.2050
G01 X25.8147 Y9.2173
G01 X25.8101 Y9.3104
G01 X25.8092 Y9.3226
G01 X25.8077 Y9.3348
G01 X25.7940 Y9.4270
G01 X25.7919 Y9.4391
G01 X25.7893 Y9.4511
G01 X25.7666 Y9.5415
G01 X25.7633 Y9.5533
G01 X25.7595 Y9.5650
G01 X25.7281 Y9.6528
G01 X25.7237 Y9.6642
G01 X25.7187 Y9.6754
G01 X25.6788 Y9.7597
G01 X25.6733 Y9.7707
G01 X25.6673 Y9.7814
G01 X25.6193 Y9.8613
G01 X25.6128 Y9.8717
G01 X25.6057 Y9.8817
G01 X25.5502 Y9.9566
G01 X25.5426 Y9.9663
G01 X25.5346 Y9.9756
G01 X25.4720 Y10.0446
G01 X25.4635 Y10.0535
G01 X25.4546 Y10.0620
G01 X25.3856 Y10.1246
G01 X25.3763 Y10.1326
G01 X25.3666 Y10.1402
G01 X25.2917 Y10.1957
G01 X25.2817 Y10.2028
G01 X25.2713 Y10.2093
G01 X25.1914 Y10.2573
G01 X25.1807 Y10.2633
G01 X25.1697 Y10.2688
G01 X25.0854 Y10.3087
G01 X25.0742 Y10.3137
G01 X25.0628 Y10.3181
G01 X24.9750 Y10.3495
G01 X24.9633 Y10.3533
G01 X24.9515 Y10.3566
G01 X24.8611 Y10.3793
G01 X24.8491 Y10.3819
G01 X24.8370 Y10.3840
G01 X24.7448 Y10.3977
G01 X24.7326 Y10.3992
G01 X24.7204 Y10.4001
G01 X24.6273 Y10.4047
G01 X24.6150 Y10.4050
G01 X24.6027 Y10.4047
G01 X24.5096 Y10.4001
G01 X24.4974 Y10.3992
G01 X24.4852 Y10.3977
G01 X24.3930 Y10.3840
G01 X24.3809 Y10.3819
G01 X24.3689 Y10.3793
G01 X24.2785 Y10.3566
G01 X24.2667 Y10.3533
G01 X24.2550 Y10.3495
G01 X24.1672 Y10.3181
G01 X24.1558 Y10.3137
G01 X24.1446 Y10.3087
G01 X24.0603 Y10.2688
G01 X24.0493 Y10.2633
G01 X24.0386 Y10.2573
G01 X23.9587 Y10.2093
G01 X23.9483 Y10.2028
G01 X23.9383 Y10.1957
G01 X23.8634 Y10.1402
G01 X23.8537 Y10.1326
G01 X23.8444 Y10.1246
G01 X23.7754 Y10.0620
G01 X23.7665 Y10.0535
G01 X23.7580 Y10.0446
G01 X23.6954 Y9.9756
G01 X23.6874 Y9.9663
G01 X23.6798 Y9.9566
G01 X23.6243 Y9.8817
G01 X23.6172 Y9.8717
G01 X23.6107 Y9.8613
G01 X23.5627 Y9.7814
G01 X23.5567 Y9.7707
G01 X23.5512 Y9.7597
G01 X23.5113 Y9.6754
G01 X23.5063 Y9.6642
G01 X23.5019 Y9.6528
G01 X23.4705 Y9.5650
G01 X23.4667 Y9.5533
G01 X23.4634 Y9.5415
G01 X23.4407 Y9.4511
G01 X23.4381 Y9.4391
G01 X23.4360 Y9.4270
G01 X23.4223 Y9.3348
G01 X23.4208 Y9.3226
G01 X23.4199 Y9.3104
G01 X23.4153 Y9.2173
G01 X23.4150 Y9.2050
G01 X23.4150 Y7.3050
G01 X23.4153 Y7.2927
G01 X23.4199 Y7.1996
G01 X23.4208 Y7.1874
G01 X23.4223 Y7.1752
G01 X23.4360 Y7.0830
G01 X23.4381 Y7.0709
G01 X23.4407 Y7.0589
G01 X23.4634 Y6.9685
G01 X23.4667 Y6.9567
G01 X23.4705 Y6.9450
G01 X23.5019 Y6.8572
G01 X23.5063 Y6.8458
G01 X23.5113 Y6.8346
G01 X23.5512 Y6.7503
G01 X23.5567 Y6.7393
G01 X23.5627 Y6.7286
G01 X23.6107 Y6.6487
G01 X23.6172 Y6.6383
G01 X23.6243 Y6.6283
G01 X23.6798 Y6.5534
G01 X23.6874 Y6.5437
G01 X23.6954 Y6.5344
G01 X23.7580 Y6.4654
G01 X23.7665 Y6.4565
G01 X23.7754 Y6.4480
G01 X23.8444 Y6.3854
G01 X23.8537 Y6.3774
G01 X23.8647 Y6.3688
G01 X23.8647 Y5.1953
G01 X7.1308 Y5.1953
G01 X6.9353 Y5.3908
G01 X6.9353 Y6.3688
G01 X6.9463 Y6.3774
G01 X6.9556 Y6.3854
G01 X7.0246 Y6.4480
G01 X7.0335 Y6.4565
G01 X7.0420 Y6.4654
G01 X7.1046 Y6.5344
G01 X7.1126 Y6.5437
G01 X7.1202 Y6.5534
G01 X7.1757 Y6.6283
G01 X7.1828 Y6.6383
G01 X7.1893 Y6.6487
G01 X7.2373 Y6.7286
G01 X7.2433 Y6.7393
G01 X7.2488 Y6.7503
G01 X7.2887 Y6.8346
G01 X7.2937 Y6.8458
G01 X7.2981 Y6.8572
G01 X7.3295 Y6.9450
G01 X7.3333 Y6.9567
G01 X7.3366 Y6.9685
G01 X7.3593 Y7.0589
G01 X7.3619 Y7.0709
G01 X7.3640 Y7.0830
G01 X7.3785 Y7.1813
G01 X7.3801 Y7.1996
G01 X7.3847 Y7.2927
G01 X7.3850 Y7.3050
G01 X7.3850 Y9.2050
G01 X7.3847 Y9.2173
G01 X7.3801 Y9.3104
G01 X7.3792 Y9.3226
G01 X7.3777 Y9.3348
G01 X7.3640 Y9.4270
G01 X7.3619 Y9.4391
G01 X7.3593 Y9.4511
G01 X7.3366 Y9.5415
G01 X7.3333 Y9.5533
G01 X7.3295 Y9.5650
G01 X7.2981 Y9.6528
G01 X7.2937 Y9.6642
G01 X7.2887 Y9.6754
G01 X7.2488 Y9.7597
G01 X7.2433 Y9.7707
G01 X7.2373 Y9.7814
G01 X7.1893 Y9.8613
G01 X7.1828 Y9.8717
G01 X7.1757 Y9.8817
G01 X7.1202 Y9.9566
G01 X7.1126 Y9.9663
G01 X7.1046 Y9.9756
G01 X7.0420 Y10.0446
G01 X7.0335 Y10.0535
G01 X7.0246 Y10.0620
G01 X6.9556 Y10.1246
G01 X6.9463 Y10.1326
G01 X6.9353 Y10.1412
G01 X6.9353 Y11.1192
G01 X13.4465 Y17.6305
G01 X13.4879 Y17.6758
G01 X13.4960 Y17.6850
G01 X13.5035 Y17.6947
G01 X13.5398 Y17.7442
G01 X13.5716 Y17.7967
G01 X13.5777 Y17.8073
G01 X13.5832 Y17.8183
G01 X13.6091 Y17.8739
G01 X13.6301 Y17.9316
G01 X13.6357 Y17.9491
G01 X13.6491 Y18.0027
G01 X13.6518 Y18.0146
G01 X13.6611 Y18.0753
G01 X13.6626 Y18.0875
G01 X13.6635 Y18.0997
G01 X13.6663 Y18.1610
G01 X13.6663 Y30.5502
G01 X14.7508 Y31.6347
G01 X17.2517 Y31.6347
G01 X17.2762 Y31.6017
G01 X17.2877 Y31.5873
G01 X17.3618 Y31.5055
G01 X17.3750 Y31.4927
G01 X17.4477 Y31.4268
G01 X17.4618 Y31.4149
G01 X17.5455 Y31.3527
G01 X17.5555 Y31.3457
G01 X17.5659 Y31.3391
G01 X17.6501 Y31.2886
G01 X17.6608 Y31.2826
G01 X17.6717 Y31.2771
G01 X17.7660 Y31.2326
G01 X17.7831 Y31.2257
G01 X17.8755 Y31.1927
G01 X17.8871 Y31.1888
G01 X17.8990 Y31.1856
G01 X17.9942 Y31.1617
G01 X18.0061 Y31.1590
G01 X18.0182 Y31.1569
G01 X18.1153 Y31.1425
G01 X18.1275 Y31.1410
G01 X18.1397 Y31.1401
G01 X18.2377 Y31.1353
G01 X18.2500 Y31.1350
G01 X18.2623 Y31.1353
G01 X18.3664 Y31.1405
G01 X18.3847 Y31.1425
G01 X18.4818 Y31.1569
G01 X18.4939 Y31.1590
G01 X18.5058 Y31.1617
G01 X18.6010 Y31.1856
G01 X18.6129 Y31.1888
G01 X18.6245 Y31.1927
G01 X18.7169 Y31.2257
G01 X18.7284 Y31.2302
G01 X18.7396 Y31.2351
G01 X18.8283 Y31.2771
G01 X18.8392 Y31.2826
G01 X18.8499 Y31.2886
G01 X18.9341 Y31.3391
G01 X18.9445 Y31.3457
G01 X18.9545 Y31.3527
G01 X19.0333 Y31.4112
G01 X19.0430 Y31.4187
G01 X19.0523 Y31.4268
G01 X19.1250 Y31.4927
G01 X19.1339 Y31.5011
G01 X19.1423 Y31.5100
G01 X19.2082 Y31.5827
G01 X19.2163 Y31.5920
G01 X19.2238 Y31.6017
G01 X19.2823 Y31.6805
G01 X19.2893 Y31.6905
G01 X19.2959 Y31.7009
G01 X19.3464 Y31.7851
G01 X19.3524 Y31.7958
G01 X19.3579 Y31.8067
G01 X19.3999 Y31.8954
G01 X19.4048 Y31.9066
G01 X19.4093 Y31.9181
G01 X19.4423 Y32.0105
G01 X19.4462 Y32.0221
G01 X19.4494 Y32.0340
G01 X19.4733 Y32.1292
G01 X19.4760 Y32.1411
G01 X19.4781 Y32.1532
G01 X19.4925 Y32.2503
G01 X19.4940 Y32.2625
G01 X19.4949 Y32.2747
G01 X19.4997 Y32.3727
G01 X19.5000 Y32.3850
G01 X19.4997 Y32.3973
G01 X19.4949 Y32.4953
G01 X19.4940 Y32.5075
G01 X19.4925 Y32.5197
G01 X19.4781 Y32.6168
G01 X19.4760 Y32.6289
G01 X19.4733 Y32.6408
G01 X19.4494 Y32.7360
G01 X19.4443 Y32.7537
G01 X19.4093 Y32.8519
G01 X19.4048 Y32.8634
G01 X19.3999 Y32.8746
G01 X19.3579 Y32.9633
G01 X19.3524 Y32.9742
G01 X19.3464 Y32.9849
G01 X19.2959 Y33.0691
G01 X19.2893 Y33.0795
G01 X19.2823 Y33.0895
G01 X19.2238 Y33.1683
G01 X19.2163 Y33.1780
G01 X19.2082 Y33.1873
G01 X19.1423 Y33.2600
G01 X19.1339 Y33.2689
G01 X19.1250 Y33.2773
G01 X19.0523 Y33.3432
G01 X19.0430 Y33.3513
G01 X19.0333 Y33.3588
G01 X18.9603 Y33.4130
G01 X18.9603 Y37.1017
G01 X18.9933 Y37.1262
G01 X19.0077 Y37.1377
G01 X19.0895 Y37.2118
G01 X19.1023 Y37.2250
G01 X19.1682 Y37.2977
G01 X19.1801 Y37.3118
G01 X19.2423 Y37.3955
G01 X19.2493 Y37.4055
G01 X19.2559 Y37.4159
G01 X19.3064 Y37.5001
G01 X19.3124 Y37.5108
G01 X19.3179 Y37.5217
G01 X19.3624 Y37.6160
G01 X19.3693 Y37.6331
G01 X19.4023 Y37.7255
G01 X19.4062 Y37.7371
G01 X19.4094 Y37.7490
G01 X19.4333 Y37.8442
G01 X19.4360 Y37.8561
G01 X19.4381 Y37.8682
G01 X19.4525 Y37.9653
G01 X19.4540 Y37.9775
G01 X19.4549 Y37.9897
G01 X19.4597 Y38.0877
G01 X19.4600 Y38.1000
G01 X19.4597 Y38.1123
G01 X19.4549 Y38.2103
G01 X19.4533 Y38.2286
G01 X19.4381 Y38.3318
G01 X19.4360 Y38.3439
G01 X19.4333 Y38.3558
G01 X19.4094 Y38.4510
G01 X19.4062 Y38.4629
G01 X19.4023 Y38.4745
G01 X19.3693 Y38.5669
G01 X19.3648 Y38.5784
G01 X19.3599 Y38.5896
G01 X19.3179 Y38.6783
G01 X19.3094 Y38.6946
G01 X19.2559 Y38.7841
G01 X19.2493 Y38.7945
G01 X19.2423 Y38.8045
G01 X19.1838 Y38.8833
G01 X19.1723 Y38.8977
G01 X19.1023 Y38.9750
G01 X19.0895 Y38.9882
G01 X19.0077 Y39.0623
G01 X18.9933 Y39.0738
G01 X18.9603 Y39.0983
G01 X18.9602 Y41.3681
G01 X18.9575 Y41.4233
G01 X18.9566 Y41.4355
G01 X18.9479 Y41.4963
G01 X18.9458 Y41.5084
G01 X18.9312 Y41.5680
G01 X18.9279 Y41.5798
G01 X18.9076 Y41.6377
G01 X18.9007 Y41.6547
G01 X18.8745 Y41.7102
G01 X18.8656 Y41.7263
G01 X18.8372 Y41.7737
G01 X18.8267 Y41.7888
G01 X18.7900 Y41.8380
G01 X18.7819 Y41.8472
G01 X18.7448 Y41.8881
G01 X17.7303 Y42.9028
G01 X17.7303 Y45.4092
G01 X17.9258 Y45.6047
G01 X20.1219 Y45.6047
G01 X20.1464 Y45.5717
G01 X20.1579 Y45.5573
G01 X20.2279 Y45.4800
G01 X20.2407 Y45.4668
G01 X20.3179 Y45.3968
G01 X20.3272 Y45.3887
G01 X20.3369 Y45.3812
G01 X20.4157 Y45.3227
G01 X20.4309 Y45.3123
G01 X20.5203 Y45.2586
G01 X20.5310 Y45.2526
G01 X20.5419 Y45.2471
G01 X20.6306 Y45.2051
G01 X20.6418 Y45.2002
G01 X20.6533 Y45.1957
G01 X20.7457 Y45.1627
G01 X20.7573 Y45.1588
G01 X20.7692 Y45.1556
G01 X20.8703 Y45.1303
G01 X20.8884 Y45.1269
G01 X20.9855 Y45.1125
G01 X20.9977 Y45.1110
G01 X21.0099 Y45.1101
G01 X21.1079 Y45.1053
G01 X21.1202 Y45.1050
G01 X21.1325 Y45.1053
G01 X21.2305 Y45.1101
G01 X21.2427 Y45.1110
G01 X21.2549 Y45.1125
G01 X21.3520 Y45.1269
G01 X21.3641 Y45.1290
G01 X21.3760 Y45.1317
G01 X21.4712 Y45.1556
G01 X21.4831 Y45.1588
G01 X21.4947 Y45.1627
G01 X21.5871 Y45.1957
G01 X21.5986 Y45.2002
G01 X21.6098 Y45.2051
G01 X21.6985 Y45.2471
G01 X21.7094 Y45.2526
G01 X21.7201 Y45.2586
G01 X21.8043 Y45.3091
G01 X21.8147 Y45.3157
G01 X21.8247 Y45.3227
G01 X21.9035 Y45.3812
G01 X21.9132 Y45.3887
G01 X21.9225 Y45.3968
G01 X21.9952 Y45.4627
G01 X22.0041 Y45.4711
G01 X22.0125 Y45.4800
G01 X22.0784 Y45.5527
G01 X22.0865 Y45.5620
G01 X22.0940 Y45.5717
G01 X22.1525 Y45.6505
G01 X22.1595 Y45.6605
G01 X22.1661 Y45.6709
G01 X22.2166 Y45.7551
G01 X22.2226 Y45.7658
G01 X22.2281 Y45.7767
G01 X22.2701 Y45.8654
G01 X22.2750 Y45.8766
G01 X22.2795 Y45.8881
G01 X22.3125 Y45.9805
G01 X22.3164 Y45.9921
G01 X22.3196 Y46.0040
G01 X22.3435 Y46.0992
G01 X22.3462 Y46.1111
G01 X22.3483 Y46.1232
G01 X22.3627 Y46.2203
G01 X22.3642 Y46.2325
G01 X22.3651 Y46.2447
G01 X22.3699 Y46.3427
G01 X22.3702 Y46.3550
G01 X22.3699 Y46.3673
G01 X22.3651 Y46.4653
G01 X22.3642 Y46.4775
G01 X22.3627 Y46.4897
G01 X22.3483 Y46.5868
G01 X22.3462 Y46.5989
G01 X22.3435 Y46.6108
G01 X22.3196 Y46.7060
G01 X22.3164 Y46.7179
G01 X22.3125 Y46.7295
G01 X22.2795 Y46.8219
G01 X22.2750 Y46.8334
G01 X22.2701 Y46.8446
G01 X22.2281 Y46.9333
G01 X22.2226 Y46.9442
G01 X22.2166 Y46.9549
G01 X22.1661 Y47.0391
G01 X22.1595 Y47.0495
G01 X22.1525 Y47.0595
G01 X22.0940 Y47.1383
G01 X22.0865 Y47.1480
G01 X22.0784 Y47.1573
G01 X22.0125 Y47.2300
G01 X22.0041 Y47.2389
G01 X21.9952 Y47.2473
G01 X21.9225 Y47.3132
G01 X21.9132 Y47.3213
G01 X21.9035 Y47.3288
G01 X21.8247 Y47.3873
G01 X21.8147 Y47.3943
G01 X21.8043 Y47.4009
G01 X21.7201 Y47.4514
G01 X21.7094 Y47.4574
G01 X21.6985 Y47.4629
G01 X21.6098 Y47.5049
G01 X21.5929 Y47.5121
G01 X21.4947 Y47.5473
G01 X21.4831 Y47.5512
G01 X21.4712 Y47.5544
G01 X21.3760 Y47.5783
G01 X21.3641 Y47.5810
G01 X21.3520 Y47.5831
G01 X21.2549 Y47.5975
G01 X21.2427 Y47.5990
G01 X21.2305 Y47.5999
G01 X21.1325 Y47.6047
G01 X21.1202 Y47.6050
G01 X21.1079 Y47.6047
G01 X21.0099 Y47.5999
G01 X20.9977 Y47.5990
G01 X20.9855 Y47.5975
G01 X20.8884 Y47.5831
G01 X20.8763 Y47.5810
G01 X20.8644 Y47.5783
G01 X20.7632 Y47.5529
G01 X20.7457 Y47.5473
G01 X20.6533 Y47.5143
G01 X20.6418 Y47.5098
G01 X20.6306 Y47.5049
G01 X20.5419 Y47.4629
G01 X20.5310 Y47.4574
G01 X20.5203 Y47.4514
G01 X20.4361 Y47.4009
G01 X20.4207 Y47.3909
G01 X20.3369 Y47.3288
G01 X20.3272 Y47.3213
G01 X20.3179 Y47.3132
G01 X20.2407 Y47.2432
G01 X20.2279 Y47.2300
G01 X20.1579 Y47.1527
G01 X20.1464 Y47.1383
G01 X20.1219 Y47.1053
G01 X17.6150 Y47.1053
G01 X17.5537 Y47.1025
G01 X17.5415 Y47.1016
G01 X17.5293 Y47.1001
G01 X17.4686 Y47.0908
G01 X17.4567 Y47.0881
G01 X17.4031 Y47.0747
G01 X17.3856 Y47.0691
G01 X17.3279 Y47.0481
G01 X17.2723 Y47.0222
G01 X17.2613 Y47.0167
G01 X17.2507 Y47.0106
G01 X17.1982 Y46.9788
G01 X17.1487 Y46.9425
G01 X17.1344 Y46.9310
G01 X17.0889 Y46.8898
G01 X16.4495 Y46.2505
G01 X16.4081 Y46.2052
G01 X16.3962 Y46.1912
G01 X16.3633 Y46.1468
G01 X16.3562 Y46.1368
G01 X16.3496 Y46.1264
G01 X16.3183 Y46.0737
G01 X16.2918 Y46.0183
G01 X16.2846 Y46.0014
G01 X16.2659 Y45.9494
G01 X16.2621 Y45.9378
G01 X16.2588 Y45.9260
G01 X16.2442 Y45.8664
G01 X16.2349 Y45.8057
G01 X16.2334 Y45.7935
G01 X16.2301 Y45.7323
G01 X16.2297 Y45.7200
G01 X16.2297 Y42.5920
G01 X16.2301 Y42.5797
G01 X16.2334 Y42.5185
G01 X16.2421 Y42.4577
G01 X16.2454 Y42.4396
G01 X16.2603 Y42.3801
G01 X16.2659 Y42.3626
G01 X16.2869 Y42.3049
G01 X16.3128 Y42.2493
G01 X16.3183 Y42.2383
G01 X16.3244 Y42.2277
G01 X16.3562 Y42.1752
G01 X16.3925 Y42.1257
G01 X16.4040 Y42.1114
G01 X16.4410 Y42.0704
G01 X16.4495 Y42.0615
G01 X17.4597 Y41.0512
G01 X17.4597 Y39.0983
G01 X17.4267 Y39.0738
G01 X17.4123 Y39.0623
G01 X17.3305 Y38.9882
G01 X17.3177 Y38.9750
G01 X17.2477 Y38.8977
G01 X17.2362 Y38.8833
G01 X17.1777 Y38.8045
G01 X17.1707 Y38.7945
G01 X17.1641 Y38.7841
G01 X17.1136 Y38.6999
G01 X17.1048 Y38.6838
G01 X17.0601 Y38.5896
G01 X17.0552 Y38.5784
G01 X17.0507 Y38.5669
G01 X17.0177 Y38.4745
G01 X17.0138 Y38.4629
G01 X17.0106 Y38.4510
G01 X16.9867 Y38.3558
G01 X16.9840 Y38.3439
G01 X16.9819 Y38.3318
G01 X16.9675 Y38.2347
G01 X16.9660 Y38.2225
G01 X16.9651 Y38.2103
G01 X16.9603 Y38.1123
G01 X16.9600 Y38.1000
G01 X16.9603 Y38.0877
G01 X16.9651 Y37.9897
G01 X16.9660 Y37.9775
G01 X16.9675 Y37.9653
G01 X16.9819 Y37.8682
G01 X16.9840 Y37.8561
G01 X16.9867 Y37.8442
G01 X17.0106 Y37.7490
G01 X17.0138 Y37.7371
G01 X17.0177 Y37.7255
G01 X17.0507 Y37.6331
G01 X17.0552 Y37.6216
G01 X17.0601 Y37.6104
G01 X17.1048 Y37.5162
G01 X17.1136 Y37.5001
G01 X17.1641 Y37.4159
G01 X17.1707 Y37.4055
G01 X17.1777 Y37.3955
G01 X17.2362 Y37.3167
G01 X17.2477 Y37.3023
G01 X17.3177 Y37.2250
G01 X17.3305 Y37.2118
G01 X17.4123 Y37.1377
G01 X17.4267 Y37.1262
G01 X17.4597 Y37.1017
G01 X17.4597 Y33.3535
G01 X17.4477 Y33.3432
G01 X17.3750 Y33.2773
G01 X17.3618 Y33.2645
G01 X17.2877 Y33.1827
G01 X17.2762 Y33.1683
G01 X17.2517 Y33.1353
G01 X14.4339 Y33.1352
G01 X14.3787 Y33.1325
G01 X14.3665 Y33.1316
G01 X14.3057 Y33.1229
G01 X14.2936 Y33.1208
G01 X14.2817 Y33.1181
G01 X14.2222 Y33.1029
G01 X14.1643 Y33.0826
G01 X14.1529 Y33.0781
G01 X14.1417 Y33.0732
G01 X14.0863 Y33.0467
G01 X14.0757 Y33.0406
G01 X14.0232 Y33.0088
G01 X14.0132 Y33.0017
G01 X13.9640 Y32.9650
G01 X13.9184 Y32.9240
G01 X13.9095 Y32.9155
G01 X12.3812 Y31.3871
G01 X12.3441 Y31.3462
G01 X12.3360 Y31.3370
G01 X12.2993 Y31.2878
G01 X12.2922 Y31.2778
G01 X12.2856 Y31.2674
G01 X12.2604 Y31.2253
G01 X12.2515 Y31.2092
G01 X12.2253 Y31.1537
G01 X12.2184 Y31.1367
G01 X12.1981 Y31.0788
G01 X12.1829 Y31.0193
G01 X12.1802 Y31.0074
G01 X12.1781 Y30.9953
G01 X12.1694 Y30.9345
G01 X12.1661 Y30.8733
G01 X12.1657 Y30.8610
G01 X12.1657 Y23.1023
G01 X11.4488 Y23.1023
G01 X9.1241 Y25.4268
G01 X9.0786 Y25.4680
G01 X9.0643 Y25.4795
G01 X9.0148 Y25.5158
G01 X9.0044 Y25.5224
G01 X8.9570 Y25.5507
G01 X8.9407 Y25.5592
G01 X8.8851 Y25.5851
G01 X8.8274 Y25.6061
G01 X8.8158 Y25.6099
G01 X8.8040 Y25.6132
G01 X8.7444 Y25.6278
G01 X8.6837 Y25.6371
G01 X8.6654 Y25.6392
G01 X8.6041 Y25.6422
G01 X7.4362 Y25.6423
G01 X7.4276 Y25.6533
G01 X7.4196 Y25.6626
G01 X7.3570 Y25.7316
G01 X7.3485 Y25.7405
G01 X7.3396 Y25.7490
G01 X7.2706 Y25.8116
G01 X7.2613 Y25.8196
G01 X7.2516 Y25.8272
G01 X7.1767 Y25.8827
G01 X7.1667 Y25.8898
G01 X7.1563 Y25.8963
G01 X7.0764 Y25.9443
G01 X7.0657 Y25.9503
G01 X7.0547 Y25.9558
G01 X6.9704 Y25.9957
G01 X6.9592 Y26.0007
G01 X6.9478 Y26.0051
G01 X6.8600 Y26.0365
G01 X6.8483 Y26.0403
G01 X6.8365 Y26.0436
G01 X6.7461 Y26.0663
G01 X6.7341 Y26.0689
G01 X6.7220 Y26.0710
G01 X6.6298 Y26.0847
G01 X6.6176 Y26.0862
G01 X6.6054 Y26.0871
G01 X6.5123 Y26.0917
G01 X6.5000 Y26.0920
G01 X4.6000 Y26.0920
G01 X4.5877 Y26.0917
G01 X4.4946 Y26.0871
G01 X4.4824 Y26.0862
G01 X4.4702 Y26.0847
G01 X4.3780 Y26.0710
G01 X4.3659 Y26.0689
G01 X4.3539 Y26.0663
G01 X4.2635 Y26.0436
G01 X4.2517 Y26.0403
G01 X4.2400 Y26.0365
G01 X4.1522 Y26.0051
G01 X4.1408 Y26.0007
G01 X4.1296 Y25.9957
G01 X4.0453 Y25.9558
G01 X4.0343 Y25.9503
G01 X4.0236 Y25.9443
G01 X3.9437 Y25.8963
G01 X3.9333 Y25.8898
G01 X3.9233 Y25.8827
G01 X3.8484 Y25.8272
G01 X3.8387 Y25.8196
G01 X3.8294 Y25.8116
G01 X3.7604 Y25.7490
G01 X3.7515 Y25.7405
G01 X3.7430 Y25.7316
G01 X3.6804 Y25.6626
G01 X3.6724 Y25.6533
G01 X3.6648 Y25.6436
G01 X3.6093 Y25.5687
G01 X3.6022 Y25.5587
G01 X3.5957 Y25.5483
G01 X3.5477 Y25.4684
G01 X3.5417 Y25.4577
G01 X3.5362 Y25.4467
G01 X3.4963 Y25.3624
G01 X3.4891 Y25.3455
G01 X3.4555 Y25.2520
G01 X3.4517 Y25.2403
G01 X3.4484 Y25.2285
G01 X3.4257 Y25.1381
G01 X3.4231 Y25.1261
G01 X3.4210 Y25.1140
G01 X3.4073 Y25.0218
G01 X3.4058 Y25.0096
G01 X3.4049 Y24.9974
G01 X3.4003 Y24.9043
G01 X3.4000 Y24.8920
G01 X3.4003 Y24.8797
G01 X3.4049 Y24.7866
G01 X3.4058 Y24.7744
G01 X3.4073 Y24.7622
G01 X3.4210 Y24.6700
G01 X3.4231 Y24.6579
G01 X3.4257 Y24.6459
G01 X3.4484 Y24.5555
G01 X3.4517 Y24.5437
G01 X3.4555 Y24.5320
G01 X3.4869 Y24.4442
G01 X3.4913 Y24.4328
G01 X3.4963 Y24.4216
G01 X3.5362 Y24.3373
G01 X3.5417 Y24.3263
G01 X3.5477 Y24.3156
G01 X3.5957 Y24.2357
G01 X3.6022 Y24.2253
G01 X3.6093 Y24.2153
G01 X3.6648 Y24.1404
G01 X3.6724 Y24.1307
G01 X3.6804 Y24.1214
G01 X3.7430 Y24.0524
G01 X3.7515 Y24.0435
G01 X3.7604 Y24.0350
G01 X3.8294 Y23.9724
G01 X3.8387 Y23.9644
G01 X3.8484 Y23.9568
G01 X3.9233 Y23.9013
G01 X3.9333 Y23.8942
G01 X3.9437 Y23.8877
G01 X4.0236 Y23.8397
G01 X4.0343 Y23.8337
G01 X4.0453 Y23.8282
G01 X4.1351 Y23.7858
G01 X4.1522 Y23.7789
G01 X4.2400 Y23.7475
G01 X4.2517 Y23.7437
G01 X4.2635 Y23.7404
G01 X4.3539 Y23.7177
G01 X4.3659 Y23.7151
G01 X4.3780 Y23.7130
G01 X4.4702 Y23.6993
G01 X4.4824 Y23.6978
G01 X4.4946 Y23.6969
G01 X4.5939 Y23.6921
G01 X6.5000 Y23.6920
G01 X6.5123 Y23.6923
G01 X6.6115 Y23.6973
G01 X6.6298 Y23.6993
G01 X6.7220 Y23.7130
G01 X6.7341 Y23.7151
G01 X6.7461 Y23.7177
G01 X6.8365 Y23.7404
G01 X6.8483 Y23.7437
G01 X6.8600 Y23.7475
G01 X6.9478 Y23.7789
G01 X6.9592 Y23.7833
G01 X6.9704 Y23.7883
G01 X7.0547 Y23.8282
G01 X7.0657 Y23.8337
G01 X7.0764 Y23.8397
G01 X7.1563 Y23.8877
G01 X7.1667 Y23.8942
G01 X7.1767 Y23.9013
G01 X7.2516 Y23.9568
G01 X7.2613 Y23.9644
G01 X7.2706 Y23.9724
G01 X7.3396 Y24.0350
G01 X7.3485 Y24.0435
G01 X7.3570 Y24.0524
G01 X7.4196 Y24.1214
G01 X7.4276 Y24.1307
G01 X7.4362 Y24.1417
G01 X8.2872 Y24.1417
G01 X10.6075 Y21.8215
G01 X10.6528 Y21.7801
G01 X10.6620 Y21.7720
G01 X10.7112 Y21.7353
G01 X10.7212 Y21.7282
G01 X10.7737 Y21.6964
G01 X10.7843 Y21.6903
G01 X10.8397 Y21.6638
G01 X10.8509 Y21.6589
G01 X10.8623 Y21.6544
G01 X10.9202 Y21.6341
G01 X10.9797 Y21.6189
G01 X10.9916 Y21.6162
G01 X11.0037 Y21.6141
G01 X11.0645 Y21.6054
G01 X11.1257 Y21.6021
G01 X11.1380 Y21.6017
G01 X12.1657 Y21.6017
G01 X12.1657 Y18.4718
G01 X11.4622 Y17.7683
G01 X7.4362 Y17.7683
G01 X7.4276 Y17.7793
G01 X7.4196 Y17.7886
G01 X7.3570 Y17.8576
G01 X7.3485 Y17.8665
G01 X7.3396 Y17.8750
G01 X7.2706 Y17.9376
G01 X7.2613 Y17.9456
G01 X7.2516 Y17.9532
G01 X7.1767 Y18.0087
G01 X7.1667 Y18.0158
G01 X7.1563 Y18.0223
G01 X7.0764 Y18.0703
G01 X7.0657 Y18.0763
G01 X7.0547 Y18.0818
G01 X6.9704 Y18.1217
G01 X6.9592 Y18.1267
G01 X6.9478 Y18.1311
G01 X6.8600 Y18.1625
G01 X6.8483 Y18.1663
G01 X6.8365 Y18.1696
G01 X6.7461 Y18.1923
G01 X6.7341 Y18.1949
G01 X6.7220 Y18.1970
G01 X6.6298 Y18.2107
G01 X6.6176 Y18.2122
G01 X6.6054 Y18.2131
G01 X6.5123 Y18.2177
G01 X6.5000 Y18.2180
G01 X4.5939 Y18.2179
G01 X4.4946 Y18.2131
G01 X4.4824 Y18.2122
G01 X4.4702 Y18.2107
G01 X4.3780 Y18.1970
G01 X4.3659 Y18.1949
G01 X4.3539 Y18.1923
G01 X4.2635 Y18.1696
G01 X4.2517 Y18.1663
G01 X4.2400 Y18.1625
G01 X4.1522 Y18.1311
G01 X4.1408 Y18.1267
G01 X4.1296 Y18.1217
G01 X4.0453 Y18.0818
G01 X4.0343 Y18.0763
G01 X4.0236 Y18.0703
G01 X3.9437 Y18.0223
G01 X3.9333 Y18.0158
G01 X3.9233 Y18.0087
G01 X3.8484 Y17.9532
G01 X3.8387 Y17.9456
G01 X3.8294 Y17.9376
G01 X3.7604 Y17.8750
G01 X3.7515 Y17.8665
G01 X3.7430 Y17.8576
G01 X3.6804 Y17.7886
G01 X3.6724 Y17.7793
G01 X3.6648 Y17.7696
G01 X3.6093 Y17.6947
G01 X3.6022 Y17.6847
G01 X3.5957 Y17.6743
G01 X3.5477 Y17.5944
G01 X3.5417 Y17.5837
G01 X3.5362 Y17.5727
G01 X3.4938 Y17.4829
G01 X3.4869 Y17.4658
G01 X3.4555 Y17.3780
G01 X3.4517 Y17.3663
G01 X3.4484 Y17.3545
G01 X3.4257 Y17.2641
G01 X3.4231 Y17.2521
G01 X3.4210 Y17.2400
G01 X3.4073 Y17.1478
G01 X3.4058 Y17.1356
G01 X3.4049 Y17.1234
G01 X3.4003 Y17.0303
G01 X3.4000 Y17.0180
G01 X3.4003 Y17.0057
G01 X3.4049 Y16.9126
G01 X3.4058 Y16.9004
G01 X3.4073 Y16.8882
G01 X3.4210 Y16.7960
G01 X3.4231 Y16.7839
G01 X3.4257 Y16.7719
G01 X3.4484 Y16.6815
G01 X3.4517 Y16.6697
G01 X3.4555 Y16.6580
G01 X3.4869 Y16.5702
G01 X3.4913 Y16.5588
G01 X3.4963 Y16.5476
G01 X3.5362 Y16.4633
G01 X3.5417 Y16.4523
G01 X3.5477 Y16.4416
G01 X3.5957 Y16.3617
G01 X3.6022 Y16.3513
G01 X3.6093 Y16.3413
G01 X3.6648 Y16.2664
G01 X3.6724 Y16.2567
G01 X3.6804 Y16.2474
G01 X3.7430 Y16.1784
G01 X3.7515 Y16.1695
G01 X3.7604 Y16.1610
G01 X3.8294 Y16.0984
G01 X3.8387 Y16.0904
G01 X3.8484 Y16.0828
G01 X3.9233 Y16.0273
G01 X3.9333 Y16.0202
G01 X3.9437 Y16.0137
G01 X4.0236 Y15.9657
G01 X4.0343 Y15.9597
G01 X4.0453 Y15.9542
G01 X4.1296 Y15.9143
G01 X4.1408 Y15.9093
G01 X4.1522 Y15.9049
G01 X4.2400 Y15.8735
G01 X4.2517 Y15.8697
G01 X4.2635 Y15.8664
G01 X4.3539 Y15.8437
G01 X4.3659 Y15.8411
G01 X4.3780 Y15.8390
G01 X4.4702 Y15.8253
G01 X4.4824 Y15.8238
G01 X4.4946 Y15.8229
G01 X4.5877 Y15.8183
G01 X4.6000 Y15.8180
G01 X6.5000 Y15.8180
G01 X6.5123 Y15.8183
G01 X6.6054 Y15.8229
G01 X6.6176 Y15.8238
G01 X6.6298 Y15.8253
G01 X6.7220 Y15.8390
G01 X6.7341 Y15.8411
G01 X6.7461 Y15.8437
G01 X6.8365 Y15.8664
G01 X6.8483 Y15.8697
G01 X6.8600 Y15.8735
G01 X6.9478 Y15.9049
G01 X6.9592 Y15.9093
G01 X6.9704 Y15.9143
G01 X7.0547 Y15.9542
G01 X7.0657 Y15.9597
G01 X7.0764 Y15.9657
G01 X7.1563 Y16.0137
G01 X7.1667 Y16.0202
G01 X7.1767 Y16.0273
G01 X7.2516 Y16.0828
G01 X7.2613 Y16.0904
G01 X7.2706 Y16.0984
G01 X7.3396 Y16.1610
G01 X7.3485 Y16.1695
G01 X7.3570 Y16.1784
G01 X7.4196 Y16.2474
G01 X7.4276 Y16.2567
G01 X7.4362 Y16.2677
G01 X9.9617 Y16.2677
G01 X5.6545 Y11.9605
G01 X5.6131 Y11.9152
G01 X5.6050 Y11.9060
G01 X5.5683 Y11.8568
G01 X5.5612 Y11.8468
G01 X5.5546 Y11.8364
G01 X5.5233 Y11.7837
G01 X5.5178 Y11.7727
G01 X5.4943 Y11.7227
G01 X5.4874 Y11.7057
G01 X5.4671 Y11.6478
G01 X5.4638 Y11.6360
G01 X5.4492 Y11.5764
G01 X5.4399 Y11.5157
G01 X5.4384 Y11.5035
G01 X5.4351 Y11.4423
G01 X5.4347 Y11.4300
G01 X5.4347 Y10.1412
G01 X5.4237 Y10.1326
G01 X5.4144 Y10.1246
G01 X5.3454 Y10.0620
G01 X5.3365 Y10.0535
G01 X5.3280 Y10.0446
G01 X5.2654 Y9.9756
G01 X5.2574 Y9.9663
G01 X5.2498 Y9.9566
G01 X5.1943 Y9.8817
G01 X5.1872 Y9.8717
G01 X5.1807 Y9.8613
G01 X5.1327 Y9.7814
G01 X5.1267 Y9.7707
G01 X5.1212 Y9.7597
G01 X5.0813 Y9.6754
G01 X5.0763 Y9.6642
G01 X5.0719 Y9.6528
G01 X5.0405 Y9.5650
G01 X5.0367 Y9.5533
G01 X5.0334 Y9.5415
G01 X5.0107 Y9.4511
G01 X5.0081 Y9.4391
G01 X5.0060 Y9.4270
G01 X4.9923 Y9.3348
G01 X4.9908 Y9.3226
G01 X4.9899 Y9.3104
G01 X4.9853 Y9.2173
G01 X4.9850 Y9.2050
G01 X4.9850 Y7.3050
G01 X4.9853 Y7.2927
G01 X4.9899 Y7.1996
G01 X4.9908 Y7.1874
G01 X4.9923 Y7.1752
G01 X5.0060 Y7.0830
G01 X5.0081 Y7.0709
G01 X5.0107 Y7.0589
G01 X5.0334 Y6.9685
G01 X5.0367 Y6.9567
G01 X5.0405 Y6.9450
G01 X5.0719 Y6.8572
G01 X5.0763 Y6.8458
G01 X5.0813 Y6.8346
G01 X5.1212 Y6.7503
G01 X5.1267 Y6.7393
G01 X5.1327 Y6.7286
G01 X5.1807 Y6.6487
G01 X5.1872 Y6.6383
G01 X5.1943 Y6.6283
G01 X5.2498 Y6.5534
G01 X5.2574 Y6.5437
G01 X5.2654 Y6.5344
G01 X5.3280 Y6.4654
G01 X5.3365 Y6.4565
G01 X5.3454 Y6.4480
G01 X5.4144 Y6.3854
G01 X5.4237 Y6.3774
G01 X5.4347 Y6.3688
G00 Z5.0000
G00 X7.9106 Y11.1341
G01 F60.00
G01 Z-0.1000
G01 F300.00
G01 X7.9179 Y11.1175
G01 X7.9250 Y11.1038
G01 X7.9250 Y10.0979
G01 X7.8854 Y10.0620
G01 X7.8722 Y10.0491
G01 X7.8054 Y9.9756
G01 X7.7936 Y9.9615
G01 X7.7343 Y9.8817
G01 X7.7272 Y9.8717
G01 X7.7207 Y9.8613
G01 X7.6727 Y9.7814
G01 X7.6639 Y9.7652
G01 X7.6213 Y9.6754
G01 X7.6163 Y9.6642
G01 X7.6119 Y9.6528
G01 X7.5805 Y9.5650
G01 X7.5767 Y9.5533
G01 X7.5734 Y9.5415
G01 X7.5507 Y9.4511
G01 X7.5481 Y9.4391
G01 X7.5460 Y9.4270
G01 X7.5323 Y9.3348
G01 X7.5308 Y9.3226
G01 X7.5299 Y9.3104
G01 X7.5253 Y9.2173
G01 X7.5250 Y9.2050
G01 X7.5250 Y7.3050
G01 X7.5253 Y7.2927
G01 X7.5299 Y7.1996
G01 X7.5308 Y7.1874
G01 X7.5323 Y7.1752
G01 X7.5460 Y7.0830
G01 X7.5481 Y7.0709
G01 X7.5507 Y7.0589
G01 X7.5734 Y6.9685
G01 X7.5767 Y6.9567
G01 X7.5805 Y6.9450
G01 X7.6119 Y6.8572
G01 X7.6163 Y6.8458
G01 X7.6213 Y6.8346
G01 X7.6612 Y6.7503
G01 X7.6667 Y6.7393
G01 X7.6727 Y6.7286
G01 X7.7207 Y6.6487
G01 X7.7272 Y6.6383
G01 X7.7343 Y6.6283
G01 X7.7898 Y6.5534
G01 X7.7974 Y6.5437
G01 X7.8054 Y6.5344
G01 X7.8680 Y6.4654
G01 X7.8765 Y6.4565
G01 X7.8854 Y6.4480
G01 X7.9544 Y6.3854
G01 X7.9637 Y6.3774
G01 X7.9734 Y6.3698
G01 X8.0483 Y6.3143
G01 X8.0583 Y6.3072
G01 X8.0687 Y6.3007
G01 X8.1486 Y6.2527
G01 X8.1593 Y6.2467
G01 X8.1703 Y6.2412
G01 X8.2546 Y6.2013
G01 X8.2658 Y6.1963
G01 X8.2772 Y6.1919
G01 X8.3650 Y6.1605
G01 X8.3767 Y6.1567
G01 X8.3885 Y6.1534
G01 X8.4789 Y6.1307
G01 X8.4909 Y6.1281
G01 X8.5030 Y6.1260
G01 X8.5952 Y6.1123
G01 X8.6074 Y6.1108
G01 X8.6196 Y6.1099
G01 X8.7127 Y6.1053
G01 X8.7250 Y6.1050
G01 X8.7373 Y6.1053
G01 X8.8304 Y6.1099
G01 X8.8426 Y6.1108
G01 X8.8548 Y6.1123
G01 X8.9470 Y6.1260
G01 X8.9591 Y6.1281
G01 X8.9711 Y6.1307
G01 X9.0615 Y6.1534
G01 X9.0733 Y6.1567
G01 X9.0850 Y6.1605
G01 X9.1728 Y6.1919
G01 X9.1842 Y6.1963
G01 X9.1954 Y6.2013
G01 X9.2797 Y6.2412
G01 X9.2907 Y6.2467
G01 X9.3014 Y6.2527
G01 X9.3813 Y6.3007
G01 X9.3917 Y6.3072
G01 X9.4017 Y6.3143
G01 X9.4766 Y6.3698
G01 X9.4863 Y6.3774
G01 X9.4956 Y6.3854
G01 X9.5646 Y6.4480
G01 X9.5735 Y6.4565
G01 X9.5820 Y6.4654
G01 X9.6446 Y6.5344
G01 X9.6526 Y6.5437
G01 X9.6602 Y6.5534
G01 X9.7157 Y6.6283
G01 X9.7228 Y6.6383
G01 X9.7293 Y6.6487
G01 X9.7773 Y6.7286
G01 X9.7833 Y6.7393
G01 X9.7888 Y6.7503
G01 X9.8287 Y6.8346
G01 X9.8337 Y6.8458
G01 X9.8381 Y6.8572
G01 X9.8695 Y6.9450
G01 X9.8733 Y6.9567
G01 X9.8766 Y6.9685
G01 X9.8993 Y7.0589
G01 X9.9019 Y7.0709
G01 X9.9040 Y7.0830
G01 X9.9177 Y7.1752
G01 X9.9192 Y7.1874
G01 X9.9201 Y7.1996
G01 X9.9249 Y7.2989
G01 X9.9250 Y9.2050
G01 X9.9247 Y9.2173
G01 X9.9201 Y9.3104
G01 X9.9192 Y9.3226
G01 X9.9177 Y9.3348
G01 X9.9040 Y9.4270
G01 X9.9019 Y9.4391
G01 X9.8993 Y9.4511
G01 X9.8766 Y9.5415
G01 X9.8733 Y9.5533
G01 X9.8695 Y9.5650
G01 X9.8381 Y9.6528
G01 X9.8337 Y9.6642
G01 X9.8287 Y9.6754
G01 X9.7861 Y9.7652
G01 X9.7773 Y9.7814
G01 X9.7293 Y9.8613
G01 X9.7228 Y9.8717
G01 X9.7157 Y9.8817
G01 X9.6564 Y9.9615
G01 X9.6446 Y9.9756
G01 X9.5778 Y10.0491
G01 X9.5646 Y10.0620
G01 X9.5250 Y10.0979
G01 X9.5250 Y10.8343
G01 X9.5739 Y10.8208
G01 X9.5919 Y10.8166
G01 X9.6040 Y10.8145
G01 X9.6163 Y10.8130
G01 X9.6286 Y10.8121
G01 X9.6409 Y10.8118
G01 X9.6532 Y10.8122
G01 X9.6655 Y10.8131
G01 X9.7809 Y10.8248
G01 X9.7931 Y10.8267
G01 X9.8052 Y10.8291
G01 X9.8171 Y10.8321
G01 X9.8347 Y10.8378
G01 X9.8462 Y10.8423
G01 X9.8574 Y10.8473
G01 X9.9609 Y10.8998
G01 X9.9771 Y10.9088
G01 X9.9874 Y10.9154
G01 X9.9975 Y10.9225
G01 X10.0118 Y10.9342
G01 X10.0209 Y10.9425
G01 X10.0296 Y10.9512
G01 X10.1071 Y11.0376
G01 X10.1151 Y11.0469
G01 X10.1226 Y11.0567
G01 X10.1297 Y11.0668
G01 X10.1393 Y11.0826
G01 X10.1477 Y11.0991
G01 X10.1526 Y11.1103
G01 X10.1958 Y11.2247
G01 X10.1996 Y11.2365
G01 X10.2042 Y11.2546
G01 X10.2065 Y11.2667
G01 X10.2083 Y11.2790
G01 X10.2143 Y11.3488
G01 X10.2145 Y11.5219
G01 X10.2200 Y11.5544
G01 X10.2240 Y11.5857
G01 X10.2265 Y11.6131
G01 X10.2348 Y11.6451
G01 X10.2416 Y11.6758
G01 X10.2464 Y11.7029
G01 X10.2558 Y11.7288
G01 X10.2653 Y11.7589
G01 X10.2741 Y11.7907
G01 X10.2878 Y11.8207
G01 X10.2998 Y11.8498
G01 X10.3093 Y11.8757
G01 X10.3230 Y11.8995
G01 X10.3376 Y11.9274
G01 X10.3518 Y11.9573
G01 X10.3705 Y11.9844
G01 X10.3874 Y12.0110
G01 X10.4012 Y12.0348
G01 X10.4222 Y12.0603
G01 X10.4414 Y12.0853
G01 X10.4572 Y12.1078
G01 X15.0322 Y16.6828
G01 X15.0590 Y16.7019
G01 X15.0840 Y16.7212
G01 X15.1052 Y16.7388
G01 X15.1290 Y16.7526
G01 X15.1556 Y16.7695
G01 X15.1827 Y16.7882
G01 X15.2077 Y16.7999
G01 X15.2357 Y16.8144
G01 X15.2643 Y16.8307
G01 X15.2902 Y16.8402
G01 X15.3193 Y16.8522
G01 X15.3493 Y16.8659
G01 X15.3811 Y16.8747
G01 X15.4112 Y16.8842
G01 X15.4371 Y16.8936
G01 X15.4642 Y16.8984
G01 X15.4949 Y16.9052
G01 X15.5269 Y16.9135
G01 X15.5597 Y16.9166
G01 X15.5910 Y16.9208
G01 X15.6181 Y16.9255
G01 X16.8918 Y16.9256
G01 X16.9091 Y16.9266
G01 X16.9206 Y16.9279
G01 X16.9320 Y16.9298
G01 X17.0400 Y16.9499
G01 X17.0523 Y16.9526
G01 X17.0645 Y16.9558
G01 X17.0824 Y16.9618
G01 X17.0940 Y16.9665
G01 X17.1054 Y16.9719
G01 X17.1165 Y16.9777
G01 X17.1273 Y16.9842
G01 X17.2292 Y17.0485
G01 X17.2391 Y17.0554
G01 X17.2486 Y17.0627
G01 X17.2578 Y17.0706
G01 X17.2715 Y17.0834
G01 X17.4608 Y17.2147
G01 X17.6135 Y17.2901
G01 X17.6286 Y17.2986
G01 X17.6383 Y17.3049
G01 X17.6477 Y17.3116
G01 X17.7405 Y17.3812
G01 X17.7546 Y17.3932
G01 X17.7634 Y17.4017
G01 X17.7719 Y17.4107
G01 X17.7837 Y17.4249
G01 X17.7944 Y17.4399
G01 X17.8560 Y17.5383
G01 X17.8622 Y17.5489
G01 X17.8680 Y17.5598
G01 X17.8756 Y17.5767
G01 X17.8819 Y17.5940
G01 X17.8854 Y17.6059
G01 X17.8883 Y17.6178
G01 X17.9101 Y17.7318
G01 X17.9121 Y17.7440
G01 X17.9135 Y17.7562
G01 X17.9145 Y17.7746
G01 X17.9141 Y17.7931
G01 X17.9131 Y17.8054
G01 X17.9105 Y17.8237
G01 X17.8895 Y17.9378
G01 X17.8851 Y17.9557
G01 X17.8793 Y17.9733
G01 X17.8748 Y17.9848
G01 X17.8697 Y17.9960
G01 X17.8610 Y18.0123
G01 X17.8003 Y18.1112
G01 X17.7901 Y18.1266
G01 X17.7787 Y18.1412
G01 X17.7663 Y18.1549
G01 X17.7530 Y18.1676
G01 X17.7387 Y18.1793
G01 X17.6513 Y18.2459
G01 X17.6416 Y18.2529
G01 X17.6265 Y18.2625
G01 X17.6108 Y18.2710
G01 X17.5822 Y18.2843
G01 X17.5320 Y18.3058
G01 X17.3361 Y18.4271
G01 X17.1602 Y18.5760
G01 X17.0082 Y18.7493
G01 X16.8836 Y18.9431
G01 X16.7889 Y19.1532
G01 X16.7264 Y19.3750
G01 X16.6965 Y19.6096
G01 X16.6947 Y19.6790
G01 X16.7122 Y19.9148
G01 X16.7631 Y20.1396
G01 X16.8466 Y20.3544
G01 X16.9610 Y20.5545
G01 X17.0816 Y20.7075
G01 X17.0919 Y20.7215
G01 X17.1011 Y20.7362
G01 X17.1067 Y20.7463
G01 X17.1605 Y20.8489
G01 X17.1678 Y20.8652
G01 X17.1720 Y20.8763
G01 X17.1774 Y20.8934
G01 X17.1803 Y20.9050
G01 X17.1836 Y20.9225
G01 X17.1967 Y21.0103
G01 X17.1983 Y21.0226
G01 X17.1992 Y21.0350
G01 X17.1995 Y21.0474
G01 X17.1995 Y24.6745
G01 X17.1992 Y24.6861
G01 X17.1984 Y24.6976
G01 X17.1962 Y24.7148
G01 X17.1739 Y24.8344
G01 X17.1695 Y24.8518
G01 X17.1659 Y24.8633
G01 X17.1618 Y24.8745
G01 X17.1546 Y24.8910
G01 X17.1491 Y24.9017
G01 X17.1431 Y24.9121
G01 X17.0891 Y25.0012
G01 X17.0824 Y25.0118
G01 X17.0751 Y25.0220
G01 X17.0673 Y25.0318
G01 X17.0082 Y25.0993
G01 X16.8836 Y25.2931
G01 X16.7889 Y25.5032
G01 X16.7264 Y25.7250
G01 X16.6965 Y25.9596
G01 X16.6947 Y26.0290
G01 X16.7122 Y26.2648
G01 X16.7631 Y26.4896
G01 X16.8466 Y26.7044
G01 X16.9610 Y26.9045
G01 X17.1036 Y27.0854
G01 X17.2715 Y27.2434
G01 X17.4609 Y27.3747
G01 X17.6675 Y27.4766
G01 X17.8870 Y27.5469
G01 X18.1145 Y27.5839
G01 X18.3449 Y27.5870
G01 X18.5733 Y27.5559
G01 X18.7945 Y27.4914
G01 X19.0038 Y27.3949
G01 X19.1965 Y27.2686
G01 X19.3685 Y27.1151
G01 X19.5158 Y26.9379
G01 X19.6354 Y26.7409
G01 X19.7245 Y26.5284
G01 X19.7812 Y26.3050
G01 X19.8043 Y26.0757
G01 X19.7933 Y25.8455
G01 X19.7483 Y25.6195
G01 X19.6704 Y25.4026
G01 X19.5614 Y25.1996
G01 X19.4124 Y25.0000
G01 X19.4053 Y24.9900
G01 X19.3955 Y24.9744
G01 X19.3870 Y24.9581
G01 X19.3814 Y24.9454
G01 X19.3497 Y24.8912
G01 X19.3415 Y24.8752
G01 X19.3346 Y24.8588
G01 X19.3306 Y24.8475
G01 X19.3272 Y24.8361
G01 X19.3243 Y24.8245
G01 X19.3219 Y24.8128
G01 X19.3042 Y24.7114
G01 X19.3024 Y24.6992
G01 X19.3012 Y24.6869
G01 X19.3005 Y24.6684
G01 X19.3006 Y21.2787
G01 X19.3016 Y21.2614
G01 X19.3038 Y21.2443
G01 X19.3249 Y21.1306
G01 X19.3275 Y21.1185
G01 X19.3307 Y21.1066
G01 X19.3344 Y21.0949
G01 X19.3387 Y21.0833
G01 X19.3462 Y21.0664
G01 X19.3550 Y21.0502
G01 X19.4160 Y20.9515
G01 X19.4263 Y20.9361
G01 X19.4338 Y20.9263
G01 X19.4417 Y20.9169
G01 X19.4501 Y20.9079
G01 X19.4636 Y20.8952
G01 X19.4730 Y20.8873
G01 X19.5705 Y20.8137
G01 X19.5807 Y20.8068
G01 X19.5912 Y20.8003
G01 X19.6020 Y20.7944
G01 X19.6131 Y20.7891
G01 X19.6245 Y20.7843
G01 X19.6419 Y20.7781
G01 X19.7535 Y20.7463
G01 X19.7659 Y20.7431
G01 X19.7785 Y20.7406
G01 X19.7976 Y20.7380
G01 X19.8104 Y20.7370
G01 X19.8437 Y20.7356
G01 X20.9589 Y20.7355
G01 X20.9704 Y20.7358
G01 X20.9877 Y20.7372
G01 X21.0048 Y20.7398
G01 X21.1189 Y20.7612
G01 X21.1308 Y20.7640
G01 X21.1427 Y20.7675
G01 X21.1543 Y20.7715
G01 X21.1714 Y20.7786
G01 X21.1879 Y20.7869
G01 X21.1985 Y20.7931
G01 X21.2919 Y20.8510
G01 X21.3022 Y20.8577
G01 X21.3170 Y20.8688
G01 X21.3310 Y20.8809
G01 X21.3440 Y20.8940
G01 X21.3560 Y20.9080
G01 X21.4260 Y21.0006
G01 X21.4332 Y21.0106
G01 X21.4399 Y21.0209
G01 X21.4460 Y21.0316
G01 X21.4517 Y21.0426
G01 X21.4568 Y21.0538
G01 X21.4613 Y21.0652
G01 X21.4652 Y21.0769
G01 X21.4987 Y21.1944
G01 X21.5015 Y21.2064
G01 X21.5045 Y21.2247
G01 X21.5062 Y21.2431
G01 X21.5066 Y21.2554
G01 X21.5064 Y21.2677
G01 X21.5055 Y21.2800
G01 X21.4947 Y21.3957
G01 X21.4918 Y21.4146
G01 X21.4874 Y21.4331
G01 X21.4816 Y21.4513
G01 X21.4633 Y21.5012
G01 X21.3906 Y21.6663
G01 X21.3281 Y21.8879
G01 X21.2960 Y22.1248
G01 X21.2930 Y22.2213
G01 X21.3097 Y22.4564
G01 X21.3582 Y22.6829
G01 X21.9014 Y22.1397
G01 X21.9026 Y22.1221
G01 X21.9041 Y22.1099
G01 X21.9156 Y22.0322
G01 X21.9177 Y22.0202
G01 X21.9204 Y22.0082
G01 X21.9394 Y21.9320
G01 X21.9427 Y21.9202
G01 X21.9466 Y21.9085
G01 X21.9730 Y21.8346
G01 X21.9774 Y21.8232
G01 X21.9824 Y21.8120
G01 X22.0160 Y21.7410
G01 X22.0215 Y21.7300
G01 X22.0275 Y21.7194
G01 X22.0679 Y21.6520
G01 X22.0745 Y21.6417
G01 X22.0815 Y21.6316
G01 X22.1320 Y21.5637
G01 X22.1439 Y21.5496
G01 X22.1966 Y21.4914
G01 X22.2050 Y21.4825
G01 X22.2139 Y21.4741
G01 X22.2721 Y21.4214
G01 X22.2814 Y21.4133
G01 X22.2911 Y21.4058
G01 X22.3541 Y21.3590
G01 X22.3642 Y21.3520
G01 X22.3745 Y21.3454
G01 X22.4419 Y21.3050
G01 X22.4580 Y21.2962
G01 X22.5345 Y21.2599
G01 X22.5457 Y21.2549
G01 X22.5571 Y21.2505
G01 X22.6310 Y21.2241
G01 X22.6427 Y21.2202
G01 X22.6545 Y21.2169
G01 X22.7307 Y21.1979
G01 X22.7427 Y21.1952
G01 X22.7547 Y21.1931
G01 X22.8324 Y21.1816
G01 X22.8446 Y21.1801
G01 X22.8568 Y21.1792
G01 X22.9352 Y21.1753
G01 X22.9475 Y21.1750
G01 X22.9598 Y21.1753
G01 X23.0382 Y21.1792
G01 X23.0504 Y21.1801
G01 X23.0626 Y21.1816
G01 X23.1403 Y21.1931
G01 X23.1523 Y21.1952
G01 X23.1643 Y21.1979
G01 X23.2405 Y21.2169
G01 X23.2523 Y21.2202
G01 X23.2640 Y21.2241
G01 X23.3379 Y21.2505
G01 X23.3493 Y21.2549
G01 X23.3605 Y21.2599
G01 X23.4315 Y21.2935
G01 X23.4425 Y21.2990
G01 X23.4531 Y21.3050
G01 X23.5205 Y21.3454
G01 X23.5308 Y21.3520
G01 X23.5409 Y21.3590
G01 X23.6039 Y21.4058
G01 X23.6136 Y21.4133
G01 X23.6229 Y21.4214
G01 X23.6811 Y21.4741
G01 X23.6942 Y21.4869
G01 X23.7511 Y21.5496
G01 X23.7592 Y21.5589
G01 X23.7667 Y21.5686
G01 X23.8135 Y21.6316
G01 X23.8205 Y21.6417
G01 X23.8271 Y21.6520
G01 X23.8675 Y21.7194
G01 X23.8735 Y21.7300
G01 X23.8790 Y21.7410
G01 X23.9126 Y21.8120
G01 X23.9176 Y21.8232
G01 X23.9220 Y21.8346
G01 X23.9484 Y21.9085
G01 X23.9523 Y21.9202
G01 X23.9556 Y21.9320
G01 X23.9746 Y22.0082
G01 X23.9773 Y22.0202
G01 X23.9794 Y22.0322
G01 X23.9909 Y22.1099
G01 X23.9924 Y22.1221
G01 X23.9933 Y22.1343
G01 X23.9972 Y22.2127
G01 X23.9975 Y22.2250
G01 X23.9972 Y22.2373
G01 X23.9933 Y22.3157
G01 X23.9924 Y22.3279
G01 X23.9909 Y22.3401
G01 X23.9794 Y22.4178
G01 X23.9773 Y22.4298
G01 X23.9746 Y22.4418
G01 X23.9556 Y22.5180
G01 X23.9523 Y22.5298
G01 X23.9484 Y22.5415
G01 X23.9220 Y22.6154
G01 X23.9176 Y22.6268
G01 X23.9126 Y22.6380
G01 X23.8763 Y22.7145
G01 X23.8675 Y22.7306
G01 X23.8271 Y22.7980
G01 X23.8205 Y22.8083
G01 X23.8135 Y22.8184
G01 X23.7667 Y22.8814
G01 X23.7592 Y22.8911
G01 X23.7511 Y22.9004
G01 X23.6984 Y22.9586
G01 X23.6900 Y22.9675
G01 X23.6811 Y22.9759
G01 X23.6229 Y23.0286
G01 X23.6088 Y23.0405
G01 X23.5409 Y23.0910
G01 X23.5308 Y23.0980
G01 X23.5205 Y23.1046
G01 X23.4531 Y23.1450
G01 X23.4425 Y23.1510
G01 X23.4315 Y23.1565
G01 X23.3605 Y23.1901
G01 X23.3493 Y23.1951
G01 X23.3379 Y23.1995
G01 X23.2640 Y23.2259
G01 X23.2523 Y23.2298
G01 X23.2405 Y23.2331
G01 X23.1643 Y23.2521
G01 X23.1523 Y23.2548
G01 X23.1403 Y23.2569
G01 X23.0626 Y23.2684
G01 X23.0504 Y23.2699
G01 X23.0328 Y23.2711
G01 X22.4909 Y23.8130
G01 X22.6904 Y23.8590
G01 X22.9232 Y23.8789
G01 X23.1565 Y23.8658
G01 X23.4014 Y23.8171
G01 X23.4135 Y23.8150
G01 X23.4256 Y23.8135
G01 X23.4379 Y23.8126
G01 X23.4501 Y23.8123
G01 X23.4691 Y23.8131
G01 X23.5174 Y23.8090
G01 X23.5359 Y23.8081
G01 X23.5482 Y23.8083
G01 X23.5605 Y23.8091
G01 X23.5727 Y23.8104
G01 X23.5909 Y23.8137
G01 X23.6088 Y23.8182
G01 X23.7202 Y23.8509
G01 X23.7375 Y23.8572
G01 X23.7544 Y23.8647
G01 X23.7653 Y23.8705
G01 X23.7759 Y23.8767
G01 X23.7912 Y23.8870
G01 X23.8833 Y23.9576
G01 X23.8976 Y23.9694
G01 X23.9109 Y23.9822
G01 X23.9232 Y23.9960
G01 X23.9345 Y24.0106
G01 X23.9447 Y24.0260
G01 X24.0018 Y24.1199
G01 X24.0078 Y24.1305
G01 X24.0160 Y24.1469
G01 X24.0207 Y24.1581
G01 X24.0268 Y24.1753
G01 X24.0302 Y24.1870
G01 X24.0329 Y24.1989
G01 X24.0545 Y24.3170
G01 X24.0562 Y24.3298
G01 X24.0574 Y24.3491
G01 X24.0575 Y24.6745
G01 X24.0572 Y24.6861
G01 X24.0564 Y24.6976
G01 X24.0542 Y24.7148
G01 X24.0331 Y24.8285
G01 X24.0306 Y24.8402
G01 X24.0275 Y24.8518
G01 X24.0219 Y24.8689
G01 X24.0175 Y24.8801
G01 X24.0099 Y24.8964
G01 X24.0011 Y24.9121
G01 X23.9438 Y25.0065
G01 X23.9331 Y25.0220
G01 X23.9253 Y25.0318
G01 X23.8662 Y25.0993
G01 X23.7416 Y25.2931
G01 X23.6469 Y25.5032
G01 X23.5844 Y25.7250
G01 X23.5545 Y25.9596
G01 X23.5527 Y26.0290
G01 X23.5702 Y26.2648
G01 X23.6211 Y26.4896
G01 X23.7046 Y26.7044
G01 X23.8154 Y26.8982
G01 X23.8190 Y26.9045
G01 X23.9616 Y27.0854
G01 X24.1295 Y27.2434
G01 X24.3189 Y27.3747
G01 X24.5255 Y27.4766
G01 X24.7450 Y27.5469
G01 X24.9725 Y27.5839
G01 X25.2029 Y27.5870
G01 X25.4313 Y27.5559
G01 X25.6525 Y27.4914
G01 X25.8618 Y27.3949
G01 X26.0545 Y27.2686
G01 X26.2265 Y27.1151
G01 X26.3738 Y26.9379
G01 X26.4934 Y26.7409
G01 X26.5825 Y26.5284
G01 X26.6392 Y26.3050
G01 X26.6623 Y26.0757
G01 X26.6513 Y25.8455
G01 X26.6063 Y25.6195
G01 X26.5284 Y25.4026
G01 X26.4194 Y25.1996
G01 X26.2704 Y25.0000
G01 X26.2633 Y24.9900
G01 X26.2567 Y24.9797
G01 X26.2506 Y24.9690
G01 X26.2450 Y24.9581
G01 X26.2394 Y24.9454
G01 X26.2048 Y24.8859
G01 X26.1971 Y24.8698
G01 X26.1905 Y24.8532
G01 X26.1852 Y24.8361
G01 X26.1823 Y24.8245
G01 X26.1799 Y24.8128
G01 X26.1622 Y24.7114
G01 X26.1604 Y24.6992
G01 X26.1592 Y24.6869
G01 X26.1585 Y24.6684
G01 X26.1586 Y21.6635
G01 X26.1597 Y21.6451
G01 X26.1622 Y21.6269
G01 X26.1861 Y21.5064
G01 X26.1888 Y21.4945
G01 X26.1920 Y21.4826
G01 X26.1980 Y21.4652
G01 X26.2359 Y21.3736
G01 X26.2855 Y21.1669
G01 X26.3022 Y20.9550
G01 X26.2855 Y20.7431
G01 X26.2359 Y20.5364
G01 X26.1545 Y20.3400
G01 X26.1501 Y20.3327
G01 X26.0435 Y20.1587
G01 X25.9054 Y19.9971
G01 X25.7438 Y19.8590
G01 X25.5625 Y19.7480
G01 X25.3661 Y19.6666
G01 X25.1594 Y19.6170
G01 X24.9475 Y19.6003
G01 X24.7899 Y19.6127
G01 X24.7726 Y19.6135
G01 X24.7611 Y19.6133
G01 X24.7438 Y19.6121
G01 X24.6345 Y19.6004
G01 X24.6223 Y19.5988
G01 X24.6042 Y19.5953
G01 X24.5864 Y19.5904
G01 X24.5747 Y19.5865
G01 X24.5576 Y19.5794
G01 X24.5465 Y19.5741
G01 X24.4489 Y19.5237
G01 X24.4328 Y19.5147
G01 X24.4224 Y19.5080
G01 X24.4076 Y19.4970
G01 X24.3935 Y19.4850
G01 X24.3847 Y19.4764
G01 X24.3763 Y19.4674
G01 X24.2996 Y19.3807
G01 X24.2922 Y19.3715
G01 X24.2820 Y19.3572
G01 X24.2757 Y19.3472
G01 X24.2699 Y19.3370
G01 X24.2474 Y19.2923
G01 X24.2421 Y19.2812
G01 X24.1545 Y19.0700
G01 X24.0435 Y18.8887
G01 X23.9054 Y18.7271
G01 X23.7438 Y18.5890
G01 X23.5625 Y18.4780
G01 X23.3661 Y18.3966
G01 X23.1594 Y18.3470
G01 X22.9475 Y18.3303
G01 X22.7356 Y18.3470
G01 X22.5289 Y18.3966
G01 X22.3325 Y18.4780
G01 X22.2041 Y18.5566
G01 X22.1889 Y18.5647
G01 X22.1731 Y18.5718
G01 X22.0650 Y18.6132
G01 X22.0533 Y18.6174
G01 X22.0413 Y18.6209
G01 X22.0230 Y18.6252
G01 X22.0045 Y18.6280
G01 X21.9391 Y18.6339
G01 X21.9222 Y18.6345
G01 X19.6165 Y18.6345
G01 X19.6049 Y18.6342
G01 X19.5934 Y18.6334
G01 X19.5762 Y18.6312
G01 X19.4625 Y18.6101
G01 X19.4502 Y18.6074
G01 X19.4380 Y18.6042
G01 X19.4200 Y18.5981
G01 X19.4026 Y18.5908
G01 X19.3858 Y18.5821
G01 X19.2970 Y18.5292
G01 X19.2817 Y18.5193
G01 X19.2648 Y18.5063
G01 X19.0739 Y18.3664
G01 X18.8802 Y18.2645
G01 X18.8701 Y18.2588
G01 X18.8603 Y18.2528
G01 X18.8507 Y18.2462
G01 X18.8415 Y18.2393
G01 X18.7505 Y18.1673
G01 X18.7368 Y18.1549
G01 X18.7240 Y18.1416
G01 X18.7160 Y18.1322
G01 X18.7085 Y18.1225
G01 X18.7015 Y18.1123
G01 X18.6950 Y18.1019
G01 X18.6361 Y18.0018
G01 X18.6278 Y17.9854
G01 X18.6229 Y17.9741
G01 X18.6185 Y17.9625
G01 X18.6148 Y17.9508
G01 X18.6116 Y17.9389
G01 X18.6090 Y17.9269
G01 X18.5892 Y17.8063
G01 X18.5879 Y17.7940
G01 X18.5871 Y17.7817
G01 X18.5870 Y17.7633
G01 X18.5883 Y17.7448
G01 X18.5910 Y17.7266
G01 X18.6148 Y17.6130
G01 X18.6176 Y17.6010
G01 X18.6211 Y17.5891
G01 X18.6251 Y17.5775
G01 X18.6321 Y17.5604
G01 X18.6375 Y17.5493
G01 X18.6434 Y17.5386
G01 X18.6499 Y17.5281
G01 X18.7098 Y17.4360
G01 X18.7169 Y17.4257
G01 X18.7244 Y17.4158
G01 X18.7366 Y17.4017
G01 X18.7454 Y17.3928
G01 X18.7545 Y17.3844
G01 X18.7641 Y17.3764
G01 X18.7740 Y17.3689
G01 X18.8652 Y17.3037
G01 X18.8800 Y17.2939
G01 X18.8902 Y17.2880
G01 X18.9006 Y17.2826
G01 X19.0038 Y17.2349
G01 X19.1965 Y17.1086
G01 X19.3685 Y16.9551
G01 X19.5158 Y16.7779
G01 X19.6354 Y16.5809
G01 X19.6645 Y16.5115
G01 X19.7245 Y16.3684
G01 X19.7812 Y16.1450
G01 X19.8043 Y15.9157
G01 X19.7933 Y15.6855
G01 X19.7483 Y15.4595
G01 X19.6704 Y15.2426
G01 X19.5614 Y15.0396
G01 X19.4235 Y14.8549
G01 X19.2598 Y14.6927
G01 X19.0739 Y14.5564
G01 X18.8700 Y14.4491
G01 X18.6524 Y14.3731
G01 X18.4260 Y14.3301
G01 X18.1957 Y14.3211
G01 X17.9666 Y14.3462
G01 X17.7438 Y14.4049
G01 X17.5320 Y14.4958
G01 X17.3361 Y14.6171
G01 X17.2402 Y14.6982
G01 X17.2310 Y14.7052
G01 X17.2167 Y14.7150
G01 X17.1113 Y14.7753
G01 X17.1003 Y14.7813
G01 X17.0832 Y14.7891
G01 X17.0715 Y14.7936
G01 X17.0595 Y14.7975
G01 X17.0413 Y14.8022
G01 X17.0290 Y14.8046
G01 X16.9254 Y14.8220
G01 X16.9136 Y14.8234
G01 X16.8958 Y14.8244
G01 X16.3668 Y14.8244
G01 X16.3495 Y14.8234
G01 X16.3323 Y14.8212
G01 X16.2125 Y14.7988
G01 X16.2006 Y14.7960
G01 X16.1829 Y14.7906
G01 X16.1657 Y14.7839
G01 X16.1545 Y14.7788
G01 X16.1435 Y14.7731
G01 X16.1329 Y14.7669
G01 X16.0395 Y14.7090
G01 X16.0286 Y14.7019
G01 X16.0181 Y14.6942
G01 X16.0081 Y14.6860
G01 X15.9843 Y14.6637
G01 X13.0883 Y11.7677
G01 X13.0803 Y11.7593
G01 X13.0728 Y11.7506
G01 X13.0656 Y11.7416
G01 X13.0589 Y11.7322
G01 X12.9933 Y11.6364
G01 X12.9869 Y11.6259
G01 X12.9782 Y11.6096
G01 X12.9707 Y11.5927
G01 X12.9665 Y11.5812
G01 X12.9628 Y11.5694
G01 X12.9596 Y11.5575
G01 X12.9345 Y11.4505
G01 X12.9320 Y11.4385
G01 X12.9293 Y11.4202
G01 X12.9283 Y11.4079
G01 X12.9279 Y11.3895
G01 X12.9288 Y11.3710
G01 X12.9302 Y11.3588
G01 X12.9464 Y11.2438
G01 X12.9487 Y11.2317
G01 X12.9515 Y11.2198
G01 X12.9550 Y11.2080
G01 X12.9591 Y11.1963
G01 X12.9662 Y11.1793
G01 X12.9717 Y11.1682
G01 X12.9906 Y11.1341
G01 X12.9979 Y11.1175
G01 X13.0050 Y11.1038
G01 X13.0050 Y10.0979
G01 X12.9654 Y10.0620
G01 X12.9522 Y10.0491
G01 X12.8854 Y9.9756
G01 X12.8736 Y9.9615
G01 X12.8143 Y9.8817
G01 X12.8072 Y9.8717
G01 X12.8007 Y9.8613
G01 X12.7527 Y9.7814
G01 X12.7439 Y9.7652
G01 X12.7013 Y9.6754
G01 X12.6963 Y9.6642
G01 X12.6919 Y9.6528
G01 X12.6605 Y9.5650
G01 X12.6567 Y9.5533
G01 X12.6534 Y9.5415
G01 X12.6307 Y9.4511
G01 X12.6281 Y9.4391
G01 X12.6260 Y9.4270
G01 X12.6123 Y9.3348
G01 X12.6108 Y9.3226
G01 X12.6099 Y9.3104
G01 X12.6053 Y9.2173
G01 X12.6050 Y9.2050
G01 X12.6051 Y7.2989
G01 X12.6099 Y7.1996
G01 X12.6108 Y7.1874
G01 X12.6123 Y7.1752
G01 X12.6260 Y7.0830
G01 X12.6281 Y7.0709
G01 X12.6307 Y7.0589
G01 X12.6534 Y6.9685
G01 X12.6567 Y6.9567
G01 X12.6605 Y6.9450
G01 X12.6919 Y6.8572
G01 X12.6963 Y6.8458
G01 X12.7013 Y6.8346
G01 X12.7412 Y6.7503
G01 X12.7467 Y6.7393
G01 X12.7527 Y6.7286
G01 X12.8007 Y6.6487
G01 X12.8072 Y6.6383
G01 X12.8143 Y6.6283
G01 X12.8698 Y6.5534
G01 X12.8774 Y6.5437
G01 X12.8854 Y6.5344
G01 X12.9480 Y6.4654
G01 X12.9565 Y6.4565
G01 X12.9654 Y6.4480
G01 X13.0344 Y6.3854
G01 X13.0437 Y6.3774
G01 X13.0534 Y6.3698
G01 X13.1283 Y6.3143
G01 X13.1383 Y6.3072
G01 X13.1487 Y6.3007
G01 X13.2286 Y6.2527
G01 X13.2393 Y6.2467
G01 X13.2503 Y6.2412
G01 X13.3346 Y6.2013
G01 X13.3458 Y6.1963
G01 X13.3572 Y6.1919
G01 X13.4450 Y6.1605
G01 X13.4567 Y6.1567
G01 X13.4685 Y6.1534
G01 X13.5589 Y6.1307
G01 X13.5709 Y6.1281
G01 X13.5830 Y6.1260
G01 X13.6752 Y6.1123
G01 X13.6874 Y6.1108
G01 X13.6996 Y6.1099
G01 X13.7927 Y6.1053
G01 X13.8050 Y6.1050
G01 X13.8173 Y6.1053
G01 X13.9104 Y6.1099
G01 X13.9226 Y6.1108
G01 X13.9348 Y6.1123
G01 X14.0270 Y6.1260
G01 X14.0391 Y6.1281
G01 X14.0511 Y6.1307
G01 X14.1415 Y6.1534
G01 X14.1533 Y6.1567
G01 X14.1650 Y6.1605
G01 X14.2528 Y6.1919
G01 X14.2642 Y6.1963
G01 X14.2754 Y6.2013
G01 X14.3597 Y6.2412
G01 X14.3707 Y6.2467
G01 X14.3814 Y6.2527
G01 X14.4613 Y6.3007
G01 X14.4717 Y6.3072
G01 X14.4817 Y6.3143
G01 X14.5566 Y6.3698
G01 X14.5663 Y6.3774
G01 X14.5756 Y6.3854
G01 X14.6446 Y6.4480
G01 X14.6535 Y6.4565
G01 X14.6620 Y6.4654
G01 X14.7246 Y6.5344
G01 X14.7326 Y6.5437
G01 X14.7402 Y6.5534
G01 X14.7957 Y6.6283
G01 X14.8028 Y6.6383
G01 X14.8093 Y6.6487
G01 X14.8603 Y6.7339
G01 X14.8688 Y6.7503
G01 X14.9087 Y6.8346
G01 X14.9137 Y6.8458
G01 X14.9181 Y6.8572
G01 X14.9495 Y6.9450
G01 X14.9533 Y6.9567
G01 X14.9566 Y6.9685
G01 X14.9793 Y7.0589
G01 X14.9819 Y7.0709
G01 X14.9840 Y7.0830
G01 X14.9977 Y7.1752
G01 X14.9992 Y7.1874
G01 X15.0001 Y7.1996
G01 X15.0049 Y7.2989
G01 X15.0050 Y7.4550
G01 X15.6050 Y7.4550
G01 X15.6050 Y7.2430
G01 X15.5920 Y7.0556
G01 X15.5398 Y6.8093
G01 X15.4540 Y6.5727
G01 X15.3360 Y6.3503
G01 X15.3237 Y6.3305
G01 X15.3154 Y6.3153
G01 X15.3104 Y6.3049
G01 X15.3060 Y6.2942
G01 X15.2637 Y6.1862
G01 X15.2580 Y6.1686
G01 X15.2537 Y6.1506
G01 X15.2515 Y6.1385
G01 X15.2494 Y6.1201
G01 X15.2486 Y6.1017
G01 X15.2482 Y5.9918
G01 X15.2488 Y5.9733
G01 X15.2499 Y5.9611
G01 X15.2517 Y5.9489
G01 X15.2541 Y5.9368
G01 X15.2570 Y5.9248
G01 X15.2625 Y5.9072
G01 X15.3039 Y5.7988
G01 X15.3086 Y5.7874
G01 X15.3167 Y5.7708
G01 X15.3227 Y5.7601
G01 X15.3293 Y5.7496
G01 X15.3401 Y5.7346
G01 X15.3520 Y5.7205
G01 X15.4299 Y5.6345
G01 X15.4431 Y5.6215
G01 X15.4524 Y5.6135
G01 X15.4621 Y5.6059
G01 X15.4773 Y5.5955
G01 X15.4933 Y5.5861
G01 X15.5969 Y5.5339
G01 X15.6082 Y5.5286
G01 X15.6198 Y5.5238
G01 X15.6316 Y5.5196
G01 X15.6436 Y5.5160
G01 X15.6557 Y5.5131
G01 X15.6680 Y5.5107
G01 X15.7630 Y5.4972
G01 X15.7747 Y5.4961
G01 X15.7923 Y5.4955
G01 X20.4575 Y5.4955
G01 X20.4691 Y5.4958
G01 X20.4806 Y5.4966
G01 X20.4978 Y5.4988
G01 X20.6115 Y5.5199
G01 X20.6235 Y5.5225
G01 X20.6354 Y5.5257
G01 X20.6472 Y5.5294
G01 X20.6644 Y5.5361
G01 X20.6811 Y5.5440
G01 X20.6919 Y5.5500
G01 X20.7906 Y5.6110
G01 X20.8059 Y5.6213
G01 X20.8157 Y5.6288
G01 X20.8251 Y5.6367
G01 X20.8341 Y5.6451
G01 X20.8427 Y5.6540
G01 X20.8547 Y5.6680
G01 X20.9284 Y5.7655
G01 X20.9353 Y5.7757
G01 X20.9417 Y5.7862
G01 X20.9503 Y5.8026
G01 X20.9578 Y5.8195
G01 X20.9639 Y5.8369
G01 X20.9957 Y5.9485
G01 X20.9988 Y5.9604
G01 X21.0013 Y5.9725
G01 X21.0039 Y5.9908
G01 X21.0051 Y6.0092
G01 X21.0052 Y6.0215
G01 X21.0042 Y6.0400
G01 X20.9941 Y6.1494
G01 X20.9926 Y6.1616
G01 X20.9893 Y6.1798
G01 X20.9864 Y6.1918
G01 X20.9829 Y6.2036
G01 X20.9765 Y6.2209
G01 X20.9689 Y6.2378
G01 X20.9199 Y6.3361
G01 X20.9106 Y6.3532
G01 X20.8999 Y6.3696
G01 X20.8921 Y6.3800
G01 X20.8796 Y6.3955
G01 X20.8500 Y6.4312
G01 X20.7343 Y6.6219
G01 X20.6480 Y6.8275
G01 X20.5931 Y7.0437
G01 X20.5745 Y7.2288
G01 X20.5745 Y9.2618
G01 X20.5868 Y9.4274
G01 X20.6360 Y9.6449
G01 X20.7169 Y9.8528
G01 X20.8275 Y10.0464
G01 X20.9102 Y10.1514
G01 X20.9201 Y10.1656
G01 X20.9261 Y10.1754
G01 X20.9855 Y10.2881
G01 X20.9905 Y10.2989
G01 X20.9950 Y10.3100
G01 X21.0007 Y10.3269
G01 X21.0053 Y10.3442
G01 X21.0086 Y10.3618
G01 X21.0217 Y10.4495
G01 X21.0233 Y10.4619
G01 X21.0242 Y10.4742
G01 X21.0245 Y10.4867
G01 X21.0245 Y10.9019
G01 X21.0300 Y10.9344
G01 X21.0340 Y10.9657
G01 X21.0365 Y10.9931
G01 X21.0448 Y11.0251
G01 X21.0516 Y11.0558
G01 X21.0564 Y11.0829
G01 X21.0658 Y11.1088
G01 X21.0753 Y11.1389
G01 X21.0841 Y11.1707
G01 X21.0978 Y11.2007
G01 X21.1098 Y11.2298
G01 X21.1193 Y11.2557
G01 X21.1356 Y11.2844
G01 X21.1501 Y11.3123
G01 X21.1618 Y11.3373
G01 X21.1805 Y11.3644
G01 X21.1974 Y11.3910
G01 X21.2112 Y11.4148
G01 X21.2288 Y11.4360
G01 X21.2481 Y11.4610
G01 X21.2672 Y11.4878
G01 X22.6522 Y12.8728
G01 X22.6790 Y12.8919
G01 X22.7040 Y12.9112
G01 X22.7252 Y12.9288
G01 X22.7490 Y12.9426
G01 X22.7756 Y12.9595
G01 X22.8027 Y12.9782
G01 X22.8277 Y12.9899
G01 X22.8557 Y13.0044
G01 X22.8843 Y13.0207
G01 X22.9102 Y13.0302
G01 X22.9393 Y13.0422
G01 X22.9693 Y13.0559
G01 X23.0011 Y13.0647
G01 X23.0312 Y13.0742
G01 X23.0571 Y13.0836
G01 X23.0842 Y13.0884
G01 X23.1149 Y13.0952
G01 X23.1469 Y13.1035
G01 X23.1743 Y13.1060
G01 X23.2056 Y13.1100
G01 X23.2381 Y13.1155
G01 X31.5575 Y13.1155
G01 X31.5690 Y13.1158
G01 X31.5805 Y13.1166
G01 X31.5977 Y13.1188
G01 X31.7114 Y13.1399
G01 X31.7235 Y13.1425
G01 X31.7413 Y13.1475
G01 X31.7587 Y13.1537
G01 X31.7755 Y13.1612
G01 X31.7918 Y13.1700
G01 X31.8905 Y13.2310
G01 X31.9014 Y13.2381
G01 X31.9119 Y13.2458
G01 X31.9219 Y13.2540
G01 X31.9415 Y13.2723
G01 X34.1837 Y15.5143
G01 X34.1917 Y15.5227
G01 X34.1993 Y15.5314
G01 X34.2099 Y15.5451
G01 X34.2753 Y15.6405
G01 X34.2820 Y15.6508
G01 X34.2882 Y15.6615
G01 X34.2938 Y15.6724
G01 X34.2989 Y15.6836
G01 X34.3035 Y15.6951
G01 X34.3075 Y15.7067
G01 X34.3124 Y15.7245
G01 X34.3389 Y15.8378
G01 X34.3422 Y15.8570
G01 X34.3435 Y15.8700
G01 X34.3445 Y15.9025
G01 X34.3444 Y20.9158
G01 X34.3434 Y20.9331
G01 X34.3412 Y20.9502
G01 X34.3201 Y21.0639
G01 X34.3175 Y21.0760
G01 X34.3143 Y21.0879
G01 X34.3085 Y21.1054
G01 X34.3039 Y21.1169
G01 X34.2988 Y21.1281
G01 X34.2900 Y21.1443
G01 X34.2290 Y21.2430
G01 X34.2223 Y21.2534
G01 X34.2112 Y21.2682
G01 X34.1991 Y21.2821
G01 X34.1905 Y21.2909
G01 X34.1768 Y21.3033
G01 X34.1671 Y21.3109
G01 X34.0745 Y21.3808
G01 X34.0591 Y21.3910
G01 X34.0430 Y21.4001
G01 X34.0319 Y21.4054
G01 X34.0205 Y21.4102
G01 X34.0031 Y21.4164
G01 X33.8915 Y21.4482
G01 X33.8791 Y21.4514
G01 X33.8665 Y21.4539
G01 X33.8474 Y21.4565
G01 X33.8346 Y21.4575
G01 X33.7955 Y21.4590
G01 X30.1840 Y21.4590
G01 X30.1840 Y22.3098
G01 X31.7338 Y22.3099
G01 X31.7498 Y22.2762
G01 X31.7556 Y22.2654
G01 X31.8091 Y22.1759
G01 X31.8191 Y22.1605
G01 X31.8812 Y22.0767
G01 X31.8887 Y22.0670
G01 X31.8968 Y22.0577
G01 X31.9668 Y21.9805
G01 X31.9800 Y21.9677
G01 X32.0527 Y21.9018
G01 X32.0620 Y21.8937
G01 X32.0717 Y21.8862
G01 X32.1505 Y21.8277
G01 X32.1605 Y21.8207
G01 X32.1709 Y21.8141
G01 X32.2604 Y21.7606
G01 X32.2767 Y21.7521
G01 X32.3654 Y21.7101
G01 X32.3766 Y21.7052
G01 X32.3881 Y21.7007
G01 X32.4805 Y21.6677
G01 X32.4921 Y21.6638
G01 X32.5040 Y21.6606
G01 X32.5992 Y21.6367
G01 X32.6111 Y21.6340
G01 X32.6232 Y21.6319
G01 X32.7203 Y21.6175
G01 X32.7325 Y21.6160
G01 X32.7447 Y21.6151
G01 X32.8427 Y21.6103
G01 X32.8550 Y21.6100
G01 X32.8673 Y21.6103
G01 X32.9653 Y21.6151
G01 X32.9775 Y21.6160
G01 X32.9897 Y21.6175
G01 X33.0868 Y21.6319
G01 X33.0989 Y21.6340
G01 X33.1108 Y21.6367
G01 X33.2060 Y21.6606
G01 X33.2179 Y21.6638
G01 X33.2295 Y21.6677
G01 X33.3219 Y21.7007
G01 X33.3334 Y21.7052
G01 X33.3446 Y21.7101
G01 X33.4333 Y21.7521
G01 X33.4442 Y21.7576
G01 X33.4549 Y21.7636
G01 X33.5391 Y21.8141
G01 X33.5495 Y21.8207
G01 X33.5595 Y21.8277
G01 X33.6383 Y21.8862
G01 X33.6480 Y21.8937
G01 X33.6573 Y21.9018
G01 X33.7300 Y21.9677
G01 X33.7389 Y21.9761
G01 X33.7473 Y21.9850
G01 X33.8132 Y22.0577
G01 X33.8213 Y22.0670
G01 X33.8288 Y22.0767
G01 X33.8873 Y22.1555
G01 X33.8943 Y22.1655
G01 X33.9009 Y22.1759
G01 X33.9514 Y22.2601
G01 X33.9574 Y22.2708
G01 X33.9629 Y22.2817
G01 X34.0049 Y22.3704
G01 X34.0098 Y22.3816
G01 X34.0143 Y22.3931
G01 X34.0473 Y22.4855
G01 X34.0512 Y22.4971
G01 X34.0544 Y22.5090
G01 X34.0783 Y22.6042
G01 X34.0810 Y22.6161
G01 X34.0831 Y22.6282
G01 X34.0975 Y22.7253
G01 X34.0990 Y22.7375
G01 X34.0999 Y22.7497
G01 X34.1047 Y22.8477
G01 X34.1050 Y22.8600
G01 X34.1047 Y22.8723
G01 X34.0999 Y22.9703
G01 X34.0990 Y22.9825
G01 X34.0975 Y22.9947
G01 X34.0831 Y23.0918
G01 X34.0810 Y23.1039
G01 X34.0783 Y23.1158
G01 X34.0544 Y23.2110
G01 X34.0512 Y23.2229
G01 X34.0473 Y23.2345
G01 X34.0143 Y23.3269
G01 X34.0098 Y23.3384
G01 X34.0049 Y23.3496
G01 X33.9629 Y23.4383
G01 X33.9574 Y23.4492
G01 X33.9514 Y23.4599
G01 X33.9009 Y23.5441
G01 X33.8943 Y23.5545
G01 X33.8873 Y23.5645
G01 X33.8288 Y23.6433
G01 X33.8213 Y23.6530
G01 X33.8132 Y23.6623
G01 X33.7473 Y23.7350
G01 X33.7389 Y23.7439
G01 X33.7300 Y23.7523
G01 X33.6573 Y23.8182
G01 X33.6480 Y23.8263
G01 X33.6383 Y23.8338
G01 X33.5595 Y23.8923
G01 X33.5495 Y23.8993
G01 X33.5391 Y23.9059
G01 X33.4549 Y23.9564
G01 X33.4442 Y23.9624
G01 X33.4333 Y23.9679
G01 X33.3446 Y24.0099
G01 X33.3334 Y24.0148
G01 X33.3219 Y24.0193
G01 X33.2295 Y24.0523
G01 X33.2179 Y24.0562
G01 X33.2060 Y24.0594
G01 X33.1108 Y24.0833
G01 X33.0928 Y24.0871
G01 X32.9897 Y24.1025
G01 X32.9775 Y24.1040
G01 X32.9653 Y24.1049
G01 X32.8673 Y24.1097
G01 X32.8550 Y24.1100
G01 X32.8427 Y24.1097
G01 X32.7447 Y24.1049
G01 X32.7325 Y24.1040
G01 X32.7203 Y24.1025
G01 X32.6232 Y24.0881
G01 X32.6111 Y24.0860
G01 X32.5992 Y24.0833
G01 X32.5040 Y24.0594
G01 X32.4921 Y24.0562
G01 X32.4805 Y24.0523
G01 X32.3881 Y24.0193
G01 X32.3766 Y24.0148
G01 X32.3654 Y24.0099
G01 X32.2712 Y23.9652
G01 X32.2551 Y23.9564
G01 X32.1709 Y23.9059
G01 X32.1605 Y23.8993
G01 X32.1505 Y23.8923
G01 X32.0717 Y23.8338
G01 X32.0620 Y23.8263
G01 X32.0527 Y23.8182
G01 X31.9800 Y23.7523
G01 X31.9668 Y23.7395
G01 X31.8968 Y23.6623
G01 X31.8887 Y23.6530
G01 X31.8812 Y23.6433
G01 X31.8191 Y23.5595
G01 X31.8091 Y23.5441
G01 X31.7556 Y23.4546
G01 X31.7498 Y23.4438
G01 X31.7338 Y23.4102
G01 X30.1840 Y23.4101
G01 X30.1840 Y24.1340
G01 X31.1269 Y24.1341
G01 X31.1441 Y24.1351
G01 X31.1556 Y24.1364
G01 X31.1670 Y24.1383
G01 X31.2811 Y24.1597
G01 X31.2930 Y24.1625
G01 X31.3049 Y24.1660
G01 X31.3165 Y24.1700
G01 X31.3279 Y24.1746
G01 X31.3391 Y24.1797
G01 X31.3501 Y24.1854
G01 X31.3607 Y24.1916
G01 X31.4593 Y24.2528
G01 X31.4695 Y24.2598
G01 X31.4792 Y24.2673
G01 X31.4932 Y24.2794
G01 X31.5062 Y24.2925
G01 X31.5182 Y24.3065
G01 X31.5919 Y24.4040
G01 X31.6021 Y24.4194
G01 X31.6083 Y24.4301
G01 X31.6139 Y24.4411
G01 X31.6213 Y24.4580
G01 X31.6255 Y24.4695
G01 X31.6292 Y24.4813
G01 X31.6609 Y24.5929
G01 X31.6637 Y24.6049
G01 X31.6667 Y24.6232
G01 X31.6680 Y24.6354
G01 X31.6687 Y24.6477
G01 X31.6688 Y24.6600
G01 X31.6682 Y24.6723
G01 X31.6570 Y24.7940
G01 X31.6541 Y24.8123
G01 X31.6499 Y24.8303
G01 X31.6445 Y24.8479
G01 X31.6401 Y24.8594
G01 X31.6351 Y24.8707
G01 X31.5807 Y24.9801
G01 X31.5746 Y24.9908
G01 X31.5681 Y25.0012
G01 X31.5574 Y25.0162
G01 X31.5397 Y25.0380
G01 X31.4862 Y25.0993
G01 X31.3616 Y25.2931
G01 X31.2669 Y25.5032
G01 X31.2044 Y25.7250
G01 X31.1745 Y25.9596
G01 X31.1727 Y26.0290
G01 X31.1902 Y26.2648
G01 X31.2411 Y26.4896
G01 X31.3246 Y26.7044
G01 X31.4390 Y26.9045
G01 X31.5596 Y27.0575
G01 X31.5699 Y27.0715
G01 X31.5791 Y27.0862
G01 X31.5847 Y27.0963
G01 X31.6385 Y27.1989
G01 X31.6458 Y27.2152
G01 X31.6520 Y27.2320
G01 X31.6569 Y27.2492
G01 X31.6595 Y27.2608
G01 X31.6616 Y27.2725
G01 X31.6747 Y27.3603
G01 X31.6763 Y27.3726
G01 X31.6772 Y27.3850
G01 X31.6775 Y27.3974
G01 X31.6775 Y35.0245
G01 X31.6772 Y35.0360
G01 X31.6764 Y35.0475
G01 X31.6742 Y35.0647
G01 X31.6531 Y35.1784
G01 X31.6490 Y35.1964
G01 X31.6436 Y35.2141
G01 X31.6369 Y35.2313
G01 X31.6318 Y35.2425
G01 X31.6230 Y35.2588
G01 X31.5585 Y35.3630
G01 X31.5511 Y35.3737
G01 X31.5432 Y35.3839
G01 X31.5303 Y35.3985
G01 X31.5167 Y35.4127
G01 X30.5349 Y36.3945
G01 X30.5222 Y36.4063
G01 X30.5088 Y36.4172
G01 X30.4087 Y36.4861
G01 X30.3986 Y36.4927
G01 X30.3828 Y36.5016
G01 X30.3720 Y36.5069
G01 X30.3609 Y36.5117
G01 X30.3439 Y36.5178
G01 X30.3323 Y36.5213
G01 X30.2441 Y36.5450
G01 X30.2317 Y36.5480
G01 X30.2191 Y36.5503
G01 X30.2064 Y36.5520
G01 X30.0316 Y36.5712
G01 X29.8088 Y36.6299
G01 X29.5970 Y36.7208
G01 X29.4011 Y36.8421
G01 X29.2252 Y36.9910
G01 X29.0732 Y37.1643
G01 X28.9486 Y37.3581
G01 X28.8539 Y37.5682
G01 X28.7914 Y37.7900
G01 X28.7643 Y38.0025
G01 X28.7626 Y38.0140
G01 X28.7590 Y38.0309
G01 X28.7543 Y38.0476
G01 X28.7206 Y38.1522
G01 X28.7165 Y38.1641
G01 X28.7117 Y38.1759
G01 X28.7063 Y38.1873
G01 X28.7003 Y38.1985
G01 X28.6938 Y38.2094
G01 X28.6831 Y38.2250
G01 X28.6315 Y38.2941
G01 X28.6202 Y38.3082
G01 X28.6121 Y38.3171
G01 X28.0790 Y38.8504
G01 X28.0706 Y38.8583
G01 X28.0619 Y38.8659
G01 X28.0482 Y38.8765
G01 X27.9528 Y38.9419
G01 X27.9372 Y38.9518
G01 X27.9209 Y38.9605
G01 X27.9040 Y38.9680
G01 X27.8866 Y38.9742
G01 X27.8688 Y38.9791
G01 X27.7558 Y39.0055
G01 X27.7376 Y39.0087
G01 X27.7254 Y39.0100
G01 X27.7131 Y39.0107
G01 X27.6946 Y39.0107
G01 X27.6762 Y39.0092
G01 X27.5612 Y38.9933
G01 X27.5430 Y38.9900
G01 X27.5251 Y38.9855
G01 X27.5076 Y38.9796
G01 X27.4906 Y38.9725
G01 X27.4741 Y38.9641
G01 X27.3781 Y38.9106
G01 X27.3623 Y38.9010
G01 X27.3522 Y38.8940
G01 X27.3377 Y38.8826
G01 X27.3285 Y38.8743
G01 X27.3198 Y38.8657
G01 X27.3114 Y38.8566
G01 X27.2372 Y38.7674
G01 X27.2260 Y38.7527
G01 X27.2191 Y38.7425
G01 X27.2097 Y38.7266
G01 X27.2015 Y38.7101
G01 X27.1946 Y38.6929
G01 X27.1557 Y38.5769
G01 X27.1508 Y38.5587
G01 X27.1484 Y38.5463
G01 X27.1465 Y38.5339
G01 X27.1453 Y38.5214
G01 X27.1447 Y38.5088
G01 X27.1450 Y38.4175
G01 X27.1453 Y38.4056
G01 X27.1469 Y38.3879
G01 X27.1496 Y38.3692
G01 X27.1691 Y38.1211
G01 X27.1548 Y37.8692
G01 X27.1065 Y37.6217
G01 X27.0603 Y37.4861
G01 X26.5597 Y37.9867
G01 X26.5647 Y38.0877
G01 X26.5650 Y38.1000
G01 X26.5647 Y38.1123
G01 X26.5599 Y38.2103
G01 X26.5590 Y38.2225
G01 X26.5575 Y38.2347
G01 X26.5431 Y38.3318
G01 X26.5410 Y38.3439
G01 X26.5383 Y38.3558
G01 X26.5144 Y38.4510
G01 X26.5112 Y38.4629
G01 X26.5073 Y38.4745
G01 X26.4743 Y38.5669
G01 X26.4698 Y38.5784
G01 X26.4649 Y38.5896
G01 X26.4229 Y38.6783
G01 X26.4174 Y38.6892
G01 X26.4114 Y38.6999
G01 X26.3609 Y38.7841
G01 X26.3543 Y38.7945
G01 X26.3473 Y38.8045
G01 X26.2851 Y38.8882
G01 X26.2732 Y38.9023
G01 X26.2073 Y38.9750
G01 X26.1989 Y38.9839
G01 X26.1900 Y38.9923
G01 X26.1173 Y39.0582
G01 X26.1080 Y39.0663
G01 X26.0983 Y39.0738
G01 X26.0195 Y39.1323
G01 X26.0095 Y39.1393
G01 X25.9991 Y39.1459
G01 X25.9149 Y39.1964
G01 X25.9042 Y39.2024
G01 X25.8933 Y39.2079
G01 X25.8046 Y39.2499
G01 X25.7934 Y39.2548
G01 X25.7819 Y39.2593
G01 X25.6895 Y39.2923
G01 X25.6779 Y39.2962
G01 X25.6660 Y39.2994
G01 X25.5708 Y39.3233
G01 X25.5589 Y39.3260
G01 X25.5468 Y39.3281
G01 X25.4497 Y39.3425
G01 X25.4375 Y39.3440
G01 X25.4253 Y39.3449
G01 X25.3273 Y39.3497
G01 X25.3150 Y39.3500
G01 X25.3027 Y39.3497
G01 X25.2047 Y39.3449
G01 X25.1925 Y39.3440
G01 X25.1803 Y39.3425
G01 X25.0832 Y39.3281
G01 X25.0711 Y39.3260
G01 X25.0592 Y39.3233
G01 X24.9640 Y39.2994
G01 X24.9521 Y39.2962
G01 X24.9405 Y39.2923
G01 X24.8481 Y39.2593
G01 X24.8366 Y39.2548
G01 X24.8254 Y39.2499
G01 X24.7367 Y39.2079
G01 X24.7258 Y39.2024
G01 X24.7151 Y39.1964
G01 X24.6309 Y39.1459
G01 X24.6205 Y39.1393
G01 X24.6105 Y39.1323
G01 X24.5317 Y39.0738
G01 X24.5220 Y39.0663
G01 X24.5127 Y39.0582
G01 X24.4400 Y38.9923
G01 X24.4311 Y38.9839
G01 X24.4227 Y38.9750
G01 X24.3568 Y38.9023
G01 X24.3487 Y38.8930
G01 X24.3412 Y38.8833
G01 X24.2827 Y38.8045
G01 X24.2757 Y38.7945
G01 X24.2691 Y38.7841
G01 X24.2186 Y38.6999
G01 X24.2126 Y38.6892
G01 X24.2071 Y38.6783
G01 X24.1651 Y38.5896
G01 X24.1602 Y38.5784
G01 X24.1557 Y38.5669
G01 X24.1227 Y38.4745
G01 X24.1188 Y38.4629
G01 X24.1156 Y38.4510
G01 X24.0903 Y38.3499
G01 X24.0869 Y38.3318
G01 X24.0725 Y38.2347
G01 X24.0710 Y38.2225
G01 X24.0701 Y38.2103
G01 X24.0653 Y38.1123
G01 X24.0650 Y38.1000
G01 X24.0653 Y38.0877
G01 X24.0701 Y37.9897
G01 X24.0710 Y37.9775
G01 X24.0725 Y37.9653
G01 X24.0869 Y37.8682
G01 X24.0890 Y37.8561
G01 X24.0917 Y37.8442
G01 X24.1156 Y37.7490
G01 X24.1188 Y37.7371
G01 X24.1227 Y37.7255
G01 X24.1557 Y37.6331
G01 X24.1602 Y37.6216
G01 X24.1651 Y37.6104
G01 X24.2071 Y37.5217
G01 X24.2126 Y37.5108
G01 X24.2186 Y37.5001
G01 X24.2691 Y37.4159
G01 X24.2757 Y37.4055
G01 X24.2827 Y37.3955
G01 X24.3412 Y37.3167
G01 X24.3487 Y37.3070
G01 X24.3568 Y37.2977
G01 X24.4227 Y37.2250
G01 X24.4311 Y37.2161
G01 X24.4400 Y37.2077
G01 X24.5127 Y37.1418
G01 X24.5220 Y37.1337
G01 X24.5317 Y37.1262
G01 X24.6105 Y37.0677
G01 X24.6205 Y37.0607
G01 X24.6309 Y37.0541
G01 X24.7151 Y37.0036
G01 X24.7258 Y36.9976
G01 X24.7367 Y36.9921
G01 X24.8254 Y36.9501
G01 X24.8366 Y36.9452
G01 X24.8481 Y36.9407
G01 X24.9405 Y36.9077
G01 X24.9521 Y36.9038
G01 X24.9640 Y36.9006
G01 X25.0592 Y36.8767
G01 X25.0711 Y36.8740
G01 X25.0832 Y36.8719
G01 X25.1803 Y36.8575
G01 X25.1925 Y36.8560
G01 X25.2047 Y36.8551
G01 X25.3027 Y36.8503
G01 X25.3150 Y36.8500
G01 X25.3273 Y36.8503
G01 X25.4283 Y36.8553
G01 X25.9307 Y36.3529
G01 X25.7179 Y36.2901
G01 X25.4718 Y36.2524
G01 X25.1932 Y36.2477
G01 X25.1812 Y36.2469
G01 X25.1693 Y36.2454
G01 X25.0697 Y36.2311
G01 X25.0520 Y36.2280
G01 X25.0346 Y36.2235
G01 X25.0175 Y36.2178
G01 X25.0064 Y36.2133
G01 X24.9902 Y36.2057
G01 X24.8832 Y36.1469
G01 X24.8676 Y36.1371
G01 X24.8527 Y36.1261
G01 X24.8387 Y36.1140
G01 X24.8299 Y36.1054
G01 X24.8215 Y36.0964
G01 X24.7468 Y36.0076
G01 X24.7391 Y35.9980
G01 X24.7319 Y35.9880
G01 X24.7252 Y35.9777
G01 X24.7190 Y35.9670
G01 X24.7107 Y35.9505
G01 X24.7037 Y35.9334
G01 X24.6660 Y35.8237
G01 X24.6623 Y35.8119
G01 X24.6592 Y35.8000
G01 X24.6567 Y35.7879
G01 X24.6548 Y35.7758
G01 X24.6530 Y35.7574
G01 X24.6526 Y35.7389
G01 X24.6572 Y35.6230
G01 X24.6580 Y35.6107
G01 X24.6594 Y35.5984
G01 X24.6614 Y35.5863
G01 X24.6640 Y35.5742
G01 X24.6690 Y35.5564
G01 X24.6753 Y35.5391
G01 X24.7214 Y35.4326
G01 X24.7268 Y35.4210
G01 X24.7327 Y35.4098
G01 X24.7392 Y35.3988
G01 X24.7463 Y35.3882
G01 X24.7579 Y35.3730
G01 X24.7942 Y35.3291
G01 X24.8020 Y35.3200
G01 X24.8102 Y35.3114
G01 X26.0263 Y34.0954
G01 X26.0389 Y34.0836
G01 X26.0478 Y34.0762
G01 X26.0570 Y34.0692
G01 X26.1575 Y34.0004
G01 X26.1680 Y33.9939
G01 X26.1843 Y33.9852
G01 X26.2012 Y33.9778
G01 X26.2186 Y33.9716
G01 X26.2364 Y33.9667
G01 X26.3434 Y33.9415
G01 X26.3551 Y33.9391
G01 X26.3727 Y33.9365
G01 X26.3846 Y33.9354
G01 X26.4142 Y33.9346
G01 X26.5999 Y33.9370
G01 X26.8283 Y33.9059
G01 X27.0495 Y33.8414
G01 X27.2588 Y33.7449
G01 X27.4515 Y33.6186
G01 X27.6235 Y33.4651
G01 X27.7708 Y33.2879
G01 X27.8904 Y33.0909
G01 X27.9795 Y32.8784
G01 X28.0362 Y32.6550
G01 X28.0593 Y32.4257
G01 X28.0483 Y32.1955
G01 X28.0033 Y31.9695
G01 X27.9254 Y31.7526
G01 X27.8164 Y31.5496
G01 X27.6785 Y31.3649
G01 X27.5148 Y31.2027
G01 X27.3289 Y31.0664
G01 X27.1250 Y30.9591
G01 X26.9074 Y30.8831
G01 X26.6810 Y30.8401
G01 X26.4507 Y30.8311
G01 X26.2216 Y30.8562
G01 X25.9988 Y30.9149
G01 X25.7870 Y31.0058
G01 X25.5911 Y31.1271
G01 X25.4152 Y31.2760
G01 X25.2632 Y31.4493
G01 X25.1386 Y31.6431
G01 X25.0439 Y31.8532
G01 X24.9833 Y32.0681
G01 X24.9780 Y32.0846
G01 X24.9716 Y32.1006
G01 X24.9180 Y32.2096
G01 X24.9089 Y32.2264
G01 X24.8985 Y32.2425
G01 X24.8909 Y32.2527
G01 X24.8551 Y32.2944
G01 X24.8431 Y32.3072
G01 X21.6840 Y35.4664
G01 X21.6649 Y35.4932
G01 X21.6456 Y35.5182
G01 X21.6280 Y35.5394
G01 X21.6142 Y35.5632
G01 X21.5973 Y35.5898
G01 X21.5786 Y35.6169
G01 X21.5669 Y35.6419
G01 X21.5524 Y35.6699
G01 X21.5361 Y35.6985
G01 X21.5266 Y35.7244
G01 X21.5146 Y35.7535
G01 X21.5009 Y35.7835
G01 X21.4921 Y35.8153
G01 X21.4826 Y35.8454
G01 X21.4732 Y35.8713
G01 X21.4673 Y35.9037
G01 X21.4604 Y35.9345
G01 X21.4533 Y35.9611
G01 X21.4502 Y35.9939
G01 X21.4460 Y36.0252
G01 X21.4413 Y36.0523
G01 X21.4413 Y42.0501
G01 X21.4407 Y42.0674
G01 X21.4396 Y42.0789
G01 X21.4380 Y42.0903
G01 X21.4169 Y42.2040
G01 X21.4143 Y42.2161
G01 X21.4093 Y42.2339
G01 X21.4031 Y42.2513
G01 X21.3982 Y42.2626
G01 X21.3928 Y42.2737
G01 X21.3837 Y42.2897
G01 X21.3258 Y42.3831
G01 X21.3191 Y42.3934
G01 X21.3080 Y42.4083
G01 X21.3001 Y42.4177
G01 X21.2917 Y42.4267
G01 X21.2828 Y42.4352
G01 X21.2688 Y42.4473
G01 X21.1762 Y42.5172
G01 X21.1662 Y42.5244
G01 X21.1559 Y42.5311
G01 X21.1452 Y42.5373
G01 X21.1342 Y42.5429
G01 X21.1173 Y42.5503
G01 X21.1058 Y42.5545
G01 X21.0940 Y42.5582
G01 X20.9824 Y42.5899
G01 X20.9704 Y42.5927
G01 X20.9521 Y42.5957
G01 X20.9399 Y42.5970
G01 X20.9276 Y42.5977
G01 X20.9153 Y42.5978
G01 X20.9030 Y42.5972
G01 X20.7814 Y42.5860
G01 X20.7694 Y42.5843
G01 X20.7576 Y42.5820
G01 X20.7400 Y42.5775
G01 X20.7228 Y42.5718
G01 X20.7116 Y42.5673
G01 X20.7006 Y42.5622
G01 X20.6331 Y42.5292
G01 X20.6182 Y42.5229
G01 X20.6072 Y42.5174
G01 X20.5965 Y42.5115
G01 X20.5731 Y42.4967
G01 X20.3686 Y42.3891
G01 X20.1510 Y42.3131
G01 X19.9246 Y42.2701
G01 X19.7504 Y42.2633
G01 X19.7389 Y42.2626
G01 X19.7217 Y42.2605
G01 X19.7047 Y42.2572
G01 X19.5976 Y42.2328
G01 X19.5797 Y42.2281
G01 X19.5680 Y42.2241
G01 X19.5565 Y42.2197
G01 X19.5453 Y42.2146
G01 X19.5343 Y42.2090
G01 X19.5236 Y42.2029
G01 X19.5133 Y42.1963
G01 X19.4171 Y42.1313
G01 X19.4025 Y42.1201
G01 X19.3887 Y42.1077
G01 X19.3759 Y42.0945
G01 X19.3679 Y42.0851
G01 X19.3603 Y42.0753
G01 X19.2906 Y41.9750
G01 X19.2841 Y41.9645
G01 X19.2781 Y41.9538
G01 X19.2726 Y41.9427
G01 X19.2677 Y41.9314
G01 X19.2614 Y41.9141
G01 X19.2579 Y41.9023
G01 X19.2304 Y41.7895
G01 X19.2278 Y41.7774
G01 X19.2258 Y41.7651
G01 X19.2244 Y41.7527
G01 X19.2236 Y41.7403
G01 X19.2234 Y41.7279
G01 X19.2239 Y41.7154
G01 X19.2280 Y41.6476
G01 X19.2296 Y41.6306
G01 X19.2313 Y41.6194
G01 X19.2345 Y41.6025
G01 X19.2414 Y41.5717
G01 X19.2485 Y41.5451
G01 X19.2510 Y41.5177
G01 X19.2550 Y41.4864
G01 X19.2605 Y41.4539
G01 X19.2605 Y39.4603
G01 X19.2608 Y39.4487
G01 X19.2616 Y39.4372
G01 X19.2629 Y39.4257
G01 X19.2648 Y39.4144
G01 X19.2849 Y39.3063
G01 X19.2875 Y39.2942
G01 X19.2907 Y39.2823
G01 X19.2966 Y39.2646
G01 X19.3012 Y39.2531
G01 X19.3064 Y39.2419
G01 X19.3152 Y39.2255
G01 X19.3641 Y39.1424
G01 X19.3702 Y39.1325
G01 X19.3768 Y39.1230
G01 X19.3874 Y39.1092
G01 X19.4758 Y39.0029
G01 X19.5954 Y38.8059
G01 X19.6845 Y38.5934
G01 X19.7412 Y38.3700
G01 X19.7643 Y38.1407
G01 X19.7533 Y37.9105
G01 X19.7083 Y37.6845
G01 X19.6304 Y37.4676
G01 X19.5214 Y37.2646
G01 X19.3724 Y37.0650
G01 X19.3653 Y37.0550
G01 X19.3587 Y37.0447
G01 X19.3526 Y37.0340
G01 X19.3470 Y37.0231
G01 X19.3414 Y37.0104
G01 X19.3068 Y36.9509
G01 X19.3015 Y36.9402
G01 X19.2946 Y36.9238
G01 X19.2906 Y36.9125
G01 X19.2857 Y36.8953
G01 X19.2819 Y36.8778
G01 X19.2642 Y36.7764
G01 X19.2624 Y36.7642
G01 X19.2608 Y36.7458
G01 X19.2605 Y36.7334
G01 X19.2606 Y33.7876
G01 X19.2616 Y33.7703
G01 X19.2638 Y33.7531
G01 X19.2862 Y33.6334
G01 X19.2907 Y33.6153
G01 X19.2966 Y33.5977
G01 X19.3012 Y33.5862
G01 X19.3092 Y33.5695
G01 X19.3152 Y33.5586
G01 X19.3641 Y33.4754
G01 X19.3702 Y33.4656
G01 X19.3768 Y33.4561
G01 X19.3874 Y33.4423
G01 X19.5158 Y33.2879
G01 X19.6354 Y33.0909
G01 X19.7245 Y32.8784
G01 X19.7812 Y32.6550
G01 X19.8043 Y32.4257
G01 X19.7933 Y32.1955
G01 X19.7483 Y31.9695
G01 X19.6704 Y31.7526
G01 X19.5614 Y31.5496
G01 X19.4235 Y31.3649
G01 X19.2598 Y31.2027
G01 X19.0739 Y31.0664
G01 X18.8700 Y30.9591
G01 X18.6524 Y30.8831
G01 X18.4260 Y30.8401
G01 X18.1957 Y30.8311
G01 X17.9666 Y30.8562
G01 X17.7438 Y30.9149
G01 X17.5320 Y31.0058
G01 X17.3361 Y31.1271
G01 X17.2446 Y31.2045
G01 X17.2310 Y31.2152
G01 X17.2216 Y31.2219
G01 X17.2068 Y31.2309
G01 X17.1113 Y31.2853
G01 X17.1003 Y31.2913
G01 X17.0889 Y31.2966
G01 X17.0715 Y31.3036
G01 X17.0535 Y31.3092
G01 X17.0413 Y31.3122
G01 X17.0290 Y31.3146
G01 X16.9254 Y31.3320
G01 X16.9077 Y31.3339
G01 X16.8899 Y31.3345
G01 X15.0968 Y31.3344
G01 X15.0795 Y31.3334
G01 X15.0623 Y31.3312
G01 X14.9486 Y31.3101
G01 X14.9365 Y31.3075
G01 X14.9187 Y31.3025
G01 X14.9013 Y31.2963
G01 X14.8845 Y31.2888
G01 X14.8682 Y31.2800
G01 X14.7640 Y31.2155
G01 X14.7533 Y31.2081
G01 X14.7431 Y31.2002
G01 X14.7285 Y31.1873
G01 X14.7143 Y31.1737
G01 X14.1233 Y30.5825
G01 X14.1117 Y30.5696
G01 X14.1011 Y30.5559
G01 X14.0357 Y30.4605
G01 X14.0259 Y30.4449
G01 X14.0172 Y30.4286
G01 X14.0097 Y30.4117
G01 X14.0035 Y30.3943
G01 X13.9986 Y30.3765
G01 X13.9735 Y30.2695
G01 X13.9708 Y30.2568
G01 X13.9688 Y30.2440
G01 X13.9675 Y30.2310
G01 X13.9665 Y30.1985
G01 X13.9665 Y22.4218
G01 X13.9682 Y22.3794
G01 X13.9705 Y22.3520
G01 X13.9682 Y22.3246
G01 X13.9665 Y22.2822
G01 X13.9665 Y18.0691
G01 X13.9610 Y18.0366
G01 X13.9569 Y18.0053
G01 X13.9545 Y17.9779
G01 X13.9462 Y17.9459
G01 X13.9394 Y17.9152
G01 X13.9346 Y17.8881
G01 X13.9252 Y17.8622
G01 X13.9157 Y17.8321
G01 X13.9069 Y17.8003
G01 X13.8932 Y17.7703
G01 X13.8812 Y17.7412
G01 X13.8717 Y17.7153
G01 X13.8554 Y17.6867
G01 X13.8409 Y17.6587
G01 X13.8292 Y17.6337
G01 X13.8105 Y17.6066
G01 X13.7936 Y17.5800
G01 X13.7798 Y17.5562
G01 X13.7622 Y17.5350
G01 X13.7429 Y17.5100
G01 X13.7238 Y17.4832
G01 X8.0083 Y11.7677
G01 X8.0003 Y11.7593
G01 X7.9891 Y11.7461
G01 X7.9822 Y11.7369
G01 X7.9168 Y11.6415
G01 X7.9069 Y11.6259
G01 X7.9010 Y11.6151
G01 X7.8956 Y11.6041
G01 X7.8885 Y11.5870
G01 X7.8845 Y11.5753
G01 X7.8811 Y11.5635
G01 X7.8545 Y11.4505
G01 X7.8520 Y11.4385
G01 X7.8500 Y11.4263
G01 X7.8487 Y11.4141
G01 X7.8480 Y11.4018
G01 X7.8480 Y11.3833
G01 X7.8488 Y11.3710
G01 X7.8502 Y11.3588
G01 X7.8654 Y11.2499
G01 X7.8687 Y11.2317
G01 X7.8715 Y11.2198
G01 X7.8750 Y11.2080
G01 X7.8791 Y11.1963
G01 X7.8837 Y11.1849
G01 X7.8917 Y11.1682
G01 X7.9106 Y11.1341
G00 Z5.0000
G00 X10.5147 Y10.1412
G01 F60.00
G01 Z-0.1000
G01 F300.00
G01 X10.5037 Y10.1326
G01 X10.4944 Y10.1246
G01 X10.4254 Y10.0620
G01 X10.4165 Y10.0535
G01 X10.4080 Y10.0446
G01 X10.3454 Y9.9756
G01 X10.3374 Y9.9663
G01 X10.3298 Y9.9566
G01 X10.2743 Y9.8817
G01 X10.2672 Y9.8717
G01 X10.2607 Y9.8613
G01 X10.2127 Y9.7814
G01 X10.2067 Y9.7707
G01 X10.2012 Y9.7597
G01 X10.1613 Y9.6754
G01 X10.1563 Y9.6642
G01 X10.1519 Y9.6528
G01 X10.1205 Y9.5650
G01 X10.1167 Y9.5533
G01 X10.1134 Y9.5415
G01 X10.0907 Y9.4511
G01 X10.0881 Y9.4391
G01 X10.0860 Y9.4270
G01 X10.0715 Y9.3287
G01 X10.0699 Y9.3104
G01 X10.0653 Y9.2173
G01 X10.0650 Y9.2050
G01 X10.0651 Y7.2989
G01 X10.0699 Y7.1996
G01 X10.0708 Y7.1874
G01 X10.0723 Y7.1752
G01 X10.0860 Y7.0830
G01 X10.0881 Y7.0709
G01 X10.0907 Y7.0589
G01 X10.1150 Y6.9626
G01 X10.1205 Y6.9450
G01 X10.1519 Y6.8572
G01 X10.1563 Y6.8458
G01 X10.1613 Y6.8346
G01 X10.2012 Y6.7503
G01 X10.2067 Y6.7393
G01 X10.2127 Y6.7286
G01 X10.2607 Y6.6487
G01 X10.2672 Y6.6383
G01 X10.2743 Y6.6283
G01 X10.3298 Y6.5534
G01 X10.3374 Y6.5437
G01 X10.3454 Y6.5344
G01 X10.4080 Y6.4654
G01 X10.4165 Y6.4565
G01 X10.4254 Y6.4480
G01 X10.4944 Y6.3854
G01 X10.5037 Y6.3774
G01 X10.5134 Y6.3698
G01 X10.5883 Y6.3143
G01 X10.5983 Y6.3072
G01 X10.6087 Y6.3007
G01 X10.6886 Y6.2527
G01 X10.6993 Y6.2467
G01 X10.7103 Y6.2412
G01 X10.7946 Y6.2013
G01 X10.8058 Y6.1963
G01 X10.8172 Y6.1919
G01 X10.9050 Y6.1605
G01 X10.9167 Y6.1567
G01 X10.9285 Y6.1534
G01 X11.0189 Y6.1307
G01 X11.0309 Y6.1281
G01 X11.0430 Y6.1260
G01 X11.1352 Y6.1123
G01 X11.1474 Y6.1108
G01 X11.1596 Y6.1099
G01 X11.2527 Y6.1053
G01 X11.2650 Y6.1050
G01 X11.2773 Y6.1053
G01 X11.3704 Y6.1099
G01 X11.3826 Y6.1108
G01 X11.3948 Y6.1123
G01 X11.4870 Y6.1260
G01 X11.4991 Y6.1281
G01 X11.5111 Y6.1307
G01 X11.6074 Y6.1550
G01 X11.6250 Y6.1605
G01 X11.7128 Y6.1919
G01 X11.7242 Y6.1963
G01 X11.7354 Y6.2013
G01 X11.8197 Y6.2412
G01 X11.8307 Y6.2467
G01 X11.8414 Y6.2527
G01 X11.9213 Y6.3007
G01 X11.9317 Y6.3072
G01 X11.9417 Y6.3143
G01 X12.0166 Y6.3698
G01 X12.0263 Y6.3774
G01 X12.0356 Y6.3854
G01 X12.1046 Y6.4480
G01 X12.1135 Y6.4565
G01 X12.1220 Y6.4654
G01 X12.1846 Y6.5344
G01 X12.1926 Y6.5437
G01 X12.2002 Y6.5534
G01 X12.2557 Y6.6283
G01 X12.2628 Y6.6383
G01 X12.2693 Y6.6487
G01 X12.3173 Y6.7286
G01 X12.3233 Y6.7393
G01 X12.3288 Y6.7503
G01 X12.3687 Y6.8346
G01 X12.3737 Y6.8458
G01 X12.3781 Y6.8572
G01 X12.4095 Y6.9450
G01 X12.4133 Y6.9567
G01 X12.4166 Y6.9685
G01 X12.4393 Y7.0589
G01 X12.4419 Y7.0709
G01 X12.4440 Y7.0830
G01 X12.4577 Y7.1752
G01 X12.4597 Y7.1935
G01 X12.4647 Y7.2927
G01 X12.4650 Y7.3050
G01 X12.4650 Y9.2050
G01 X12.4647 Y9.2173
G01 X12.4601 Y9.3104
G01 X12.4585 Y9.3287
G01 X12.4440 Y9.4270
G01 X12.4419 Y9.4391
G01 X12.4393 Y9.4511
G01 X12.4166 Y9.5415
G01 X12.4133 Y9.5533
G01 X12.4095 Y9.5650
G01 X12.3781 Y9.6528
G01 X12.3737 Y9.6642
G01 X12.3687 Y9.6754
G01 X12.3288 Y9.7597
G01 X12.3233 Y9.7707
G01 X12.3173 Y9.7814
G01 X12.2693 Y9.8613
G01 X12.2628 Y9.8717
G01 X12.2557 Y9.8817
G01 X12.2002 Y9.9566
G01 X12.1926 Y9.9663
G01 X12.1846 Y9.9756
G01 X12.1220 Y10.0446
G01 X12.1135 Y10.0535
G01 X12.1046 Y10.0620
G01 X12.0356 Y10.1246
G01 X12.0263 Y10.1326
G01 X12.0153 Y10.1412
G01 X12.0153 Y11.1192
G01 X16.0208 Y15.1247
G01 X17.2517 Y15.1247
G01 X17.2762 Y15.0917
G01 X17.2877 Y15.0773
G01 X17.3618 Y14.9955
G01 X17.3750 Y14.9827
G01 X17.4523 Y14.9127
G01 X17.4667 Y14.9012
G01 X17.5455 Y14.8427
G01 X17.5555 Y14.8357
G01 X17.5659 Y14.8291
G01 X17.6554 Y14.7756
G01 X17.6717 Y14.7671
G01 X17.7604 Y14.7251
G01 X17.7716 Y14.7202
G01 X17.7831 Y14.7157
G01 X17.8755 Y14.6827
G01 X17.8871 Y14.6788
G01 X17.8990 Y14.6756
G01 X17.9942 Y14.6517
G01 X18.0061 Y14.6490
G01 X18.0182 Y14.6469
G01 X18.1153 Y14.6325
G01 X18.1336 Y14.6305
G01 X18.2377 Y14.6253
G01 X18.2500 Y14.6250
G01 X18.2623 Y14.6253
G01 X18.3603 Y14.6301
G01 X18.3725 Y14.6310
G01 X18.3847 Y14.6325
G01 X18.4818 Y14.6469
G01 X18.4939 Y14.6490
G01 X18.5058 Y14.6517
G01 X18.6010 Y14.6756
G01 X18.6129 Y14.6788
G01 X18.6245 Y14.6827
G01 X18.7169 Y14.7157
G01 X18.7284 Y14.7202
G01 X18.7396 Y14.7251
G01 X18.8283 Y14.7671
G01 X18.8392 Y14.7726
G01 X18.8499 Y14.7786
G01 X18.9341 Y14.8291
G01 X18.9445 Y14.8357
G01 X18.9545 Y14.8427
G01 X19.0333 Y14.9012
G01 X19.0430 Y14.9087
G01 X19.0523 Y14.9168
G01 X19.1250 Y14.9827
G01 X19.1339 Y14.9911
G01 X19.1423 Y15.0000
G01 X19.2082 Y15.0727
G01 X19.2163 Y15.0820
G01 X19.2238 Y15.0917
G01 X19.2823 Y15.1705
G01 X19.2893 Y15.1805
G01 X19.2959 Y15.1909
G01 X19.3464 Y15.2751
G01 X19.3524 Y15.2858
G01 X19.3579 Y15.2967
G01 X19.3999 Y15.3854
G01 X19.4048 Y15.3966
G01 X19.4093 Y15.4081
G01 X19.4423 Y15.5005
G01 X19.4462 Y15.5121
G01 X19.4494 Y15.5240
G01 X19.4733 Y15.6192
G01 X19.4760 Y15.6311
G01 X19.4781 Y15.6432
G01 X19.4925 Y15.7403
G01 X19.4940 Y15.7525
G01 X19.4949 Y15.7647
G01 X19.4997 Y15.8627
G01 X19.5000 Y15.8750
G01 X19.4997 Y15.8873
G01 X19.4949 Y15.9853
G01 X19.4940 Y15.9975
G01 X19.4925 Y16.0097
G01 X19.4781 Y16.1068
G01 X19.4760 Y16.1189
G01 X19.4733 Y16.1308
G01 X19.4494 Y16.2260
G01 X19.4462 Y16.2379
G01 X19.4423 Y16.2495
G01 X19.4093 Y16.3419
G01 X19.4048 Y16.3534
G01 X19.3999 Y16.3646
G01 X19.3579 Y16.4533
G01 X19.3524 Y16.4642
G01 X19.3464 Y16.4749
G01 X19.2959 Y16.5591
G01 X19.2893 Y16.5695
G01 X19.2823 Y16.5795
G01 X19.2238 Y16.6583
G01 X19.2163 Y16.6680
G01 X19.2082 Y16.6773
G01 X19.1423 Y16.7500
G01 X19.1339 Y16.7589
G01 X19.1250 Y16.7673
G01 X19.0523 Y16.8332
G01 X19.0430 Y16.8413
G01 X19.0333 Y16.8488
G01 X18.9545 Y16.9073
G01 X18.9445 Y16.9143
G01 X18.9341 Y16.9209
G01 X18.8499 Y16.9714
G01 X18.8392 Y16.9774
G01 X18.8283 Y16.9829
G01 X18.7396 Y17.0249
G01 X18.7284 Y17.0298
G01 X18.7169 Y17.0343
G01 X18.6245 Y17.0673
G01 X18.6129 Y17.0712
G01 X18.6010 Y17.0744
G01 X18.5058 Y17.0983
G01 X18.4939 Y17.1010
G01 X18.4818 Y17.1031
G01 X18.3847 Y17.1175
G01 X18.3725 Y17.1190
G01 X18.3603 Y17.1199
G01 X18.2623 Y17.1247
G01 X18.2439 Y17.1249
G01 X18.1397 Y17.1199
G01 X18.1275 Y17.1190
G01 X18.1153 Y17.1175
G01 X18.0182 Y17.1031
G01 X18.0061 Y17.1010
G01 X17.9942 Y17.0983
G01 X17.8990 Y17.0744
G01 X17.8871 Y17.0712
G01 X17.8755 Y17.0673
G01 X17.7831 Y17.0343
G01 X17.7716 Y17.0298
G01 X17.7604 Y17.0249
G01 X17.6662 Y16.9802
G01 X17.6501 Y16.9714
G01 X17.5659 Y16.9209
G01 X17.5555 Y16.9143
G01 X17.5455 Y16.9073
G01 X17.4667 Y16.8488
G01 X17.4523 Y16.8373
G01 X17.3750 Y16.7673
G01 X17.3618 Y16.7545
G01 X17.2877 Y16.6727
G01 X17.2762 Y16.6583
G01 X17.2517 Y16.6253
G01 X15.7100 Y16.6253
G01 X15.6977 Y16.6249
G01 X15.6426 Y16.6222
G01 X15.6243 Y16.6201
G01 X15.5757 Y16.6129
G01 X15.5636 Y16.6108
G01 X15.5517 Y16.6081
G01 X15.4922 Y16.5929
G01 X15.4343 Y16.5726
G01 X15.4229 Y16.5681
G01 X15.4117 Y16.5632
G01 X15.3563 Y16.5367
G01 X15.3036 Y16.5054
G01 X15.2932 Y16.4988
G01 X15.2832 Y16.4917
G01 X15.2340 Y16.4550
G01 X15.1884 Y16.4140
G01 X15.1795 Y16.4055
G01 X10.7345 Y11.9605
G01 X10.6931 Y11.9152
G01 X10.6850 Y11.9060
G01 X10.6775 Y11.8963
G01 X10.6412 Y11.8468
G01 X10.6094 Y11.7943
G01 X10.6033 Y11.7837
G01 X10.5978 Y11.7727
G01 X10.5719 Y11.7171
G01 X10.5509 Y11.6594
G01 X10.5471 Y11.6478
G01 X10.5319 Y11.5883
G01 X10.5292 Y11.5764
G01 X10.5271 Y11.5643
G01 X10.5184 Y11.5035
G01 X10.5151 Y11.4423
G01 X10.5147 Y11.4300
G01 X10.5147 Y10.1412
G00 Z5.0000
G00 X14.6050 Y10.8175
G01 F60.00
G01 Z-0.1000
G01 F300.00
G01 X14.6050 Y10.0979
G01 X14.6446 Y10.0620
G01 X14.6578 Y10.0491
G01 X14.7287 Y9.9710
G01 X14.7402 Y9.9566
G01 X14.7993 Y9.8767
G01 X14.8093 Y9.8613
G01 X14.8573 Y9.7814
G01 X14.8633 Y9.7707
G01 X14.8688 Y9.7597
G01 X14.9087 Y9.6754
G01 X14.9159 Y9.6585
G01 X14.9495 Y9.5650
G01 X14.9533 Y9.5533
G01 X14.9566 Y9.5415
G01 X14.9793 Y9.4511
G01 X14.9819 Y9.4391
G01 X14.9840 Y9.4270
G01 X14.9977 Y9.3348
G01 X14.9992 Y9.3226
G01 X15.0001 Y9.3104
G01 X15.0049 Y9.2111
G01 X15.0050 Y9.0550
G01 X15.6050 Y9.0550
G01 X15.6050 Y9.3292
G01 X15.5702 Y9.5785
G01 X15.4999 Y9.8237
G01 X15.3973 Y10.0535
G01 X15.2637 Y10.2669
G01 X15.1017 Y10.4596
G01 X14.9145 Y10.6278
G01 X14.7086 Y10.7667
G01 X14.6050 Y10.8175
G00 Z5.0000
G00 X21.3247 Y10.1412
G01 F60.00
G01 Z-0.1000
G01 F300.00
G01 X21.3137 Y10.1326
G01 X21.3044 Y10.1246
G01 X21.2354 Y10.0620
G01 X21.2265 Y10.0535
G01 X21.2180 Y10.0446
G01 X21.1554 Y9.9756
G01 X21.1474 Y9.9663
G01 X21.1398 Y9.9566
G01 X21.0843 Y9.8817
G01 X21.0772 Y9.8717
G01 X21.0707 Y9.8613
G01 X21.0227 Y9.7814
G01 X21.0167 Y9.7707
G01 X21.0112 Y9.7597
G01 X20.9713 Y9.6754
G01 X20.9663 Y9.6642
G01 X20.9619 Y9.6528
G01 X20.9305 Y9.5650
G01 X20.9267 Y9.5533
G01 X20.9234 Y9.5415
G01 X20.9007 Y9.4511
G01 X20.8981 Y9.4391
G01 X20.8960 Y9.4270
G01 X20.8815 Y9.3287
G01 X20.8799 Y9.3104
G01 X20.8753 Y9.2173
G01 X20.8750 Y9.2050
G01 X20.8751 Y7.2989
G01 X20.8799 Y7.1996
G01 X20.8808 Y7.1874
G01 X20.8823 Y7.1752
G01 X20.8960 Y7.0830
G01 X20.8981 Y7.0709
G01 X20.9007 Y7.0589
G01 X20.9250 Y6.9626
G01 X20.9305 Y6.9450
G01 X20.9619 Y6.8572
G01 X20.9663 Y6.8458
G01 X20.9713 Y6.8346
G01 X21.0112 Y6.7503
G01 X21.0167 Y6.7393
G01 X21.0227 Y6.7286
G01 X21.0707 Y6.6487
G01 X21.0772 Y6.6383
G01 X21.0843 Y6.6283
G01 X21.1398 Y6.5534
G01 X21.1474 Y6.5437
G01 X21.1554 Y6.5344
G01 X21.2180 Y6.4654
G01 X21.2265 Y6.4565
G01 X21.2354 Y6.4480
G01 X21.3044 Y6.3854
G01 X21.3137 Y6.3774
G01 X21.3234 Y6.3698
G01 X21.3983 Y6.3143
G01 X21.4083 Y6.3072
G01 X21.4187 Y6.3007
G01 X21.4986 Y6.2527
G01 X21.5093 Y6.2467
G01 X21.5203 Y6.2412
G01 X21.6046 Y6.2013
G01 X21.6158 Y6.1963
G01 X21.6272 Y6.1919
G01 X21.7150 Y6.1605
G01 X21.7267 Y6.1567
G01 X21.7385 Y6.1534
G01 X21.8289 Y6.1307
G01 X21.8409 Y6.1281
G01 X21.8530 Y6.1260
G01 X21.9452 Y6.1123
G01 X21.9574 Y6.1108
G01 X21.9696 Y6.1099
G01 X22.0627 Y6.1053
G01 X22.0750 Y6.1050
G01 X22.0873 Y6.1053
G01 X22.1804 Y6.1099
G01 X22.1926 Y6.1108
G01 X22.2048 Y6.1123
G01 X22.2970 Y6.1260
G01 X22.3091 Y6.1281
G01 X22.3211 Y6.1307
G01 X22.4174 Y6.1550
G01 X22.4350 Y6.1605
G01 X22.5228 Y6.1919
G01 X22.5342 Y6.1963
G01 X22.5454 Y6.2013
G01 X22.6297 Y6.2412
G01 X22.6407 Y6.2467
G01 X22.6514 Y6.2527
G01 X22.7313 Y6.3007
G01 X22.7417 Y6.3072
G01 X22.7517 Y6.3143
G01 X22.8266 Y6.3698
G01 X22.8363 Y6.3774
G01 X22.8456 Y6.3854
G01 X22.9146 Y6.4480
G01 X22.9235 Y6.4565
G01 X22.9320 Y6.4654
G01 X22.9946 Y6.5344
G01 X23.0026 Y6.5437
G01 X23.0102 Y6.5534
G01 X23.0657 Y6.6283
G01 X23.0728 Y6.6383
G01 X23.0793 Y6.6487
G01 X23.1273 Y6.7286
G01 X23.1333 Y6.7393
G01 X23.1388 Y6.7503
G01 X23.1787 Y6.8346
G01 X23.1837 Y6.8458
G01 X23.1881 Y6.8572
G01 X23.2195 Y6.9450
G01 X23.2233 Y6.9567
G01 X23.2266 Y6.9685
G01 X23.2493 Y7.0589
G01 X23.2519 Y7.0709
G01 X23.2540 Y7.0830
G01 X23.2677 Y7.1752
G01 X23.2692 Y7.1874
G01 X23.2701 Y7.1996
G01 X23.2747 Y7.2927
G01 X23.2750 Y7.3050
G01 X23.2750 Y9.2050
G01 X23.2747 Y9.2173
G01 X23.2701 Y9.3104
G01 X23.2685 Y9.3287
G01 X23.2540 Y9.4270
G01 X23.2519 Y9.4391
G01 X23.2493 Y9.4511
G01 X23.2266 Y9.5415
G01 X23.2233 Y9.5533
G01 X23.2195 Y9.5650
G01 X23.1881 Y9.6528
G01 X23.1837 Y9.6642
G01 X23.1787 Y9.6754
G01 X23.1388 Y9.7597
G01 X23.1333 Y9.7707
G01 X23.1273 Y9.7814
G01 X23.0793 Y9.8613
G01 X23.0728 Y9.8717
G01 X23.0657 Y9.8817
G01 X23.0102 Y9.9566
G01 X23.0026 Y9.9663
G01 X22.9946 Y9.9756
G01 X22.9320 Y10.0446
G01 X22.9235 Y10.0535
G01 X22.9146 Y10.0620
G01 X22.8456 Y10.1246
G01 X22.8363 Y10.1326
G01 X22.8253 Y10.1412
G01 X22.8253 Y10.4992
G01 X23.6408 Y11.3147
G01 X32.2200 Y11.3147
G01 X32.2813 Y11.3175
G01 X32.2935 Y11.3184
G01 X32.3057 Y11.3199
G01 X32.3664 Y11.3292
G01 X32.4022 Y11.3378
G01 X32.4378 Y11.3471
G01 X32.4957 Y11.3674
G01 X32.5071 Y11.3719
G01 X32.5183 Y11.3768
G01 X32.5737 Y11.4033
G01 X32.6264 Y11.4346
G01 X32.6368 Y11.4412
G01 X32.6468 Y11.4483
G01 X32.6960 Y11.4850
G01 X32.7253 Y11.5113
G01 X32.7505 Y11.5345
G01 X35.9298 Y14.7139
G01 X35.9710 Y14.7594
G01 X35.9825 Y14.7737
G01 X36.0188 Y14.8232
G01 X36.0506 Y14.8757
G01 X36.0567 Y14.8863
G01 X36.0622 Y14.8973
G01 X36.0881 Y14.9529
G01 X36.0926 Y14.9643
G01 X36.1129 Y15.0222
G01 X36.1222 Y15.0578
G01 X36.1308 Y15.0936
G01 X36.1401 Y15.1543
G01 X36.1416 Y15.1665
G01 X36.1425 Y15.1787
G01 X36.1453 Y15.2400
G01 X36.1453 Y36.1950
G01 X36.1425 Y36.2563
G01 X36.1410 Y36.2746
G01 X36.1329 Y36.3293
G01 X36.1308 Y36.3414
G01 X36.1162 Y36.4010
G01 X36.1129 Y36.4128
G01 X36.1091 Y36.4244
G01 X36.0926 Y36.4707
G01 X36.0857 Y36.4877
G01 X36.0622 Y36.5377
G01 X36.0567 Y36.5487
G01 X36.0506 Y36.5593
G01 X36.0222 Y36.6067
G01 X36.0117 Y36.6218
G01 X35.9825 Y36.6613
G01 X35.9750 Y36.6710
G01 X35.9669 Y36.6802
G01 X35.9255 Y36.7255
G01 X34.2403 Y38.4108
G01 X34.2403 Y44.9580
G01 X34.2375 Y45.0193
G01 X34.2366 Y45.0315
G01 X34.2279 Y45.0923
G01 X34.2246 Y45.1104
G01 X34.2112 Y45.1640
G01 X34.2079 Y45.1758
G01 X34.2041 Y45.1874
G01 X34.1854 Y45.2394
G01 X34.1782 Y45.2563
G01 X34.1517 Y45.3117
G01 X34.1204 Y45.3644
G01 X34.1103 Y45.3799
G01 X34.0738 Y45.4292
G01 X34.0619 Y45.4432
G01 X34.0248 Y45.4841
G01 X32.6235 Y46.8855
G01 X32.6146 Y46.8940
G01 X32.5690 Y46.9350
G01 X32.5198 Y46.9717
G01 X32.5098 Y46.9788
G01 X32.4994 Y46.9854
G01 X32.4467 Y47.0167
G01 X32.3913 Y47.0432
G01 X32.3801 Y47.0481
G01 X32.3687 Y47.0526
G01 X32.3108 Y47.0729
G01 X32.2513 Y47.0881
G01 X32.2394 Y47.0908
G01 X32.2273 Y47.0929
G01 X32.1665 Y47.1016
G01 X32.1543 Y47.1025
G01 X32.0991 Y47.1052
G01 X30.3481 Y47.1053
G01 X30.3236 Y47.1383
G01 X30.3121 Y47.1527
G01 X30.2380 Y47.2345
G01 X30.2248 Y47.2473
G01 X30.1521 Y47.3132
G01 X30.1380 Y47.3251
G01 X30.0543 Y47.3873
G01 X30.0443 Y47.3943
G01 X30.0339 Y47.4009
G01 X29.9497 Y47.4514
G01 X29.9390 Y47.4574
G01 X29.9281 Y47.4629
G01 X29.8394 Y47.5049
G01 X29.8225 Y47.5121
G01 X29.7243 Y47.5473
G01 X29.7127 Y47.5512
G01 X29.7008 Y47.5544
G01 X29.6056 Y47.5783
G01 X29.5937 Y47.5810
G01 X29.5816 Y47.5831
G01 X29.4845 Y47.5975
G01 X29.4723 Y47.5990
G01 X29.4601 Y47.5999
G01 X29.3621 Y47.6047
G01 X29.3498 Y47.6050
G01 X29.3375 Y47.6047
G01 X29.2395 Y47.5999
G01 X29.2273 Y47.5990
G01 X29.2151 Y47.5975
G01 X29.1180 Y47.5831
G01 X29.1059 Y47.5810
G01 X29.0940 Y47.5783
G01 X28.9988 Y47.5544
G01 X28.9869 Y47.5512
G01 X28.9753 Y47.5473
G01 X28.8829 Y47.5143
G01 X28.8714 Y47.5098
G01 X28.8602 Y47.5049
G01 X28.7715 Y47.4629
G01 X28.7606 Y47.4574
G01 X28.7499 Y47.4514
G01 X28.6657 Y47.4009
G01 X28.6553 Y47.3943
G01 X28.6453 Y47.3873
G01 X28.5665 Y47.3288
G01 X28.5568 Y47.3213
G01 X28.5475 Y47.3132
G01 X28.4748 Y47.2473
G01 X28.4659 Y47.2389
G01 X28.4575 Y47.2300
G01 X28.3916 Y47.1573
G01 X28.3835 Y47.1480
G01 X28.3760 Y47.1383
G01 X28.3175 Y47.0595
G01 X28.3105 Y47.0495
G01 X28.3039 Y47.0391
G01 X28.2534 Y46.9549
G01 X28.2474 Y46.9442
G01 X28.2419 Y46.9333
G01 X28.1999 Y46.8446
G01 X28.1950 Y46.8334
G01 X28.1905 Y46.8219
G01 X28.1575 Y46.7295
G01 X28.1536 Y46.7179
G01 X28.1504 Y46.7060
G01 X28.1265 Y46.6108
G01 X28.1238 Y46.5989
G01 X28.1217 Y46.5868
G01 X28.1073 Y46.4897
G01 X28.1058 Y46.4775
G01 X28.1049 Y46.4653
G01 X28.1001 Y46.3673
G01 X28.0998 Y46.3550
G01 X28.1001 Y46.3427
G01 X28.1053 Y46.2386
G01 X28.1073 Y46.2203
G01 X28.1217 Y46.1232
G01 X28.1238 Y46.1111
G01 X28.1265 Y46.0992
G01 X28.1504 Y46.0040
G01 X28.1536 Y45.9921
G01 X28.1575 Y45.9805
G01 X28.1905 Y45.8881
G01 X28.1950 Y45.8766
G01 X28.1999 Y45.8654
G01 X28.2419 Y45.7767
G01 X28.2474 Y45.7658
G01 X28.2534 Y45.7551
G01 X28.3039 Y45.6709
G01 X28.3105 Y45.6605
G01 X28.3175 Y45.6505
G01 X28.3760 Y45.5717
G01 X28.3835 Y45.5620
G01 X28.3916 Y45.5527
G01 X28.4575 Y45.4800
G01 X28.4659 Y45.4711
G01 X28.4748 Y45.4627
G01 X28.5475 Y45.3968
G01 X28.5568 Y45.3887
G01 X28.5665 Y45.3812
G01 X28.6453 Y45.3227
G01 X28.6553 Y45.3157
G01 X28.6657 Y45.3091
G01 X28.7499 Y45.2586
G01 X28.7606 Y45.2526
G01 X28.7715 Y45.2471
G01 X28.8602 Y45.2051
G01 X28.8714 Y45.2002
G01 X28.8829 Y45.1957
G01 X28.9811 Y45.1607
G01 X28.9988 Y45.1556
G01 X29.0940 Y45.1317
G01 X29.1059 Y45.1290
G01 X29.1180 Y45.1269
G01 X29.2151 Y45.1125
G01 X29.2273 Y45.1110
G01 X29.2395 Y45.1101
G01 X29.3375 Y45.1053
G01 X29.3498 Y45.1050
G01 X29.3621 Y45.1053
G01 X29.4601 Y45.1101
G01 X29.4723 Y45.1110
G01 X29.4845 Y45.1125
G01 X29.5816 Y45.1269
G01 X29.5937 Y45.1290
G01 X29.6056 Y45.1317
G01 X29.7008 Y45.1556
G01 X29.7185 Y45.1607
G01 X29.8167 Y45.1957
G01 X29.8282 Y45.2002
G01 X29.8394 Y45.2051
G01 X29.9281 Y45.2471
G01 X29.9390 Y45.2526
G01 X29.9497 Y45.2586
G01 X30.0339 Y45.3091
G01 X30.0493 Y45.3191
G01 X30.1331 Y45.3812
G01 X30.1428 Y45.3887
G01 X30.1521 Y45.3968
G01 X30.2293 Y45.4668
G01 X30.2421 Y45.4800
G01 X30.3121 Y45.5573
G01 X30.3236 Y45.5717
G01 X30.3481 Y45.6047
G01 X31.7822 Y45.6047
G01 X32.7397 Y44.6472
G01 X32.7397 Y38.1000
G01 X32.7425 Y38.0387
G01 X32.7434 Y38.0265
G01 X32.7521 Y37.9657
G01 X32.7554 Y37.9476
G01 X32.7688 Y37.8940
G01 X32.7721 Y37.8822
G01 X32.7924 Y37.8243
G01 X32.7969 Y37.8129
G01 X32.8018 Y37.8017
G01 X32.8283 Y37.7463
G01 X32.8596 Y37.6936
G01 X32.8662 Y37.6832
G01 X32.8733 Y37.6732
G01 X32.9100 Y37.6240
G01 X32.9510 Y37.5784
G01 X32.9595 Y37.5695
G01 X34.6447 Y35.8842
G01 X34.6447 Y15.5508
G01 X31.9092 Y12.8153
G01 X23.3300 Y12.8153
G01 X23.2687 Y12.8125
G01 X23.2565 Y12.8116
G01 X23.1957 Y12.8029
G01 X23.1836 Y12.8008
G01 X23.1717 Y12.7981
G01 X23.1122 Y12.7829
G01 X23.0543 Y12.7626
G01 X23.0429 Y12.7581
G01 X22.9873 Y12.7322
G01 X22.9763 Y12.7267
G01 X22.9657 Y12.7206
G01 X22.9132 Y12.6888
G01 X22.9032 Y12.6817
G01 X22.8540 Y12.6450
G01 X22.8448 Y12.6369
G01 X22.8039 Y12.5998
G01 X21.5445 Y11.3405
G01 X21.5360 Y11.3316
G01 X21.4950 Y11.2860
G01 X21.4691 Y11.2515
G01 X21.4512 Y11.2268
G01 X21.4194 Y11.1743
G01 X21.4133 Y11.1637
G01 X21.3868 Y11.1083
G01 X21.3819 Y11.0971
G01 X21.3774 Y11.0857
G01 X21.3571 Y11.0278
G01 X21.3419 Y10.9683
G01 X21.3380 Y10.9503
G01 X21.3290 Y10.8896
G01 X21.3275 Y10.8713
G01 X21.3247 Y10.8100
G01 X21.3247 Y10.1412
G00 Z5.0000
G00 X24.3577 Y25.0367
G01 F60.00
G01 Z-0.1000
G01 F300.00
G01 X24.3577 Y21.8236
G01 X24.2911 Y21.7742
G01 X24.2814 Y21.7667
G01 X24.2721 Y21.7586
G01 X24.2139 Y21.7059
G01 X24.2050 Y21.6975
G01 X24.1966 Y21.6886
G01 X24.1439 Y21.6304
G01 X24.1358 Y21.6211
G01 X24.1283 Y21.6114
G01 X24.0815 Y21.5484
G01 X24.0745 Y21.5383
G01 X24.0679 Y21.5280
G01 X24.0275 Y21.4606
G01 X24.0215 Y21.4500
G01 X24.0160 Y21.4390
G01 X23.9824 Y21.3680
G01 X23.9774 Y21.3568
G01 X23.9730 Y21.3454
G01 X23.9466 Y21.2715
G01 X23.9427 Y21.2598
G01 X23.9394 Y21.2480
G01 X23.9204 Y21.1718
G01 X23.9177 Y21.1598
G01 X23.9156 Y21.1478
G01 X23.9041 Y21.0701
G01 X23.9026 Y21.0579
G01 X23.9017 Y21.0457
G01 X23.8978 Y20.9673
G01 X23.8975 Y20.9550
G01 X23.8978 Y20.9427
G01 X23.9017 Y20.8643
G01 X23.9026 Y20.8521
G01 X23.9041 Y20.8399
G01 X23.9156 Y20.7622
G01 X23.9177 Y20.7502
G01 X23.9204 Y20.7382
G01 X23.9394 Y20.6620
G01 X23.9427 Y20.6502
G01 X23.9466 Y20.6385
G01 X23.9730 Y20.5646
G01 X23.9774 Y20.5532
G01 X23.9824 Y20.5420
G01 X24.0160 Y20.4710
G01 X24.0215 Y20.4600
G01 X24.0275 Y20.4494
G01 X24.0679 Y20.3820
G01 X24.0745 Y20.3717
G01 X24.0815 Y20.3616
G01 X24.1283 Y20.2986
G01 X24.1358 Y20.2889
G01 X24.1439 Y20.2796
G01 X24.1966 Y20.2214
G01 X24.2050 Y20.2125
G01 X24.2139 Y20.2041
G01 X24.2721 Y20.1514
G01 X24.2814 Y20.1433
G01 X24.2911 Y20.1358
G01 X24.3541 Y20.0890
G01 X24.3642 Y20.0820
G01 X24.3745 Y20.0754
G01 X24.4419 Y20.0350
G01 X24.4525 Y20.0290
G01 X24.4635 Y20.0235
G01 X24.5345 Y19.9899
G01 X24.5457 Y19.9849
G01 X24.5571 Y19.9805
G01 X24.6310 Y19.9541
G01 X24.6427 Y19.9502
G01 X24.6545 Y19.9469
G01 X24.7307 Y19.9279
G01 X24.7427 Y19.9252
G01 X24.7547 Y19.9231
G01 X24.8324 Y19.9116
G01 X24.8446 Y19.9101
G01 X24.8568 Y19.9092
G01 X24.9352 Y19.9053
G01 X24.9475 Y19.9050
G01 X24.9598 Y19.9053
G01 X25.0382 Y19.9092
G01 X25.0504 Y19.9101
G01 X25.0626 Y19.9116
G01 X25.1403 Y19.9231
G01 X25.1523 Y19.9252
G01 X25.1643 Y19.9279
G01 X25.2405 Y19.9469
G01 X25.2523 Y19.9502
G01 X25.2640 Y19.9541
G01 X25.3379 Y19.9805
G01 X25.3493 Y19.9849
G01 X25.3605 Y19.9899
G01 X25.4315 Y20.0235
G01 X25.4425 Y20.0290
G01 X25.4531 Y20.0350
G01 X25.5205 Y20.0754
G01 X25.5308 Y20.0820
G01 X25.5409 Y20.0890
G01 X25.6039 Y20.1358
G01 X25.6136 Y20.1433
G01 X25.6229 Y20.1514
G01 X25.6811 Y20.2041
G01 X25.6900 Y20.2125
G01 X25.6984 Y20.2214
G01 X25.7511 Y20.2796
G01 X25.7592 Y20.2889
G01 X25.7667 Y20.2986
G01 X25.8135 Y20.3616
G01 X25.8205 Y20.3717
G01 X25.8271 Y20.3820
G01 X25.8675 Y20.4494
G01 X25.8735 Y20.4600
G01 X25.8790 Y20.4710
G01 X25.9126 Y20.5420
G01 X25.9176 Y20.5532
G01 X25.9220 Y20.5646
G01 X25.9484 Y20.6385
G01 X25.9523 Y20.6502
G01 X25.9556 Y20.6620
G01 X25.9746 Y20.7382
G01 X25.9773 Y20.7502
G01 X25.9794 Y20.7622
G01 X25.9918 Y20.8460
G01 X25.9933 Y20.8643
G01 X25.9972 Y20.9427
G01 X25.9975 Y20.9550
G01 X25.9972 Y20.9673
G01 X25.9933 Y21.0457
G01 X25.9924 Y21.0579
G01 X25.9909 Y21.0701
G01 X25.9794 Y21.1478
G01 X25.9761 Y21.1658
G01 X25.9556 Y21.2480
G01 X25.9523 Y21.2598
G01 X25.9484 Y21.2715
G01 X25.9199 Y21.3511
G01 X25.9126 Y21.3680
G01 X25.8763 Y21.4445
G01 X25.8706 Y21.4553
G01 X25.8583 Y21.4760
G01 X25.8583 Y25.0367
G01 X25.8913 Y25.0612
G01 X25.9057 Y25.0727
G01 X25.9875 Y25.1468
G01 X26.0003 Y25.1600
G01 X26.0703 Y25.2373
G01 X26.0818 Y25.2517
G01 X26.1403 Y25.3305
G01 X26.1473 Y25.3405
G01 X26.1539 Y25.3509
G01 X26.2044 Y25.4351
G01 X26.2132 Y25.4512
G01 X26.2579 Y25.5454
G01 X26.2628 Y25.5566
G01 X26.2673 Y25.5681
G01 X26.3003 Y25.6605
G01 X26.3042 Y25.6721
G01 X26.3074 Y25.6840
G01 X26.3313 Y25.7792
G01 X26.3340 Y25.7911
G01 X26.3361 Y25.8032
G01 X26.3505 Y25.9003
G01 X26.3520 Y25.9125
G01 X26.3529 Y25.9247
G01 X26.3577 Y26.0227
G01 X26.3579 Y26.0411
G01 X26.3529 Y26.1453
G01 X26.3520 Y26.1575
G01 X26.3505 Y26.1697
G01 X26.3361 Y26.2668
G01 X26.3340 Y26.2789
G01 X26.3313 Y26.2908
G01 X26.3074 Y26.3860
G01 X26.3042 Y26.3979
G01 X26.3003 Y26.4095
G01 X26.2673 Y26.5019
G01 X26.2628 Y26.5134
G01 X26.2579 Y26.5246
G01 X26.2159 Y26.6133
G01 X26.2104 Y26.6242
G01 X26.2044 Y26.6349
G01 X26.1539 Y26.7191
G01 X26.1473 Y26.7295
G01 X26.1403 Y26.7395
G01 X26.0818 Y26.8183
G01 X26.0743 Y26.8280
G01 X26.0662 Y26.8373
G01 X26.0003 Y26.9100
G01 X25.9919 Y26.9189
G01 X25.9830 Y26.9273
G01 X25.9103 Y26.9932
G01 X25.8962 Y27.0051
G01 X25.8125 Y27.0673
G01 X25.8025 Y27.0743
G01 X25.7921 Y27.0809
G01 X25.7079 Y27.1314
G01 X25.6972 Y27.1374
G01 X25.6863 Y27.1429
G01 X25.5976 Y27.1849
G01 X25.5864 Y27.1898
G01 X25.5749 Y27.1943
G01 X25.4825 Y27.2273
G01 X25.4709 Y27.2312
G01 X25.4590 Y27.2344
G01 X25.3638 Y27.2583
G01 X25.3519 Y27.2610
G01 X25.3398 Y27.2631
G01 X25.2427 Y27.2775
G01 X25.2305 Y27.2790
G01 X25.2183 Y27.2799
G01 X25.1203 Y27.2847
G01 X25.1080 Y27.2850
G01 X25.0957 Y27.2847
G01 X24.9977 Y27.2799
G01 X24.9855 Y27.2790
G01 X24.9733 Y27.2775
G01 X24.8762 Y27.2631
G01 X24.8641 Y27.2610
G01 X24.8522 Y27.2583
G01 X24.7570 Y27.2344
G01 X24.7451 Y27.2312
G01 X24.7335 Y27.2273
G01 X24.6411 Y27.1943
G01 X24.6296 Y27.1898
G01 X24.6184 Y27.1849
G01 X24.5297 Y27.1429
G01 X24.5188 Y27.1374
G01 X24.5081 Y27.1314
G01 X24.4239 Y27.0809
G01 X24.4135 Y27.0743
G01 X24.4035 Y27.0673
G01 X24.3247 Y27.0088
G01 X24.3150 Y27.0013
G01 X24.3057 Y26.9932
G01 X24.2330 Y26.9273
G01 X24.2241 Y26.9189
G01 X24.2157 Y26.9100
G01 X24.1498 Y26.8373
G01 X24.1379 Y26.8232
G01 X24.0757 Y26.7395
G01 X24.0687 Y26.7295
G01 X24.0621 Y26.7191
G01 X24.0116 Y26.6349
G01 X24.0056 Y26.6242
G01 X24.0001 Y26.6133
G01 X23.9581 Y26.5246
G01 X23.9532 Y26.5134
G01 X23.9487 Y26.5019
G01 X23.9157 Y26.4095
G01 X23.9118 Y26.3979
G01 X23.9086 Y26.3860
G01 X23.8847 Y26.2908
G01 X23.8820 Y26.2789
G01 X23.8799 Y26.2668
G01 X23.8655 Y26.1697
G01 X23.8640 Y26.1575
G01 X23.8631 Y26.1453
G01 X23.8583 Y26.0473
G01 X23.8580 Y26.0350
G01 X23.8583 Y26.0227
G01 X23.8631 Y25.9247
G01 X23.8647 Y25.9064
G01 X23.8799 Y25.8032
G01 X23.8820 Y25.7911
G01 X23.8847 Y25.7792
G01 X23.9086 Y25.6840
G01 X23.9118 Y25.6721
G01 X23.9157 Y25.6605
G01 X23.9487 Y25.5681
G01 X23.9532 Y25.5566
G01 X23.9581 Y25.5454
G01 X24.0001 Y25.4567
G01 X24.0086 Y25.4404
G01 X24.0621 Y25.3509
G01 X24.0687 Y25.3405
G01 X24.0757 Y25.3305
G01 X24.1342 Y25.2517
G01 X24.1457 Y25.2373
G01 X24.2157 Y25.1600
G01 X24.2285 Y25.1468
G01 X24.3103 Y25.0727
G01 X24.3247 Y25.0612
G01 X24.3577 Y25.0367
G00 Z5.0000
G00 X17.4997 Y25.0367
G01 F60.00
G01 Z-0.1000
G01 F300.00
G01 X17.4997 Y20.6833
G01 X17.4667 Y20.6588
G01 X17.4523 Y20.6473
G01 X17.3705 Y20.5732
G01 X17.3577 Y20.5600
G01 X17.2877 Y20.4827
G01 X17.2762 Y20.4683
G01 X17.2177 Y20.3895
G01 X17.2107 Y20.3795
G01 X17.2041 Y20.3691
G01 X17.1536 Y20.2849
G01 X17.1448 Y20.2688
G01 X17.1001 Y20.1746
G01 X17.0952 Y20.1634
G01 X17.0907 Y20.1519
G01 X17.0577 Y20.0595
G01 X17.0538 Y20.0479
G01 X17.0506 Y20.0360
G01 X17.0267 Y19.9408
G01 X17.0240 Y19.9289
G01 X17.0219 Y19.9168
G01 X17.0075 Y19.8197
G01 X17.0060 Y19.8075
G01 X17.0051 Y19.7953
G01 X17.0001 Y19.6911
G01 X17.0003 Y19.6727
G01 X17.0051 Y19.5747
G01 X17.0060 Y19.5625
G01 X17.0075 Y19.5503
G01 X17.0219 Y19.4532
G01 X17.0240 Y19.4411
G01 X17.0267 Y19.4292
G01 X17.0506 Y19.3340
G01 X17.0538 Y19.3221
G01 X17.0577 Y19.3105
G01 X17.0907 Y19.2181
G01 X17.0952 Y19.2066
G01 X17.1001 Y19.1954
G01 X17.1421 Y19.1067
G01 X17.1476 Y19.0958
G01 X17.1536 Y19.0851
G01 X17.2041 Y19.0009
G01 X17.2107 Y18.9905
G01 X17.2177 Y18.9805
G01 X17.2762 Y18.9017
G01 X17.2837 Y18.8920
G01 X17.2918 Y18.8827
G01 X17.3577 Y18.8100
G01 X17.3661 Y18.8011
G01 X17.3750 Y18.7927
G01 X17.4477 Y18.7268
G01 X17.4570 Y18.7187
G01 X17.4667 Y18.7112
G01 X17.5455 Y18.6527
G01 X17.5555 Y18.6457
G01 X17.5659 Y18.6391
G01 X17.6501 Y18.5886
G01 X17.6608 Y18.5826
G01 X17.6717 Y18.5771
