(G-CODE GENERATED BY FLATCAM v8.994 - www.flatcam.org - Version Date: 2020/11/7)

(Name: hub_interior-B_Cu.gbr_iso_combined_cnc)
(Type: G-code from Geometry)
(Units: MM)

(Created on Wednesday, 24 August 2022 at 11:50)

(This preprocessor is the default preprocessor used by FlatCAM.)
(It is made to work with MACH3 compatible motion controllers.)

(TOOL DIAMETER: 0.5 mm)
(Feedrate_XY: 300.0 mm/min)
(Feedrate_Z: 60.0 mm/min)
(Feedrate rapids 1500.0 mm/min)

(Z_Cut: -0.1 mm)
(Z_Move: 5.0 mm)
(Z Start: None mm)
(Z End: 15.0 mm)
(X,Y End: None mm)
(Steps per circle: 64)
(Preprocessor Geometry: default)

(X range:    0.4505 ...   49.5495  mm)
(Y range:    0.4505 ...   49.5495  mm)

(Spindle Speed: 0.0 RPM)
G21
G90
G94

G01 F300.00

M5
G00 Z15.0000
G00 X0.0000 Y0.0000
T1
M6    
(MSG, Change to Tool Dia = 0.5000)
M0
G00 Z15.0000

M03
G01 F300.00
G00 X6.0697 Y6.7207
G01 F60.00
G01 Z-0.1000
G01 F300.00
G01 X6.0697 Y5.5880
G01 X6.0725 Y5.5267
G01 X6.0734 Y5.5145
G01 X6.0749 Y5.5023
G01 X6.0842 Y5.4416
G01 X6.0988 Y5.3820
G01 X6.1021 Y5.3702
G01 X6.1059 Y5.3586
G01 X6.1269 Y5.3009
G01 X6.1528 Y5.2453
G01 X6.1613 Y5.2290
G01 X6.1896 Y5.1816
G01 X6.1962 Y5.1712
G01 X6.2325 Y5.1217
G01 X6.2440 Y5.1074
G01 X6.2852 Y5.0619
G01 X7.0515 Y4.2955
G01 X7.0604 Y4.2870
G01 X7.1060 Y4.2460
G01 X7.1552 Y4.2093
G01 X7.1652 Y4.2022
G01 X7.2177 Y4.1704
G01 X7.2283 Y4.1643
G01 X7.2393 Y4.1588
G01 X7.2893 Y4.1353
G01 X7.3063 Y4.1284
G01 X7.3642 Y4.1081
G01 X7.3760 Y4.1048
G01 X7.4356 Y4.0902
G01 X7.4963 Y4.0809
G01 X7.5085 Y4.0794
G01 X7.5697 Y4.0761
G01 X7.5820 Y4.0757
G01 X33.9980 Y4.0757
G01 X34.0103 Y4.0761
G01 X34.0715 Y4.0794
G01 X34.1323 Y4.0881
G01 X34.1444 Y4.0902
G01 X34.1563 Y4.0929
G01 X34.2158 Y4.1081
G01 X34.2737 Y4.1284
G01 X34.2907 Y4.1353
G01 X34.3407 Y4.1588
G01 X34.3517 Y4.1643
G01 X34.3623 Y4.1704
G01 X34.4148 Y4.2022
G01 X34.4643 Y4.2385
G01 X34.4786 Y4.2500
G01 X34.5196 Y4.2870
G01 X34.5285 Y4.2955
G01 X35.2905 Y5.0575
G01 X35.2990 Y5.0664
G01 X35.3400 Y5.1120
G01 X35.3767 Y5.1612
G01 X35.3838 Y5.1712
G01 X35.3904 Y5.1816
G01 X35.4217 Y5.2343
G01 X35.4482 Y5.2897
G01 X35.4554 Y5.3066
G01 X35.4741 Y5.3586
G01 X35.4779 Y5.3702
G01 X35.4892 Y5.4138
G01 X35.4958 Y5.4416
G01 X35.5051 Y5.5023
G01 X35.5066 Y5.5145
G01 X35.5099 Y5.5757
G01 X35.5103 Y5.5880
G01 X35.5103 Y6.7407
G01 X35.5636 Y6.7996
G01 X35.5717 Y6.8089
G01 X35.5792 Y6.8186
G01 X35.6260 Y6.8816
G01 X35.6330 Y6.8917
G01 X35.6396 Y6.9020
G01 X35.6800 Y6.9694
G01 X35.6860 Y6.9800
G01 X35.6915 Y6.9910
G01 X35.7251 Y7.0620
G01 X35.7301 Y7.0732
G01 X35.7345 Y7.0846
G01 X35.7609 Y7.1585
G01 X35.7648 Y7.1702
G01 X35.7681 Y7.1820
G01 X35.7871 Y7.2582
G01 X35.7898 Y7.2702
G01 X35.7919 Y7.2822
G01 X35.8034 Y7.3599
G01 X35.8049 Y7.3721
G01 X35.8058 Y7.3843
G01 X35.8097 Y7.4627
G01 X35.8100 Y7.4750
G01 X35.8100 Y9.0750
G01 X35.8097 Y9.0873
G01 X35.8058 Y9.1657
G01 X35.8049 Y9.1779
G01 X35.8034 Y9.1901
G01 X35.7919 Y9.2678
G01 X35.7898 Y9.2798
G01 X35.7871 Y9.2918
G01 X35.7681 Y9.3680
G01 X35.7648 Y9.3798
G01 X35.7609 Y9.3915
G01 X35.7345 Y9.4654
G01 X35.7301 Y9.4768
G01 X35.7251 Y9.4880
G01 X35.6915 Y9.5590
G01 X35.6860 Y9.5700
G01 X35.6800 Y9.5806
G01 X35.6396 Y9.6480
G01 X35.6330 Y9.6583
G01 X35.6260 Y9.6684
G01 X35.5792 Y9.7314
G01 X35.5717 Y9.7411
G01 X35.5636 Y9.7504
G01 X35.5109 Y9.8086
G01 X35.5025 Y9.8175
G01 X35.4936 Y9.8259
G01 X35.4354 Y9.8786
G01 X35.4261 Y9.8867
G01 X35.4164 Y9.8942
G01 X35.3534 Y9.9410
G01 X35.3433 Y9.9480
G01 X35.3330 Y9.9546
G01 X35.2656 Y9.9950
G01 X35.2550 Y10.0010
G01 X35.2440 Y10.0065
G01 X35.1730 Y10.0401
G01 X35.1618 Y10.0451
G01 X35.1504 Y10.0495
G01 X35.0765 Y10.0759
G01 X35.0648 Y10.0798
G01 X35.0530 Y10.0831
G01 X34.9768 Y10.1021
G01 X34.9648 Y10.1048
G01 X34.9528 Y10.1069
G01 X34.8751 Y10.1184
G01 X34.8629 Y10.1199
G01 X34.8507 Y10.1208
G01 X34.7661 Y10.1249
G01 X34.7477 Y10.1247
G01 X34.6693 Y10.1208
G01 X34.6571 Y10.1199
G01 X34.6449 Y10.1184
G01 X34.5672 Y10.1069
G01 X34.5552 Y10.1048
G01 X34.5432 Y10.1021
G01 X34.4670 Y10.0831
G01 X34.4552 Y10.0798
G01 X34.4435 Y10.0759
G01 X34.3696 Y10.0495
G01 X34.3582 Y10.0451
G01 X34.3470 Y10.0401
G01 X34.2760 Y10.0065
G01 X34.2650 Y10.0010
G01 X34.2544 Y9.9950
G01 X34.1870 Y9.9546
G01 X34.1767 Y9.9480
G01 X34.1666 Y9.9410
G01 X34.1036 Y9.8942
G01 X34.0939 Y9.8867
G01 X34.0846 Y9.8786
G01 X34.0264 Y9.8259
G01 X34.0175 Y9.8175
G01 X34.0091 Y9.8086
G01 X33.9564 Y9.7504
G01 X33.9483 Y9.7411
G01 X33.9408 Y9.7314
G01 X33.8940 Y9.6684
G01 X33.8870 Y9.6583
G01 X33.8804 Y9.6480
G01 X33.8400 Y9.5806
G01 X33.8340 Y9.5700
G01 X33.8285 Y9.5590
G01 X33.7949 Y9.4880
G01 X33.7899 Y9.4768
G01 X33.7855 Y9.4654
G01 X33.7591 Y9.3915
G01 X33.7552 Y9.3798
G01 X33.7519 Y9.3680
G01 X33.7314 Y9.2858
G01 X33.7281 Y9.2678
G01 X33.7166 Y9.1901
G01 X33.7151 Y9.1779
G01 X33.7142 Y9.1657
G01 X33.7103 Y9.0873
G01 X33.7100 Y9.0750
G01 X33.7100 Y7.4750
G01 X33.7103 Y7.4627
G01 X33.7145 Y7.3782
G01 X33.7166 Y7.3599
G01 X33.7281 Y7.2822
G01 X33.7302 Y7.2702
G01 X33.7329 Y7.2582
G01 X33.7519 Y7.1820
G01 X33.7552 Y7.1702
G01 X33.7591 Y7.1585
G01 X33.7855 Y7.0846
G01 X33.7899 Y7.0732
G01 X33.7949 Y7.0620
G01 X33.8285 Y6.9910
G01 X33.8340 Y6.9800
G01 X33.8400 Y6.9694
G01 X33.8804 Y6.9020
G01 X33.8870 Y6.8917
G01 X33.8940 Y6.8816
G01 X33.9408 Y6.8186
G01 X33.9483 Y6.8089
G01 X33.9564 Y6.7996
G01 X34.0097 Y6.7407
G01 X34.0097 Y5.8988
G01 X33.6872 Y5.5763
G01 X24.8573 Y5.5763
G01 X24.8573 Y6.6102
G01 X24.9037 Y6.6619
G01 X24.9112 Y6.6716
G01 X24.9580 Y6.7346
G01 X24.9650 Y6.7447
G01 X24.9716 Y6.7550
G01 X25.0120 Y6.8224
G01 X25.0180 Y6.8330
G01 X25.0235 Y6.8440
G01 X25.0597 Y6.9205
G01 X25.0665 Y6.9376
G01 X25.0929 Y7.0115
G01 X25.0968 Y7.0232
G01 X25.1001 Y7.0350
G01 X25.1191 Y7.1112
G01 X25.1218 Y7.1232
G01 X25.1239 Y7.1352
G01 X25.1354 Y7.2129
G01 X25.1375 Y7.2312
G01 X25.1417 Y7.3157
G01 X25.1420 Y7.3280
G01 X25.1420 Y8.9280
G01 X25.1417 Y8.9403
G01 X25.1378 Y9.0187
G01 X25.1369 Y9.0309
G01 X25.1354 Y9.0431
G01 X25.1229 Y9.1268
G01 X25.1191 Y9.1448
G01 X25.1001 Y9.2210
G01 X25.0968 Y9.2328
G01 X25.0929 Y9.2445
G01 X25.0665 Y9.3184
G01 X25.0621 Y9.3298
G01 X25.0571 Y9.3410
G01 X25.0235 Y9.4120
G01 X25.0180 Y9.4230
G01 X25.0120 Y9.4336
G01 X24.9716 Y9.5010
G01 X24.9650 Y9.5113
G01 X24.9580 Y9.5214
G01 X24.9112 Y9.5844
G01 X24.9037 Y9.5941
G01 X24.8956 Y9.6034
G01 X24.8429 Y9.6616
G01 X24.8345 Y9.6705
G01 X24.8256 Y9.6789
G01 X24.7674 Y9.7316
G01 X24.7581 Y9.7397
G01 X24.7484 Y9.7472
G01 X24.6854 Y9.7940
G01 X24.6753 Y9.8010
G01 X24.6650 Y9.8076
G01 X24.5976 Y9.8480
G01 X24.5870 Y9.8540
G01 X24.5760 Y9.8595
G01 X24.5050 Y9.8931
G01 X24.4938 Y9.8981
G01 X24.4824 Y9.9025
G01 X24.4085 Y9.9289
G01 X24.3968 Y9.9328
G01 X24.3850 Y9.9361
G01 X24.3088 Y9.9551
G01 X24.2968 Y9.9578
G01 X24.2848 Y9.9599
G01 X24.2071 Y9.9714
G01 X24.1949 Y9.9729
G01 X24.1827 Y9.9738
G01 X24.0981 Y9.9779
G01 X24.0797 Y9.9777
G01 X24.0013 Y9.9738
G01 X23.9891 Y9.9729
G01 X23.9769 Y9.9714
G01 X23.8992 Y9.9599
G01 X23.8872 Y9.9578
G01 X23.8752 Y9.9551
G01 X23.7990 Y9.9361
G01 X23.7872 Y9.9328
G01 X23.7755 Y9.9289
G01 X23.7016 Y9.9025
G01 X23.6902 Y9.8981
G01 X23.6790 Y9.8931
G01 X23.6080 Y9.8595
G01 X23.5970 Y9.8540
G01 X23.5864 Y9.8480
G01 X23.5190 Y9.8076
G01 X23.5087 Y9.8010
G01 X23.4986 Y9.7940
G01 X23.4356 Y9.7472
G01 X23.4259 Y9.7397
G01 X23.4166 Y9.7316
G01 X23.3584 Y9.6789
G01 X23.3495 Y9.6705
G01 X23.3411 Y9.6616
G01 X23.2884 Y9.6034
G01 X23.2803 Y9.5941
G01 X23.2728 Y9.5844
G01 X23.2260 Y9.5214
G01 X23.2190 Y9.5113
G01 X23.2124 Y9.5010
G01 X23.1720 Y9.4336
G01 X23.1660 Y9.4230
G01 X23.1605 Y9.4120
G01 X23.1269 Y9.3410
G01 X23.1219 Y9.3298
G01 X23.1175 Y9.3184
G01 X23.0911 Y9.2445
G01 X23.0872 Y9.2328
G01 X23.0839 Y9.2210
G01 X23.0649 Y9.1448
G01 X23.0611 Y9.1268
G01 X23.0486 Y9.0431
G01 X23.0471 Y9.0309
G01 X23.0462 Y9.0187
G01 X23.0423 Y8.9403
G01 X23.0420 Y8.9280
G01 X23.0420 Y7.3280
G01 X23.0423 Y7.3157
G01 X23.0465 Y7.2312
G01 X23.0486 Y7.2129
G01 X23.0601 Y7.1352
G01 X23.0622 Y7.1232
G01 X23.0649 Y7.1112
G01 X23.0839 Y7.0350
G01 X23.0872 Y7.0232
G01 X23.0911 Y7.0115
G01 X23.1175 Y6.9376
G01 X23.1219 Y6.9262
G01 X23.1269 Y6.9150
G01 X23.1605 Y6.8440
G01 X23.1660 Y6.8330
G01 X23.1720 Y6.8224
G01 X23.2124 Y6.7550
G01 X23.2190 Y6.7447
G01 X23.2260 Y6.7346
G01 X23.2728 Y6.6716
G01 X23.2803 Y6.6619
G01 X23.2884 Y6.6526
G01 X23.3411 Y6.5944
G01 X23.3495 Y6.5855
G01 X23.3567 Y6.5786
G01 X23.3567 Y5.5763
G01 X7.8928 Y5.5763
G01 X7.5703 Y5.8988
G01 X7.5703 Y6.7207
G01 X7.6236 Y6.7796
G01 X7.6317 Y6.7889
G01 X7.6392 Y6.7986
G01 X7.6860 Y6.8616
G01 X7.6930 Y6.8717
G01 X7.6996 Y6.8820
G01 X7.7400 Y6.9494
G01 X7.7460 Y6.9600
G01 X7.7515 Y6.9710
G01 X7.7851 Y7.0420
G01 X7.7901 Y7.0532
G01 X7.7945 Y7.0646
G01 X7.8209 Y7.1385
G01 X7.8248 Y7.1502
G01 X7.8281 Y7.1620
G01 X7.8471 Y7.2382
G01 X7.8498 Y7.2502
G01 X7.8519 Y7.2622
G01 X7.8634 Y7.3399
G01 X7.8649 Y7.3521
G01 X7.8658 Y7.3643
G01 X7.8697 Y7.4427
G01 X7.8700 Y7.4550
G01 X7.8700 Y9.0550
G01 X7.8697 Y9.0673
G01 X7.8658 Y9.1457
G01 X7.8649 Y9.1579
G01 X7.8634 Y9.1701
G01 X7.8519 Y9.2478
G01 X7.8498 Y9.2598
G01 X7.8471 Y9.2718
G01 X7.8281 Y9.3480
G01 X7.8248 Y9.3598
G01 X7.8209 Y9.3715
G01 X7.7945 Y9.4454
G01 X7.7901 Y9.4568
G01 X7.7851 Y9.4680
G01 X7.7515 Y9.5390
G01 X7.7460 Y9.5500
G01 X7.7400 Y9.5606
G01 X7.6996 Y9.6280
G01 X7.6930 Y9.6383
G01 X7.6860 Y9.6484
G01 X7.6392 Y9.7114
G01 X7.6317 Y9.7211
G01 X7.6236 Y9.7304
G01 X7.5703 Y9.7893
G01 X7.5703 Y11.7542
G01 X14.9705 Y19.1545
G01 X15.0119 Y19.1998
G01 X15.0200 Y19.2090
G01 X15.0275 Y19.2187
G01 X15.0638 Y19.2682
G01 X15.0704 Y19.2786
G01 X15.0987 Y19.3260
G01 X15.1072 Y19.3423
G01 X15.1331 Y19.3979
G01 X15.1541 Y19.4556
G01 X15.1579 Y19.4672
G01 X15.1612 Y19.4790
G01 X15.1758 Y19.5386
G01 X15.1851 Y19.5993
G01 X15.1866 Y19.6115
G01 X15.1875 Y19.6237
G01 X15.1903 Y19.6850
G01 X15.1903 Y28.2642
G01 X18.2613 Y31.3353
G01 X18.3407 Y31.3392
G01 X18.3529 Y31.3401
G01 X18.3651 Y31.3416
G01 X18.4428 Y31.3531
G01 X18.4548 Y31.3552
G01 X18.4668 Y31.3579
G01 X18.5430 Y31.3769
G01 X18.5548 Y31.3802
G01 X18.5665 Y31.3841
G01 X18.6404 Y31.4105
G01 X18.6518 Y31.4149
G01 X18.6630 Y31.4199
G01 X18.7340 Y31.4535
G01 X18.7450 Y31.4590
G01 X18.7556 Y31.4650
G01 X18.8230 Y31.5054
G01 X18.8333 Y31.5120
G01 X18.8434 Y31.5190
G01 X18.9064 Y31.5658
G01 X18.9161 Y31.5733
G01 X18.9254 Y31.5814
G01 X18.9881 Y31.6383
G01 X19.0009 Y31.6514
G01 X19.0536 Y31.7096
G01 X19.0617 Y31.7189
G01 X19.0692 Y31.7286
G01 X19.1160 Y31.7916
G01 X19.1230 Y31.8017
G01 X19.1296 Y31.8120
G01 X19.1700 Y31.8794
G01 X19.1760 Y31.8900
G01 X19.1815 Y31.9010
G01 X19.2151 Y31.9720
G01 X19.2201 Y31.9832
G01 X19.2245 Y31.9946
G01 X19.2509 Y32.0685
G01 X19.2548 Y32.0802
G01 X19.2581 Y32.0920
G01 X19.2771 Y32.1682
G01 X19.2798 Y32.1802
G01 X19.2819 Y32.1922
G01 X19.2934 Y32.2699
G01 X19.2949 Y32.2821
G01 X19.2958 Y32.2943
G01 X19.2997 Y32.3727
G01 X19.3000 Y32.3850
G01 X19.2997 Y32.3973
G01 X19.2958 Y32.4757
G01 X19.2949 Y32.4879
G01 X19.2934 Y32.5001
G01 X19.2819 Y32.5778
G01 X19.2798 Y32.5898
G01 X19.2771 Y32.6018
G01 X19.2565 Y32.6839
G01 X19.2509 Y32.7015
G01 X19.2245 Y32.7754
G01 X19.2201 Y32.7868
G01 X19.2151 Y32.7980
G01 X19.1815 Y32.8690
G01 X19.1760 Y32.8800
G01 X19.1700 Y32.8906
G01 X19.1264 Y32.9632
G01 X19.1160 Y32.9784
G01 X19.0692 Y33.0414
G01 X19.0577 Y33.0558
G01 X18.9967 Y33.1231
G01 X18.9881 Y33.1317
G01 X18.9603 Y33.1571
G01 X18.9603 Y37.3657
G01 X19.0136 Y37.4246
G01 X19.0217 Y37.4339
G01 X19.0292 Y37.4436
G01 X19.0760 Y37.5066
G01 X19.0830 Y37.5167
G01 X19.0896 Y37.5270
G01 X19.1300 Y37.5944
G01 X19.1360 Y37.6050
G01 X19.1415 Y37.6160
G01 X19.1751 Y37.6870
G01 X19.1801 Y37.6982
G01 X19.1845 Y37.7096
G01 X19.2109 Y37.7835
G01 X19.2148 Y37.7952
G01 X19.2181 Y37.8070
G01 X19.2371 Y37.8832
G01 X19.2398 Y37.8952
G01 X19.2419 Y37.9072
G01 X19.2534 Y37.9849
G01 X19.2549 Y37.9971
G01 X19.2558 Y38.0093
G01 X19.2597 Y38.0877
G01 X19.2600 Y38.1000
G01 X19.2597 Y38.1123
G01 X19.2558 Y38.1907
G01 X19.2549 Y38.2029
G01 X19.2534 Y38.2151
G01 X19.2419 Y38.2928
G01 X19.2398 Y38.3048
G01 X19.2371 Y38.3168
G01 X19.2181 Y38.3930
G01 X19.2148 Y38.4048
G01 X19.2109 Y38.4165
G01 X19.1845 Y38.4904
G01 X19.1801 Y38.5018
G01 X19.1751 Y38.5130
G01 X19.1415 Y38.5840
G01 X19.1360 Y38.5950
G01 X19.1300 Y38.6056
G01 X19.0896 Y38.6730
G01 X19.0830 Y38.6833
G01 X19.0760 Y38.6934
G01 X19.0292 Y38.7564
G01 X19.0217 Y38.7661
G01 X19.0136 Y38.7754
G01 X18.9603 Y38.8343
G01 X18.9603 Y41.3620
G01 X18.9575 Y41.4233
G01 X18.9560 Y41.4416
G01 X18.9479 Y41.4963
G01 X18.9458 Y41.5084
G01 X18.9312 Y41.5680
G01 X18.9279 Y41.5798
G01 X18.9241 Y41.5914
G01 X18.9031 Y41.6491
G01 X18.8772 Y41.7047
G01 X18.8717 Y41.7157
G01 X18.8404 Y41.7684
G01 X18.8338 Y41.7788
G01 X18.8267 Y41.7888
G01 X18.7900 Y41.8380
G01 X18.7490 Y41.8836
G01 X18.7405 Y41.8925
G01 X17.7303 Y42.9028
G01 X17.7303 Y45.4092
G01 X17.9258 Y45.6047
G01 X20.3859 Y45.6047
G01 X20.4448 Y45.5514
G01 X20.4541 Y45.5433
G01 X20.4638 Y45.5358
G01 X20.5268 Y45.4890
G01 X20.5369 Y45.4820
G01 X20.5472 Y45.4754
G01 X20.6146 Y45.4350
G01 X20.6252 Y45.4290
G01 X20.6362 Y45.4235
G01 X20.7072 Y45.3899
G01 X20.7184 Y45.3849
G01 X20.7298 Y45.3805
G01 X20.8037 Y45.3541
G01 X20.8154 Y45.3502
G01 X20.8272 Y45.3469
G01 X20.9034 Y45.3279
G01 X20.9154 Y45.3252
G01 X20.9274 Y45.3231
G01 X21.0051 Y45.3116
G01 X21.0173 Y45.3101
G01 X21.0295 Y45.3092
G01 X21.1079 Y45.3053
G01 X21.1202 Y45.3050
G01 X21.1325 Y45.3053
G01 X21.2109 Y45.3092
G01 X21.2231 Y45.3101
G01 X21.2353 Y45.3116
G01 X21.3130 Y45.3231
G01 X21.3250 Y45.3252
G01 X21.3370 Y45.3279
G01 X21.4132 Y45.3469
G01 X21.4250 Y45.3502
G01 X21.4367 Y45.3541
G01 X21.5106 Y45.3805
G01 X21.5220 Y45.3849
G01 X21.5332 Y45.3899
G01 X21.6097 Y45.4262
G01 X21.6258 Y45.4350
G01 X21.6932 Y45.4754
G01 X21.7035 Y45.4820
G01 X21.7136 Y45.4890
G01 X21.7766 Y45.5358
G01 X21.7863 Y45.5433
G01 X21.7956 Y45.5514
G01 X21.8538 Y45.6041
G01 X21.8627 Y45.6125
G01 X21.8711 Y45.6214
G01 X21.9238 Y45.6796
G01 X21.9319 Y45.6889
G01 X21.9394 Y45.6986
G01 X21.9862 Y45.7616
G01 X21.9932 Y45.7717
G01 X21.9998 Y45.7820
G01 X22.0402 Y45.8494
G01 X22.0462 Y45.8600
G01 X22.0517 Y45.8710
G01 X22.0853 Y45.9420
G01 X22.0903 Y45.9532
G01 X22.0947 Y45.9646
G01 X22.1211 Y46.0385
G01 X22.1250 Y46.0502
G01 X22.1283 Y46.0620
G01 X22.1473 Y46.1382
G01 X22.1500 Y46.1502
G01 X22.1521 Y46.1622
G01 X22.1636 Y46.2399
G01 X22.1651 Y46.2521
G01 X22.1660 Y46.2643
G01 X22.1699 Y46.3427
G01 X22.1702 Y46.3550
G01 X22.1699 Y46.3673
G01 X22.1660 Y46.4457
G01 X22.1651 Y46.4579
G01 X22.1636 Y46.4701
G01 X22.1521 Y46.5478
G01 X22.1500 Y46.5598
G01 X22.1473 Y46.5718
G01 X22.1283 Y46.6480
G01 X22.1250 Y46.6598
G01 X22.1211 Y46.6715
G01 X22.0947 Y46.7454
G01 X22.0903 Y46.7568
G01 X22.0853 Y46.7680
G01 X22.0517 Y46.8390
G01 X22.0462 Y46.8500
G01 X22.0402 Y46.8606
G01 X21.9998 Y46.9280
G01 X21.9932 Y46.9383
G01 X21.9862 Y46.9484
G01 X21.9394 Y47.0114
G01 X21.9319 Y47.0211
G01 X21.9238 Y47.0304
G01 X21.8711 Y47.0886
G01 X21.8627 Y47.0975
G01 X21.8538 Y47.1059
G01 X21.7956 Y47.1586
G01 X21.7863 Y47.1667
G01 X21.7766 Y47.1742
G01 X21.7136 Y47.2210
G01 X21.7035 Y47.2280
G01 X21.6932 Y47.2346
G01 X21.6258 Y47.2750
G01 X21.6152 Y47.2810
G01 X21.6042 Y47.2865
G01 X21.5332 Y47.3201
G01 X21.5163 Y47.3274
G01 X21.4367 Y47.3559
G01 X21.4250 Y47.3598
G01 X21.4132 Y47.3631
G01 X21.3370 Y47.3821
G01 X21.3250 Y47.3848
G01 X21.3130 Y47.3869
G01 X21.2353 Y47.3984
G01 X21.2231 Y47.3999
G01 X21.2109 Y47.4008
G01 X21.1325 Y47.4047
G01 X21.1202 Y47.4050
G01 X21.1079 Y47.4047
G01 X21.0295 Y47.4008
G01 X21.0173 Y47.3999
G01 X21.0051 Y47.3984
G01 X20.9274 Y47.3869
G01 X20.9154 Y47.3848
G01 X20.9034 Y47.3821
G01 X20.8272 Y47.3631
G01 X20.8154 Y47.3598
G01 X20.8037 Y47.3559
G01 X20.7298 Y47.3295
G01 X20.7184 Y47.3251
G01 X20.7072 Y47.3201
G01 X20.6362 Y47.2865
G01 X20.6252 Y47.2810
G01 X20.6146 Y47.2750
G01 X20.5472 Y47.2346
G01 X20.5369 Y47.2280
G01 X20.5268 Y47.2210
G01 X20.4638 Y47.1742
G01 X20.4541 Y47.1667
G01 X20.4448 Y47.1586
G01 X20.3859 Y47.1053
G01 X17.6150 Y47.1053
G01 X17.5537 Y47.1025
G01 X17.5415 Y47.1016
G01 X17.5293 Y47.1001
G01 X17.4686 Y47.0908
G01 X17.4090 Y47.0762
G01 X17.3972 Y47.0729
G01 X17.3856 Y47.0691
G01 X17.3279 Y47.0481
G01 X17.2723 Y47.0222
G01 X17.2613 Y47.0167
G01 X17.2507 Y47.0106
G01 X17.1982 Y46.9788
G01 X17.1487 Y46.9425
G01 X17.1390 Y46.9350
G01 X17.1298 Y46.9269
G01 X17.0845 Y46.8855
G01 X16.4495 Y46.2505
G01 X16.4410 Y46.2416
G01 X16.4040 Y46.2006
G01 X16.3925 Y46.1863
G01 X16.3562 Y46.1368
G01 X16.3496 Y46.1264
G01 X16.3183 Y46.0737
G01 X16.2918 Y46.0183
G01 X16.2869 Y46.0071
G01 X16.2824 Y45.9957
G01 X16.2639 Y45.9436
G01 X16.2588 Y45.9260
G01 X16.2469 Y45.8783
G01 X16.2442 Y45.8664
G01 X16.2421 Y45.8543
G01 X16.2334 Y45.7935
G01 X16.2301 Y45.7323
G01 X16.2297 Y45.7200
G01 X16.2297 Y42.5920
G01 X16.2301 Y42.5797
G01 X16.2334 Y42.5185
G01 X16.2421 Y42.4577
G01 X16.2442 Y42.4456
G01 X16.2469 Y42.4337
G01 X16.2621 Y42.3742
G01 X16.2824 Y42.3163
G01 X16.2893 Y42.2993
G01 X16.3128 Y42.2493
G01 X16.3183 Y42.2383
G01 X16.3244 Y42.2277
G01 X16.3562 Y42.1752
G01 X16.3925 Y42.1257
G01 X16.4040 Y42.1114
G01 X16.4410 Y42.0704
G01 X16.4495 Y42.0615
G01 X17.4597 Y41.0512
G01 X17.4597 Y38.8343
G01 X17.4064 Y38.7754
G01 X17.3983 Y38.7661
G01 X17.3908 Y38.7564
G01 X17.3440 Y38.6934
G01 X17.3370 Y38.6833
G01 X17.3304 Y38.6730
G01 X17.2900 Y38.6056
G01 X17.2840 Y38.5950
G01 X17.2785 Y38.5840
G01 X17.2449 Y38.5130
G01 X17.2399 Y38.5018
G01 X17.2355 Y38.4904
G01 X17.2091 Y38.4165
G01 X17.2052 Y38.4048
G01 X17.2019 Y38.3930
G01 X17.1829 Y38.3168
G01 X17.1802 Y38.3048
G01 X17.1781 Y38.2928
G01 X17.1666 Y38.2151
G01 X17.1651 Y38.2029
G01 X17.1642 Y38.1907
G01 X17.1603 Y38.1123
G01 X17.1600 Y38.1000
G01 X17.1603 Y38.0877
G01 X17.1642 Y38.0093
G01 X17.1651 Y37.9971
G01 X17.1666 Y37.9849
G01 X17.1781 Y37.9072
G01 X17.1802 Y37.8952
G01 X17.1829 Y37.8832
G01 X17.2019 Y37.8070
G01 X17.2052 Y37.7952
G01 X17.2091 Y37.7835
G01 X17.2355 Y37.7096
G01 X17.2399 Y37.6982
G01 X17.2449 Y37.6870
G01 X17.2785 Y37.6160
G01 X17.2840 Y37.6050
G01 X17.2900 Y37.5944
G01 X17.3304 Y37.5270
G01 X17.3370 Y37.5167
G01 X17.3440 Y37.5066
G01 X17.3908 Y37.4436
G01 X17.3983 Y37.4339
G01 X17.4064 Y37.4246
G01 X17.4597 Y37.3657
G01 X17.4597 Y33.0752
G01 X17.4423 Y33.0558
G01 X17.4345 Y33.0463
G01 X17.3840 Y32.9784
G01 X17.3736 Y32.9632
G01 X17.3300 Y32.8906
G01 X17.3240 Y32.8800
G01 X17.3185 Y32.8690
G01 X17.2849 Y32.7980
G01 X17.2776 Y32.7811
G01 X17.2491 Y32.7015
G01 X17.2452 Y32.6898
G01 X17.2419 Y32.6780
G01 X17.2229 Y32.6018
G01 X17.2202 Y32.5898
G01 X17.2181 Y32.5778
G01 X17.2066 Y32.5001
G01 X17.2051 Y32.4879
G01 X17.2042 Y32.4757
G01 X17.2003 Y32.3963
G01 X13.9095 Y29.1055
G01 X13.8681 Y29.0602
G01 X13.8600 Y29.0510
G01 X13.8233 Y29.0018
G01 X13.8162 Y28.9918
G01 X13.7844 Y28.9393
G01 X13.7783 Y28.9287
G01 X13.7728 Y28.9177
G01 X13.7469 Y28.8621
G01 X13.7259 Y28.8044
G01 X13.7221 Y28.7928
G01 X13.7069 Y28.7333
G01 X13.7042 Y28.7214
G01 X13.7021 Y28.7093
G01 X13.6934 Y28.6485
G01 X13.6925 Y28.6363
G01 X13.6898 Y28.5811
G01 X13.6897 Y24.2453
G01 X10.3058 Y24.2453
G01 X9.1241 Y25.4268
G01 X9.0832 Y25.4639
G01 X9.0740 Y25.4720
G01 X9.0248 Y25.5087
G01 X9.0148 Y25.5158
G01 X8.9623 Y25.5476
G01 X8.9517 Y25.5537
G01 X8.9407 Y25.5592
G01 X8.8907 Y25.5827
G01 X8.8737 Y25.5896
G01 X8.8158 Y25.6099
G01 X8.8040 Y25.6132
G01 X8.7444 Y25.6278
G01 X8.6837 Y25.6371
G01 X8.6715 Y25.6386
G01 X8.6593 Y25.6395
G01 X8.6041 Y25.6422
G01 X7.0843 Y25.6423
G01 X7.0254 Y25.6956
G01 X7.0161 Y25.7037
G01 X7.0064 Y25.7112
G01 X6.9434 Y25.7580
G01 X6.9333 Y25.7650
G01 X6.9230 Y25.7716
G01 X6.8556 Y25.8120
G01 X6.8450 Y25.8180
G01 X6.8340 Y25.8235
G01 X6.7630 Y25.8571
G01 X6.7518 Y25.8621
G01 X6.7404 Y25.8665
G01 X6.6665 Y25.8929
G01 X6.6548 Y25.8968
G01 X6.6430 Y25.9001
G01 X6.5668 Y25.9191
G01 X6.5548 Y25.9218
G01 X6.5428 Y25.9239
G01 X6.4651 Y25.9354
G01 X6.4529 Y25.9369
G01 X6.4407 Y25.9378
G01 X6.3623 Y25.9417
G01 X6.3500 Y25.9420
G01 X4.7500 Y25.9420
G01 X4.7377 Y25.9417
G01 X4.6593 Y25.9378
G01 X4.6471 Y25.9369
G01 X4.6349 Y25.9354
G01 X4.5572 Y25.9239
G01 X4.5452 Y25.9218
G01 X4.5332 Y25.9191
G01 X4.4570 Y25.9001
G01 X4.4452 Y25.8968
G01 X4.4335 Y25.8929
G01 X4.3596 Y25.8665
G01 X4.3482 Y25.8621
G01 X4.3370 Y25.8571
G01 X4.2660 Y25.8235
G01 X4.2550 Y25.8180
G01 X4.2444 Y25.8120
G01 X4.1770 Y25.7716
G01 X4.1667 Y25.7650
G01 X4.1566 Y25.7580
G01 X4.0936 Y25.7112
G01 X4.0839 Y25.7037
G01 X4.0746 Y25.6956
G01 X4.0164 Y25.6429
G01 X4.0075 Y25.6345
G01 X3.9991 Y25.6256
G01 X3.9464 Y25.5674
G01 X3.9383 Y25.5581
G01 X3.9308 Y25.5484
G01 X3.8840 Y25.4854
G01 X3.8770 Y25.4753
G01 X3.8704 Y25.4650
G01 X3.8300 Y25.3976
G01 X3.8240 Y25.3870
G01 X3.8185 Y25.3760
G01 X3.7849 Y25.3050
G01 X3.7776 Y25.2881
G01 X3.7491 Y25.2085
G01 X3.7452 Y25.1968
G01 X3.7419 Y25.1850
G01 X3.7229 Y25.1088
G01 X3.7202 Y25.0968
G01 X3.7181 Y25.0848
G01 X3.7066 Y25.0071
G01 X3.7051 Y24.9949
G01 X3.7042 Y24.9827
G01 X3.7003 Y24.9043
G01 X3.7000 Y24.8920
G01 X3.7003 Y24.8797
G01 X3.7042 Y24.8013
G01 X3.7051 Y24.7891
G01 X3.7066 Y24.7769
G01 X3.7181 Y24.6992
G01 X3.7202 Y24.6872
G01 X3.7229 Y24.6752
G01 X3.7419 Y24.5990
G01 X3.7452 Y24.5872
G01 X3.7491 Y24.5755
G01 X3.7755 Y24.5016
G01 X3.7799 Y24.4902
G01 X3.7849 Y24.4790
G01 X3.8185 Y24.4080
G01 X3.8240 Y24.3970
G01 X3.8300 Y24.3864
G01 X3.8704 Y24.3190
G01 X3.8770 Y24.3087
G01 X3.8840 Y24.2986
G01 X3.9308 Y24.2356
G01 X3.9383 Y24.2259
G01 X3.9464 Y24.2166
G01 X3.9991 Y24.1584
G01 X4.0075 Y24.1495
G01 X4.0164 Y24.1411
G01 X4.0746 Y24.0884
G01 X4.0839 Y24.0803
G01 X4.0936 Y24.0728
G01 X4.1566 Y24.0260
G01 X4.1667 Y24.0190
G01 X4.1770 Y24.0124
G01 X4.2444 Y23.9720
G01 X4.2550 Y23.9660
G01 X4.2660 Y23.9605
G01 X4.3370 Y23.9269
G01 X4.3482 Y23.9219
G01 X4.3596 Y23.9175
G01 X4.4335 Y23.8911
G01 X4.4452 Y23.8872
G01 X4.4570 Y23.8839
G01 X4.5332 Y23.8649
G01 X4.5452 Y23.8622
G01 X4.5572 Y23.8601
G01 X4.6349 Y23.8486
G01 X4.6471 Y23.8471
G01 X4.6593 Y23.8462
G01 X4.7439 Y23.8421
G01 X6.3500 Y23.8420
G01 X6.3623 Y23.8423
G01 X6.4468 Y23.8465
G01 X6.4651 Y23.8486
G01 X6.5428 Y23.8601
G01 X6.5548 Y23.8622
G01 X6.5668 Y23.8649
G01 X6.6430 Y23.8839
G01 X6.6548 Y23.8872
G01 X6.6665 Y23.8911
G01 X6.7404 Y23.9175
G01 X6.7518 Y23.9219
G01 X6.7630 Y23.9269
G01 X6.8340 Y23.9605
G01 X6.8450 Y23.9660
G01 X6.8556 Y23.9720
G01 X6.9230 Y24.0124
G01 X6.9333 Y24.0190
G01 X6.9434 Y24.0260
G01 X7.0064 Y24.0728
G01 X7.0161 Y24.0803
G01 X7.0254 Y24.0884
G01 X7.0843 Y24.1417
G01 X8.2872 Y24.1417
G01 X9.4645 Y22.9645
G01 X9.4734 Y22.9560
G01 X9.5190 Y22.9150
G01 X9.5682 Y22.8783
G01 X9.5833 Y22.8678
G01 X9.6360 Y22.8363
G01 X9.6523 Y22.8278
G01 X9.7079 Y22.8019
G01 X9.7656 Y22.7809
G01 X9.7772 Y22.7771
G01 X9.7890 Y22.7738
G01 X9.8486 Y22.7592
G01 X9.9093 Y22.7499
G01 X9.9215 Y22.7484
G01 X9.9337 Y22.7475
G01 X9.9950 Y22.7447
G01 X13.6897 Y22.7447
G01 X13.6897 Y19.9958
G01 X11.4622 Y17.7683
G01 X7.0843 Y17.7683
G01 X7.0254 Y17.8216
G01 X7.0161 Y17.8297
G01 X7.0064 Y17.8372
G01 X6.9434 Y17.8840
G01 X6.9333 Y17.8910
G01 X6.9230 Y17.8976
G01 X6.8556 Y17.9380
G01 X6.8450 Y17.9440
G01 X6.8340 Y17.9495
G01 X6.7630 Y17.9831
G01 X6.7518 Y17.9881
G01 X6.7404 Y17.9925
G01 X6.6665 Y18.0189
G01 X6.6548 Y18.0228
G01 X6.6430 Y18.0261
G01 X6.5668 Y18.0451
G01 X6.5548 Y18.0478
G01 X6.5428 Y18.0499
G01 X6.4590 Y18.0623
G01 X6.4407 Y18.0638
G01 X6.3623 Y18.0677
G01 X6.3500 Y18.0680
G01 X4.7439 Y18.0679
G01 X4.6593 Y18.0638
G01 X4.6471 Y18.0629
G01 X4.6349 Y18.0614
G01 X4.5572 Y18.0499
G01 X4.5452 Y18.0478
G01 X4.5332 Y18.0451
G01 X4.4570 Y18.0261
G01 X4.4452 Y18.0228
G01 X4.4335 Y18.0189
G01 X4.3596 Y17.9925
G01 X4.3482 Y17.9881
G01 X4.3370 Y17.9831
G01 X4.2660 Y17.9495
G01 X4.2550 Y17.9440
G01 X4.2444 Y17.9380
G01 X4.1770 Y17.8976
G01 X4.1667 Y17.8910
G01 X4.1566 Y17.8840
G01 X4.0936 Y17.8372
G01 X4.0839 Y17.8297
G01 X4.0746 Y17.8216
G01 X4.0164 Y17.7689
G01 X4.0075 Y17.7605
G01 X3.9991 Y17.7516
G01 X3.9464 Y17.6934
G01 X3.9383 Y17.6841
G01 X3.9308 Y17.6744
G01 X3.8840 Y17.6114
G01 X3.8770 Y17.6013
G01 X3.8704 Y17.5910
G01 X3.8300 Y17.5236
G01 X3.8240 Y17.5130
G01 X3.8185 Y17.5020
G01 X3.7849 Y17.4310
G01 X3.7799 Y17.4198
G01 X3.7755 Y17.4084
G01 X3.7491 Y17.3345
G01 X3.7452 Y17.3228
G01 X3.7419 Y17.3110
G01 X3.7229 Y17.2348
G01 X3.7202 Y17.2228
G01 X3.7181 Y17.2108
G01 X3.7066 Y17.1331
G01 X3.7051 Y17.1209
G01 X3.7042 Y17.1087
G01 X3.7003 Y17.0303
G01 X3.7000 Y17.0180
G01 X3.7003 Y17.0057
G01 X3.7042 Y16.9273
G01 X3.7051 Y16.9151
G01 X3.7066 Y16.9029
G01 X3.7181 Y16.8252
G01 X3.7202 Y16.8132
G01 X3.7229 Y16.8012
G01 X3.7419 Y16.7250
G01 X3.7452 Y16.7132
G01 X3.7491 Y16.7015
G01 X3.7755 Y16.6276
G01 X3.7799 Y16.6162
G01 X3.7849 Y16.6050
G01 X3.8185 Y16.5340
G01 X3.8240 Y16.5230
G01 X3.8300 Y16.5124
G01 X3.8704 Y16.4450
G01 X3.8770 Y16.4347
G01 X3.8840 Y16.4246
G01 X3.9308 Y16.3616
G01 X3.9383 Y16.3519
G01 X3.9464 Y16.3426
G01 X3.9991 Y16.2844
G01 X4.0075 Y16.2755
G01 X4.0164 Y16.2671
G01 X4.0746 Y16.2144
G01 X4.0839 Y16.2063
G01 X4.0936 Y16.1988
G01 X4.1566 Y16.1520
G01 X4.1667 Y16.1450
G01 X4.1770 Y16.1384
G01 X4.2444 Y16.0980
G01 X4.2550 Y16.0920
G01 X4.2660 Y16.0865
G01 X4.3370 Y16.0529
G01 X4.3482 Y16.0479
G01 X4.3596 Y16.0435
G01 X4.4335 Y16.0171
G01 X4.4452 Y16.0132
G01 X4.4570 Y16.0099
G01 X4.5332 Y15.9909
G01 X4.5452 Y15.9882
G01 X4.5572 Y15.9861
G01 X4.6349 Y15.9746
G01 X4.6471 Y15.9731
G01 X4.6593 Y15.9722
G01 X4.7377 Y15.9683
G01 X4.7500 Y15.9680
G01 X6.3500 Y15.9680
G01 X6.3623 Y15.9683
G01 X6.4407 Y15.9722
G01 X6.4529 Y15.9731
G01 X6.4651 Y15.9746
G01 X6.5428 Y15.9861
G01 X6.5548 Y15.9882
G01 X6.5668 Y15.9909
G01 X6.6430 Y16.0099
G01 X6.6548 Y16.0132
G01 X6.6665 Y16.0171
G01 X6.7404 Y16.0435
G01 X6.7518 Y16.0479
G01 X6.7630 Y16.0529
G01 X6.8340 Y16.0865
G01 X6.8450 Y16.0920
G01 X6.8556 Y16.0980
G01 X6.9230 Y16.1384
G01 X6.9333 Y16.1450
G01 X6.9434 Y16.1520
G01 X7.0064 Y16.1988
G01 X7.0161 Y16.2063
G01 X7.0254 Y16.2144
G01 X7.0843 Y16.2677
G01 X9.9617 Y16.2677
G01 X6.2895 Y12.5955
G01 X6.2481 Y12.5502
G01 X6.2400 Y12.5410
G01 X6.2033 Y12.4918
G01 X6.1962 Y12.4818
G01 X6.1896 Y12.4714
G01 X6.1583 Y12.4187
G01 X6.1343 Y12.3686
G01 X6.1269 Y12.3521
G01 X6.1059 Y12.2944
G01 X6.1021 Y12.2828
G01 X6.0988 Y12.2710
G01 X6.0842 Y12.2114
G01 X6.0749 Y12.1507
G01 X6.0734 Y12.1385
G01 X6.0725 Y12.1263
G01 X6.0698 Y12.0711
G01 X6.0697 Y9.7893
G01 X6.0164 Y9.7304
G01 X6.0083 Y9.7211
G01 X6.0008 Y9.7114
G01 X5.9540 Y9.6484
G01 X5.9470 Y9.6383
G01 X5.9404 Y9.6280
G01 X5.9000 Y9.5606
G01 X5.8940 Y9.5500
G01 X5.8885 Y9.5390
G01 X5.8549 Y9.4680
G01 X5.8499 Y9.4568
G01 X5.8455 Y9.4454
G01 X5.8191 Y9.3715
G01 X5.8152 Y9.3598
G01 X5.8119 Y9.3480
G01 X5.7929 Y9.2718
G01 X5.7902 Y9.2598
G01 X5.7881 Y9.2478
G01 X5.7766 Y9.1701
G01 X5.7751 Y9.1579
G01 X5.7742 Y9.1457
G01 X5.7703 Y9.0673
G01 X5.7700 Y9.0550
G01 X5.7700 Y7.4550
G01 X5.7703 Y7.4427
G01 X5.7742 Y7.3643
G01 X5.7757 Y7.3460
G01 X5.7881 Y7.2622
G01 X5.7902 Y7.2502
G01 X5.7929 Y7.2382
G01 X5.8119 Y7.1620
G01 X5.8152 Y7.1502
G01 X5.8191 Y7.1385
G01 X5.8455 Y7.0646
G01 X5.8499 Y7.0532
G01 X5.8549 Y7.0420
G01 X5.8885 Y6.9710
G01 X5.8940 Y6.9600
G01 X5.9000 Y6.9494
G01 X5.9404 Y6.8820
G01 X5.9470 Y6.8717
G01 X5.9540 Y6.8616
G01 X6.0008 Y6.7986
G01 X6.0083 Y6.7889
G01 X6.0164 Y6.7796
G01 X6.0697 Y6.7207
G00 Z5.0000
G00 X8.5600 Y10.5586
G01 F60.00
G01 Z-0.1000
G01 F300.00
G01 X8.5600 Y9.7344
G01 X8.5483 Y9.7211
G01 X8.5408 Y9.7114
G01 X8.4940 Y9.6484
G01 X8.4870 Y9.6383
G01 X8.4804 Y9.6280
G01 X8.4400 Y9.5606
G01 X8.4340 Y9.5500
G01 X8.4285 Y9.5390
G01 X8.3949 Y9.4680
G01 X8.3899 Y9.4568
G01 X8.3855 Y9.4454
G01 X8.3591 Y9.3715
G01 X8.3552 Y9.3598
G01 X8.3519 Y9.3480
G01 X8.3329 Y9.2718
G01 X8.3302 Y9.2598
G01 X8.3281 Y9.2478
G01 X8.3166 Y9.1701
G01 X8.3151 Y9.1579
G01 X8.3142 Y9.1457
G01 X8.3103 Y9.0673
G01 X8.3100 Y9.0550
G01 X8.3101 Y7.4489
G01 X8.3142 Y7.3643
G01 X8.3151 Y7.3521
G01 X8.3166 Y7.3399
G01 X8.3281 Y7.2622
G01 X8.3302 Y7.2502
G01 X8.3329 Y7.2382
G01 X8.3535 Y7.1561
G01 X8.3591 Y7.1385
G01 X8.3855 Y7.0646
G01 X8.3899 Y7.0532
G01 X8.3949 Y7.0420
G01 X8.4285 Y6.9710
G01 X8.4340 Y6.9600
G01 X8.4400 Y6.9494
G01 X8.4804 Y6.8820
G01 X8.4870 Y6.8717
G01 X8.4940 Y6.8616
G01 X8.5408 Y6.7986
G01 X8.5483 Y6.7889
G01 X8.5564 Y6.7796
G01 X8.6091 Y6.7214
G01 X8.6175 Y6.7125
G01 X8.6264 Y6.7041
G01 X8.6846 Y6.6514
G01 X8.6939 Y6.6433
G01 X8.7036 Y6.6358
G01 X8.7666 Y6.5890
G01 X8.7767 Y6.5820
G01 X8.7870 Y6.5754
G01 X8.8544 Y6.5350
G01 X8.8650 Y6.5290
G01 X8.8760 Y6.5235
G01 X8.9470 Y6.4899
G01 X8.9582 Y6.4849
G01 X8.9696 Y6.4805
G01 X9.0435 Y6.4541
G01 X9.0552 Y6.4502
G01 X9.0670 Y6.4469
G01 X9.1432 Y6.4279
G01 X9.1552 Y6.4252
G01 X9.1672 Y6.4231
G01 X9.2449 Y6.4116
G01 X9.2571 Y6.4101
G01 X9.2693 Y6.4092
G01 X9.3477 Y6.4053
G01 X9.3600 Y6.4050
G01 X9.3723 Y6.4053
G01 X9.4507 Y6.4092
G01 X9.4629 Y6.4101
G01 X9.4751 Y6.4116
G01 X9.5528 Y6.4231
G01 X9.5648 Y6.4252
G01 X9.5768 Y6.4279
G01 X9.6589 Y6.4485
G01 X9.6765 Y6.4541
G01 X9.7504 Y6.4805
G01 X9.7618 Y6.4849
G01 X9.7730 Y6.4899
G01 X9.8440 Y6.5235
G01 X9.8550 Y6.5290
G01 X9.8656 Y6.5350
G01 X9.9330 Y6.5754
G01 X9.9433 Y6.5820
G01 X9.9534 Y6.5890
G01 X10.0164 Y6.6358
G01 X10.0261 Y6.6433
G01 X10.0354 Y6.6514
G01 X10.0936 Y6.7041
G01 X10.1025 Y6.7125
G01 X10.1109 Y6.7214
G01 X10.1636 Y6.7796
G01 X10.1717 Y6.7889
G01 X10.1792 Y6.7986
G01 X10.2260 Y6.8616
G01 X10.2330 Y6.8717
G01 X10.2396 Y6.8820
G01 X10.2800 Y6.9494
G01 X10.2860 Y6.9600
G01 X10.2915 Y6.9710
G01 X10.3251 Y7.0420
G01 X10.3301 Y7.0532
G01 X10.3345 Y7.0646
G01 X10.3609 Y7.1385
G01 X10.3648 Y7.1502
G01 X10.3681 Y7.1620
G01 X10.3871 Y7.2382
G01 X10.3898 Y7.2502
G01 X10.3919 Y7.2622
G01 X10.4043 Y7.3460
G01 X10.4058 Y7.3643
G01 X10.4097 Y7.4427
G01 X10.4100 Y7.4550
G01 X10.4100 Y9.0550
G01 X10.4097 Y9.0673
G01 X10.4055 Y9.1518
G01 X10.4034 Y9.1701
G01 X10.3919 Y9.2478
G01 X10.3898 Y9.2598
G01 X10.3871 Y9.2718
G01 X10.3681 Y9.3480
G01 X10.3648 Y9.3598
G01 X10.3609 Y9.3715
G01 X10.3345 Y9.4454
G01 X10.3301 Y9.4568
G01 X10.3251 Y9.4680
G01 X10.2915 Y9.5390
G01 X10.2860 Y9.5500
G01 X10.2800 Y9.5606
G01 X10.2396 Y9.6280
G01 X10.2330 Y9.6383
G01 X10.2260 Y9.6484
G01 X10.1792 Y9.7114
G01 X10.1717 Y9.7211
G01 X10.1600 Y9.7344
G01 X10.1600 Y10.5431
G01 X10.1808 Y10.5416
G01 X10.1987 Y10.5418
G01 X10.3406 Y10.5480
G01 X10.3524 Y10.5488
G01 X10.3701 Y10.5510
G01 X10.3876 Y10.5545
G01 X10.4048 Y10.5593
G01 X10.5449 Y10.6071
G01 X10.5616 Y10.6134
G01 X10.5777 Y10.6210
G01 X10.5882 Y10.6266
G01 X10.6034 Y10.6360
G01 X10.7291 Y10.7248
G01 X10.7431 Y10.7360
G01 X10.7562 Y10.7481
G01 X10.7684 Y10.7611
G01 X10.7760 Y10.7702
G01 X10.8679 Y10.8862
G01 X10.8781 Y10.9008
G01 X10.8844 Y10.9110
G01 X10.8901 Y10.9214
G01 X10.8954 Y10.9321
G01 X10.9001 Y10.9430
G01 X10.9513 Y11.0695
G01 X10.9556 Y11.0808
G01 X10.9610 Y11.0982
G01 X10.9653 Y11.1175
G01 X10.9865 Y11.1857
G01 X11.0090 Y11.2648
G01 X11.0136 Y11.2756
G01 X11.0177 Y11.2866
G01 X11.0558 Y11.3594
G01 X11.0864 Y11.4214
G01 X11.0929 Y11.4312
G01 X11.0989 Y11.4413
G01 X11.1418 Y11.4957
G01 X11.1906 Y11.5607
G01 X11.2318 Y11.5989
G01 X11.2530 Y11.6192
G01 X16.2676 Y16.6338
G01 X16.2956 Y16.6635
G01 X16.3229 Y16.6944
G01 X16.3867 Y16.7450
G01 X16.4399 Y16.7892
G01 X16.4498 Y16.7955
G01 X16.4594 Y16.8022
G01 X16.5206 Y16.8345
G01 X16.5924 Y16.8744
G01 X16.6033 Y16.8788
G01 X16.6140 Y16.8837
G01 X16.6924 Y16.9083
G01 X16.7579 Y16.9305
G01 X16.7694 Y16.9328
G01 X16.7808 Y16.9356
G01 X16.8494 Y16.9438
G01 X16.9300 Y16.9553
G01 X16.9861 Y16.9531
G01 X17.0155 Y16.9525
G01 X17.9969 Y16.9525
G01 X18.0088 Y16.9528
G01 X18.0207 Y16.9536
G01 X18.0325 Y16.9550
G01 X18.1731 Y16.9753
G01 X18.1848 Y16.9772
G01 X18.2022 Y16.9812
G01 X18.2193 Y16.9865
G01 X18.2359 Y16.9929
G01 X18.2591 Y17.0034
G01 X18.2754 Y16.9977
G01 X18.2933 Y16.9928
G01 X18.4430 Y16.9584
G01 X18.4544 Y16.9566
G01 X18.4717 Y16.9548
G01 X18.5304 Y16.9525
G01 X21.4304 Y16.9526
G01 X21.4423 Y16.9531
G01 X21.4600 Y16.9550
G01 X21.6006 Y16.9753
G01 X21.6123 Y16.9772
G01 X21.6297 Y16.9812
G01 X21.6468 Y16.9865
G01 X21.6634 Y16.9929
G01 X21.6866 Y17.0034
G01 X21.7029 Y16.9977
G01 X21.7208 Y16.9928
G01 X21.8705 Y16.9584
G01 X21.8819 Y16.9566
G01 X21.8992 Y16.9548
G01 X21.9579 Y16.9525
G01 X28.7220 Y16.9525
G01 X28.7399 Y16.9531
G01 X28.7517 Y16.9543
G01 X28.9041 Y16.9762
G01 X28.9216 Y16.9798
G01 X28.9388 Y16.9846
G01 X28.9555 Y16.9906
G01 X28.9665 Y16.9953
G01 X29.0957 Y17.0543
G01 X29.1124 Y17.0627
G01 X29.1285 Y17.0724
G01 X29.1388 Y17.0795
G01 X29.1487 Y17.0871
G01 X29.2318 Y17.1540
G01 X29.2469 Y17.1672
G01 X29.5326 Y17.4528
G01 X29.5408 Y17.4614
G01 X29.5523 Y17.4750
G01 X29.6410 Y17.5934
G01 X29.6481 Y17.6034
G01 X29.6547 Y17.6137
G01 X29.6637 Y17.6298
G01 X29.6690 Y17.6409
G01 X29.6737 Y17.6522
G01 X29.7197 Y17.7697
G01 X29.7240 Y17.7817
G01 X29.7294 Y17.7999
G01 X29.7621 Y17.9304
G01 X29.8441 Y18.1190
G01 X29.9558 Y18.2916
G01 X30.0942 Y18.4437
G01 X30.2556 Y18.5711
G01 X30.4356 Y18.6705
G01 X30.6295 Y18.7392
G01 X30.8319 Y18.7752
G01 X31.0375 Y18.7777
G01 X31.2408 Y18.7466
G01 X31.4363 Y18.6828
G01 X31.6187 Y18.5878
G01 X31.7831 Y18.4643
G01 X31.9252 Y18.3157
G01 X32.0410 Y18.1458
G01 X32.1276 Y17.9593
G01 X32.1826 Y17.7611
G01 X32.2044 Y17.5567
G01 X32.1926 Y17.3514
G01 X32.1474 Y17.1508
G01 X32.0700 Y16.9602
G01 X31.9626 Y16.7849
G01 X31.8279 Y16.6295
G01 X31.6697 Y16.4981
G01 X31.4922 Y16.3944
G01 X31.3001 Y16.3210
G01 X31.2505 Y16.3109
G01 X31.2332 Y16.3063
G01 X31.2219 Y16.3025
G01 X31.0882 Y16.2547
G01 X31.0712 Y16.2479
G01 X31.0548 Y16.2399
G01 X31.0390 Y16.2307
G01 X31.0239 Y16.2204
G01 X30.9043 Y16.1321
G01 X30.8897 Y16.1205
G01 X30.8804 Y16.1121
G01 X30.1384 Y15.3702
G01 X30.1104 Y15.3405
G01 X30.0831 Y15.3096
G01 X30.0193 Y15.2590
G01 X29.9661 Y15.2148
G01 X29.9562 Y15.2085
G01 X29.9466 Y15.2018
G01 X29.8740 Y15.1633
G01 X29.8136 Y15.1296
G01 X29.8027 Y15.1252
G01 X29.7920 Y15.1203
G01 X29.7260 Y15.0998
G01 X29.6481 Y15.0735
G01 X29.6366 Y15.0712
G01 X29.6252 Y15.0684
G01 X29.5565 Y15.0602
G01 X29.4760 Y15.0487
G01 X29.4199 Y15.0509
G01 X29.3905 Y15.0515
G01 X17.6840 Y15.0515
G01 X17.6661 Y15.0509
G01 X17.6484 Y15.0490
G01 X17.5078 Y15.0287
G01 X17.4902 Y15.0256
G01 X17.4787 Y15.0228
G01 X17.4672 Y15.0194
G01 X17.4560 Y15.0155
G01 X17.4450 Y15.0111
G01 X17.3103 Y14.9497
G01 X17.2991 Y14.9442
G01 X17.2881 Y14.9382
G01 X17.2723 Y14.9281
G01 X17.2573 Y14.9169
G01 X17.1742 Y14.8500
G01 X17.1591 Y14.8368
G01 X13.8392 Y11.5169
G01 X13.8312 Y11.5081
G01 X13.8200 Y11.4942
G01 X13.7349 Y11.3805
G01 X13.7247 Y11.3658
G01 X13.7156 Y11.3505
G01 X13.7076 Y11.3345
G01 X13.7029 Y11.3236
G01 X13.6511 Y11.1850
G01 X13.6455 Y11.1680
G01 X13.6424 Y11.1565
G01 X13.6399 Y11.1449
G01 X13.6379 Y11.1332
G01 X13.6360 Y11.1154
G01 X13.6259 Y10.9738
G01 X13.6252 Y10.9549
G01 X13.6260 Y10.9360
G01 X13.6273 Y10.9235
G01 X13.6293 Y10.9111
G01 X13.6362 Y10.8776
G01 X13.6400 Y10.8390
G01 X13.6400 Y9.7344
G01 X13.6283 Y9.7211
G01 X13.6208 Y9.7114
G01 X13.5740 Y9.6484
G01 X13.5670 Y9.6383
G01 X13.5604 Y9.6280
G01 X13.5200 Y9.5606
G01 X13.5140 Y9.5500
G01 X13.5085 Y9.5390
G01 X13.4749 Y9.4680
G01 X13.4699 Y9.4568
G01 X13.4655 Y9.4454
G01 X13.4391 Y9.3715
G01 X13.4352 Y9.3598
G01 X13.4319 Y9.3480
G01 X13.4129 Y9.2718
G01 X13.4102 Y9.2598
G01 X13.4081 Y9.2478
G01 X13.3966 Y9.1701
G01 X13.3951 Y9.1579
G01 X13.3942 Y9.1457
G01 X13.3901 Y9.0611
G01 X13.3900 Y7.4550
G01 X13.3903 Y7.4427
G01 X13.3942 Y7.3643
G01 X13.3957 Y7.3460
G01 X13.4081 Y7.2622
G01 X13.4102 Y7.2502
G01 X13.4129 Y7.2382
G01 X13.4319 Y7.1620
G01 X13.4352 Y7.1502
G01 X13.4391 Y7.1385
G01 X13.4655 Y7.0646
G01 X13.4699 Y7.0532
G01 X13.4749 Y7.0420
G01 X13.5085 Y6.9710
G01 X13.5140 Y6.9600
G01 X13.5200 Y6.9494
G01 X13.5604 Y6.8820
G01 X13.5670 Y6.8717
G01 X13.5740 Y6.8616
G01 X13.6208 Y6.7986
G01 X13.6283 Y6.7889
G01 X13.6364 Y6.7796
G01 X13.6891 Y6.7214
G01 X13.7019 Y6.7083
G01 X13.7646 Y6.6514
G01 X13.7739 Y6.6433
G01 X13.7836 Y6.6358
G01 X13.8466 Y6.5890
G01 X13.8567 Y6.5820
G01 X13.8670 Y6.5754
G01 X13.9344 Y6.5350
G01 X13.9450 Y6.5290
G01 X13.9560 Y6.5235
G01 X14.0270 Y6.4899
G01 X14.0382 Y6.4849
G01 X14.0496 Y6.4805
G01 X14.1235 Y6.4541
G01 X14.1352 Y6.4502
G01 X14.1470 Y6.4469
G01 X14.2232 Y6.4279
G01 X14.2352 Y6.4252
G01 X14.2472 Y6.4231
G01 X14.3249 Y6.4116
G01 X14.3371 Y6.4101
G01 X14.3493 Y6.4092
G01 X14.4277 Y6.4053
G01 X14.4400 Y6.4050
G01 X14.4523 Y6.4053
G01 X14.5307 Y6.4092
G01 X14.5429 Y6.4101
G01 X14.5551 Y6.4116
G01 X14.6328 Y6.4231
G01 X14.6448 Y6.4252
G01 X14.6568 Y6.4279
G01 X14.7330 Y6.4469
G01 X14.7448 Y6.4502
G01 X14.7565 Y6.4541
G01 X14.8304 Y6.4805
G01 X14.8418 Y6.4849
G01 X14.8530 Y6.4899
G01 X14.9240 Y6.5235
G01 X14.9350 Y6.5290
G01 X14.9456 Y6.5350
G01 X15.0130 Y6.5754
G01 X15.0233 Y6.5820
G01 X15.0334 Y6.5890
G01 X15.0964 Y6.6358
G01 X15.1061 Y6.6433
G01 X15.1154 Y6.6514
G01 X15.1736 Y6.7041
G01 X15.1825 Y6.7125
G01 X15.1909 Y6.7214
G01 X15.2436 Y6.7796
G01 X15.2517 Y6.7889
G01 X15.2592 Y6.7986
G01 X15.3060 Y6.8616
G01 X15.3130 Y6.8717
G01 X15.3196 Y6.8820
G01 X15.3600 Y6.9494
G01 X15.3660 Y6.9600
G01 X15.3715 Y6.9710
G01 X15.4051 Y7.0420
G01 X15.4101 Y7.0532
G01 X15.4145 Y7.0646
G01 X15.4409 Y7.1385
G01 X15.4448 Y7.1502
G01 X15.4481 Y7.1620
G01 X15.4671 Y7.2382
G01 X15.4698 Y7.2502
G01 X15.4719 Y7.2622
G01 X15.4834 Y7.3399
G01 X15.4849 Y7.3521
G01 X15.4858 Y7.3643
G01 X15.4897 Y7.4427
G01 X15.4900 Y7.4550
G01 X16.0900 Y7.4550
G01 X16.0900 Y7.3985
G01 X16.0897 Y7.3895
G01 X16.0777 Y7.2251
G01 X16.0752 Y7.2074
G01 X16.0274 Y6.9911
G01 X16.0223 Y6.9739
G01 X15.9529 Y6.7909
G01 X15.9472 Y6.7740
G01 X15.9427 Y6.7567
G01 X15.9118 Y6.6181
G01 X15.9095 Y6.6064
G01 X15.9077 Y6.5946
G01 X15.9065 Y6.5828
G01 X15.9059 Y6.5709
G01 X15.9060 Y6.5531
G01 X15.9158 Y6.4054
G01 X15.9176 Y6.3876
G01 X15.9195 Y6.3759
G01 X15.9220 Y6.3643
G01 X15.9250 Y6.3527
G01 X15.9285 Y6.3414
G01 X15.9816 Y6.1969
G01 X15.9887 Y6.1805
G01 X15.9970 Y6.1647
G01 X16.0031 Y6.1545
G01 X16.0132 Y6.1398
G01 X16.1014 Y6.0210
G01 X16.1128 Y6.0073
G01 X16.1252 Y5.9944
G01 X16.1340 Y5.9864
G01 X16.1478 Y5.9751
G01 X16.2659 Y5.8859
G01 X16.2757 Y5.8792
G01 X16.2858 Y5.8729
G01 X16.2962 Y5.8672
G01 X16.3069 Y5.8619
G01 X16.3234 Y5.8550
G01 X16.4562 Y5.8047
G01 X16.4681 Y5.8005
G01 X16.4863 Y5.7954
G01 X16.4987 Y5.7927
G01 X16.5174 Y5.7900
G01 X16.6260 Y5.7780
G01 X16.6465 Y5.7766
G01 X19.7200 Y5.7765
G01 X19.7319 Y5.7768
G01 X19.7497 Y5.7783
G01 X19.9020 Y5.8002
G01 X19.9195 Y5.8038
G01 X19.9310 Y5.8068
G01 X19.9424 Y5.8105
G01 X19.9590 Y5.8169
G01 X20.0936 Y5.8783
G01 X20.1043 Y5.8835
G01 X20.1199 Y5.8922
G01 X20.1299 Y5.8987
G01 X20.1443 Y5.9092
G01 X20.1535 Y5.9168
G01 X20.2653 Y6.0137
G01 X20.2739 Y6.0219
G01 X20.2861 Y6.0350
G01 X20.2936 Y6.0442
G01 X20.3042 Y6.0586
G01 X20.3842 Y6.1830
G01 X20.3904 Y6.1932
G01 X20.3988 Y6.2090
G01 X20.4037 Y6.2198
G01 X20.4082 Y6.2308
G01 X20.4138 Y6.2478
G01 X20.4538 Y6.3841
G01 X20.4569 Y6.3955
G01 X20.4605 Y6.4130
G01 X20.4628 Y6.4307
G01 X20.4639 Y6.4485
G01 X20.4639 Y6.5965
G01 X20.4636 Y6.6085
G01 X20.4628 Y6.6205
G01 X20.4613 Y6.6325
G01 X20.4593 Y6.6443
G01 X20.4567 Y6.6561
G01 X20.4536 Y6.6677
G01 X20.4123 Y6.8068
G01 X20.4085 Y6.8183
G01 X20.4019 Y6.8353
G01 X20.3744 Y6.8947
G01 X20.3194 Y7.0929
G01 X20.3015 Y7.2606
G01 X20.3015 Y8.9803
G01 X20.3141 Y9.1329
G01 X20.3641 Y9.3324
G01 X20.4461 Y9.5210
G01 X20.4845 Y9.5805
G01 X20.4933 Y9.5960
G01 X20.4986 Y9.6067
G01 X20.5580 Y9.7357
G01 X20.5649 Y9.7522
G01 X20.5688 Y9.7635
G01 X20.5722 Y9.7750
G01 X20.5750 Y9.7866
G01 X20.5773 Y9.7984
G01 X20.5989 Y9.9463
G01 X20.6008 Y9.9642
G01 X20.6015 Y9.9823
G01 X20.6015 Y11.1191
G01 X20.6003 Y11.1599
G01 X20.5977 Y11.2010
G01 X20.6071 Y11.2819
G01 X20.6135 Y11.3507
G01 X20.6160 Y11.3622
G01 X20.6180 Y11.3737
G01 X20.6385 Y11.4398
G01 X20.6610 Y11.5188
G01 X20.6656 Y11.5296
G01 X20.6697 Y11.5406
G01 X20.7078 Y11.6134
G01 X20.7384 Y11.6754
G01 X20.7449 Y11.6852
G01 X20.7509 Y11.6953
G01 X20.7937 Y11.7496
G01 X20.8426 Y11.8147
G01 X20.8838 Y11.8529
G01 X20.9050 Y11.8733
G01 X21.7286 Y12.6968
G01 X21.7566 Y12.7265
G01 X21.7839 Y12.7574
G01 X21.8477 Y12.8080
G01 X21.9009 Y12.8522
G01 X21.9108 Y12.8585
G01 X21.9204 Y12.8652
G01 X21.9816 Y12.8975
G01 X22.0534 Y12.9374
G01 X22.0643 Y12.9418
G01 X22.0750 Y12.9467
G01 X22.1534 Y12.9713
G01 X22.2189 Y12.9935
G01 X22.2304 Y12.9958
G01 X22.2418 Y12.9986
G01 X22.3104 Y13.0068
G01 X22.3910 Y13.0183
G01 X22.4471 Y13.0161
G01 X22.4765 Y13.0155
G01 X31.5220 Y13.0156
G01 X31.5398 Y13.0166
G01 X31.5516 Y13.0180
G01 X31.6981 Y13.0392
G01 X31.7098 Y13.0414
G01 X31.7213 Y13.0442
G01 X31.7384 Y13.0495
G01 X31.7495 Y13.0536
G01 X31.7605 Y13.0583
G01 X31.8897 Y13.1173
G01 X31.9064 Y13.1257
G01 X31.9172 Y13.1320
G01 X31.9277 Y13.1389
G01 X31.9427 Y13.1501
G01 X32.0258 Y13.2170
G01 X32.0360 Y13.2257
G01 X32.0457 Y13.2349
G01 X35.4951 Y16.6843
G01 X35.5033 Y16.6929
G01 X35.5149 Y16.7066
G01 X35.6036 Y16.8250
G01 X35.6138 Y16.8396
G01 X35.6229 Y16.8550
G01 X35.6309 Y16.8710
G01 X35.6377 Y16.8874
G01 X35.6873 Y17.0205
G01 X35.6914 Y17.0323
G01 X35.6949 Y17.0443
G01 X35.6990 Y17.0626
G01 X35.7017 Y17.0812
G01 X35.7131 Y17.1872
G01 X35.7144 Y17.2073
G01 X35.7145 Y19.5670
G01 X35.7142 Y19.5789
G01 X35.7127 Y19.5967
G01 X35.6917 Y19.7432
G01 X35.6898 Y19.7549
G01 X35.6872 Y19.7665
G01 X35.6824 Y19.7837
G01 X35.6785 Y19.7950
G01 X35.6741 Y19.8060
G01 X35.6127 Y19.9406
G01 X35.6075 Y19.9513
G01 X35.5988 Y19.9669
G01 X35.5889 Y19.9818
G01 X35.5818 Y19.9913
G01 X35.5742 Y20.0005
G01 X35.4773 Y20.1123
G01 X35.4648 Y20.1251
G01 X35.4560 Y20.1331
G01 X35.4421 Y20.1443
G01 X35.4274 Y20.1544
G01 X35.3029 Y20.2344
G01 X35.2873 Y20.2431
G01 X35.2766 Y20.2483
G01 X35.2657 Y20.2530
G01 X35.2489 Y20.2590
G01 X35.1069 Y20.3008
G01 X35.0955 Y20.3039
G01 X35.0838 Y20.3064
G01 X35.0721 Y20.3084
G01 X35.0603 Y20.3098
G01 X34.9833 Y20.3154
G01 X34.9655 Y20.3160
G01 X30.1840 Y20.3160
G01 X30.1840 Y21.2938
G01 X31.8347 Y21.2939
G01 X31.8516 Y21.2658
G01 X31.8584 Y21.2556
G01 X31.9088 Y21.1876
G01 X31.9203 Y21.1732
G01 X31.9771 Y21.1104
G01 X31.9855 Y21.1015
G01 X31.9944 Y21.0931
G01 X32.0572 Y21.0363
G01 X32.0716 Y21.0248
G01 X32.1346 Y20.9780
G01 X32.1447 Y20.9710
G01 X32.1550 Y20.9644
G01 X32.2224 Y20.9240
G01 X32.2330 Y20.9180
G01 X32.2440 Y20.9125
G01 X32.3205 Y20.8763
G01 X32.3376 Y20.8695
G01 X32.4115 Y20.8431
G01 X32.4232 Y20.8392
G01 X32.4350 Y20.8359
G01 X32.5112 Y20.8169
G01 X32.5232 Y20.8142
G01 X32.5352 Y20.8121
G01 X32.6129 Y20.8006
G01 X32.6251 Y20.7991
G01 X32.6373 Y20.7982
G01 X32.7157 Y20.7943
G01 X32.7280 Y20.7940
G01 X32.7403 Y20.7943
G01 X32.8187 Y20.7982
G01 X32.8309 Y20.7991
G01 X32.8431 Y20.8006
G01 X32.9208 Y20.8121
G01 X32.9328 Y20.8142
G01 X32.9448 Y20.8169
G01 X33.0210 Y20.8359
G01 X33.0328 Y20.8392
G01 X33.0445 Y20.8431
G01 X33.1184 Y20.8695
G01 X33.1298 Y20.8739
G01 X33.1410 Y20.8789
G01 X33.2120 Y20.9125
G01 X33.2230 Y20.9180
G01 X33.2336 Y20.9240
G01 X33.3010 Y20.9644
G01 X33.3113 Y20.9710
G01 X33.3214 Y20.9780
G01 X33.3844 Y21.0248
G01 X33.3941 Y21.0323
G01 X33.4034 Y21.0404
G01 X33.4616 Y21.0931
G01 X33.4705 Y21.1015
G01 X33.4789 Y21.1104
G01 X33.5316 Y21.1686
G01 X33.5397 Y21.1779
G01 X33.5472 Y21.1876
G01 X33.5940 Y21.2506
G01 X33.6010 Y21.2607
G01 X33.6076 Y21.2710
G01 X33.6480 Y21.3384
G01 X33.6540 Y21.3490
G01 X33.6595 Y21.3600
G01 X33.6931 Y21.4310
G01 X33.6981 Y21.4422
G01 X33.7025 Y21.4536
G01 X33.7289 Y21.5275
G01 X33.7328 Y21.5392
G01 X33.7361 Y21.5510
G01 X33.7551 Y21.6272
G01 X33.7578 Y21.6392
G01 X33.7599 Y21.6512
G01 X33.7714 Y21.7289
G01 X33.7729 Y21.7411
G01 X33.7738 Y21.7533
G01 X33.7777 Y21.8317
G01 X33.7780 Y21.8440
G01 X33.7777 Y21.8563
G01 X33.7738 Y21.9347
G01 X33.7729 Y21.9469
G01 X33.7714 Y21.9591
G01 X33.7599 Y22.0368
G01 X33.7578 Y22.0488
G01 X33.7551 Y22.0608
G01 X33.7361 Y22.1370
G01 X33.7328 Y22.1488
G01 X33.7289 Y22.1605
G01 X33.7025 Y22.2344
G01 X33.6981 Y22.2458
G01 X33.6931 Y22.2570
G01 X33.6595 Y22.3280
G01 X33.6540 Y22.3390
G01 X33.6480 Y22.3496
G01 X33.6076 Y22.4170
G01 X33.6010 Y22.4273
G01 X33.5940 Y22.4374
G01 X33.5472 Y22.5004
G01 X33.5397 Y22.5101
G01 X33.5316 Y22.5194
G01 X33.4789 Y22.5776
G01 X33.4705 Y22.5865
G01 X33.4616 Y22.5949
G01 X33.4034 Y22.6476
G01 X33.3941 Y22.6557
G01 X33.3844 Y22.6632
G01 X33.3214 Y22.7100
G01 X33.3113 Y22.7170
G01 X33.3010 Y22.7236
G01 X33.2336 Y22.7640
G01 X33.2230 Y22.7700
G01 X33.2120 Y22.7755
G01 X33.1410 Y22.8091
G01 X33.1298 Y22.8141
G01 X33.1184 Y22.8185
G01 X33.0445 Y22.8449
G01 X33.0328 Y22.8488
G01 X33.0210 Y22.8521
G01 X32.9448 Y22.8711
G01 X32.9328 Y22.8738
G01 X32.9208 Y22.8759
G01 X32.8431 Y22.8874
G01 X32.8309 Y22.8889
G01 X32.8187 Y22.8898
G01 X32.7403 Y22.8937
G01 X32.7280 Y22.8940
G01 X32.7157 Y22.8937
G01 X32.6373 Y22.8898
G01 X32.6251 Y22.8889
G01 X32.6129 Y22.8874
G01 X32.5352 Y22.8759
G01 X32.5232 Y22.8738
G01 X32.5112 Y22.8711
G01 X32.4350 Y22.8521
G01 X32.4232 Y22.8488
G01 X32.4115 Y22.8449
G01 X32.3376 Y22.8185
G01 X32.3205 Y22.8117
G01 X32.2440 Y22.7755
G01 X32.2330 Y22.7700
G01 X32.2224 Y22.7640
G01 X32.1550 Y22.7236
G01 X32.1447 Y22.7170
G01 X32.1346 Y22.7100
G01 X32.0716 Y22.6632
G01 X32.0572 Y22.6517
G01 X31.9944 Y22.5949
G01 X31.9855 Y22.5865
G01 X31.9771 Y22.5776
G01 X31.9203 Y22.5148
G01 X31.9088 Y22.5004
G01 X31.8584 Y22.4324
G01 X31.8516 Y22.4222
G01 X31.8347 Y22.3942
G01 X30.1840 Y22.3941
G01 X30.1840 Y23.3720
G01 X34.9655 Y23.3720
G01 X34.9833 Y23.3726
G01 X35.0011 Y23.3745
G01 X35.1417 Y23.3948
G01 X35.1592 Y23.3979
G01 X35.1765 Y23.4023
G01 X35.1879 Y23.4060
G01 X35.2045 Y23.4124
G01 X35.3391 Y23.4738
G01 X35.3551 Y23.4818
G01 X35.3704 Y23.4909
G01 X35.3851 Y23.5011
G01 X35.3990 Y23.5123
G01 X35.5108 Y23.6092
G01 X35.5194 Y23.6174
G01 X35.5316 Y23.6305
G01 X35.5428 Y23.6444
G01 X35.5529 Y23.6591
G01 X35.6329 Y23.7836
G01 X35.6416 Y23.7992
G01 X35.6468 Y23.8099
G01 X35.6536 Y23.8263
G01 X35.6593 Y23.8433
G01 X35.6993 Y23.9796
G01 X35.7037 Y23.9968
G01 X35.7069 Y24.0144
G01 X35.7083 Y24.0262
G01 X35.7139 Y24.1032
G01 X35.7145 Y24.1210
G01 X35.7144 Y34.8620
G01 X35.7139 Y34.8739
G01 X35.7120 Y34.8916
G01 X35.6908 Y35.0381
G01 X35.6872 Y35.0556
G01 X35.6842 Y35.0671
G01 X35.6805 Y35.0784
G01 X35.6764 Y35.0895
G01 X35.6717 Y35.1005
G01 X35.6127 Y35.2297
G01 X35.6072 Y35.2409
G01 X35.5980 Y35.2572
G01 X35.5911 Y35.2677
G01 X35.5799 Y35.2827
G01 X35.5130 Y35.3658
G01 X35.5043 Y35.3760
G01 X35.4951 Y35.3857
G01 X34.9571 Y35.9237
G01 X34.9441 Y35.9358
G01 X34.9349 Y35.9434
G01 X34.8117 Y36.0356
G01 X34.7968 Y36.0455
G01 X34.7812 Y36.0542
G01 X34.7705 Y36.0594
G01 X34.7540 Y36.0662
G01 X34.6153 Y36.1179
G01 X34.6040 Y36.1215
G01 X34.5925 Y36.1246
G01 X34.5809 Y36.1271
G01 X34.5691 Y36.1291
G01 X34.5514 Y36.1310
G01 X34.4097 Y36.1411
G01 X34.3979 Y36.1417
G01 X34.3860 Y36.1417
G01 X34.3681 Y36.1406
G01 X34.3504 Y36.1383
G01 X34.3388 Y36.1361
G01 X34.1942 Y36.1045
G01 X34.1827 Y36.1015
G01 X34.1658 Y36.0958
G01 X34.1493 Y36.0890
G01 X34.1386 Y36.0838
G01 X34.0035 Y36.0100
G01 X33.9883 Y36.0006
G01 X33.9786 Y35.9936
G01 X33.9693 Y35.9863
G01 X33.9559 Y35.9744
G01 X33.8513 Y35.8699
G01 X33.8391 Y35.8568
G01 X33.8315 Y35.8476
G01 X33.8210 Y35.8332
G01 X33.8115 Y35.8181
G01 X33.7405 Y35.6882
G01 X33.7351 Y35.6777
G01 X33.7301 Y35.6668
G01 X33.7257 Y35.6558
G01 X33.7218 Y35.6445
G01 X33.7185 Y35.6331
G01 X33.7157 Y35.6216
G01 X33.6855 Y35.4828
G01 X33.6831 Y35.4703
G01 X33.6813 Y35.4576
G01 X33.6802 Y35.4449
G01 X33.6785 Y35.3940
G01 X33.6786 Y27.7210
G01 X33.6791 Y27.7091
G01 X33.6810 Y27.6914
G01 X33.7022 Y27.5446
G01 X33.7060 Y27.5263
G01 X33.7093 Y27.5143
G01 X33.7132 Y27.5025
G01 X33.7177 Y27.4908
G01 X33.7228 Y27.4794
G01 X33.7922 Y27.3329
G01 X33.8017 Y27.3158
G01 X33.8190 Y27.2898
G01 X33.9056 Y27.1033
G01 X33.9606 Y26.9051
G01 X33.9824 Y26.7007
G01 X33.9706 Y26.4954
G01 X33.9254 Y26.2948
G01 X33.8480 Y26.1042
G01 X33.7406 Y25.9289
G01 X33.6059 Y25.7735
G01 X33.4477 Y25.6421
G01 X33.2702 Y25.5384
G01 X33.0781 Y25.4650
G01 X32.8891 Y25.4266
G01 X32.8766 Y25.4240
G01 X32.6711 Y25.4165
G01 X32.4671 Y25.4426
G01 X32.2702 Y25.5017
G01 X32.0855 Y25.5922
G01 X31.9181 Y25.7116
G01 X31.7724 Y25.8567
G01 X31.6524 Y26.0237
G01 X31.5613 Y26.2081
G01 X31.5015 Y26.4048
G01 X31.4738 Y26.6159
G01 X31.4726 Y26.6628
G01 X31.4901 Y26.8749
G01 X31.5401 Y27.0744
G01 X31.6221 Y27.2630
G01 X31.6605 Y27.3225
G01 X31.6693 Y27.3380
G01 X31.6746 Y27.3487
G01 X31.7340 Y27.4777
G01 X31.7409 Y27.4942
G01 X31.7448 Y27.5055
G01 X31.7482 Y27.5170
G01 X31.7510 Y27.5286
G01 X31.7533 Y27.5404
G01 X31.7749 Y27.6883
G01 X31.7768 Y27.7062
G01 X31.7774 Y27.7182
G01 X31.7774 Y34.9890
G01 X31.7764 Y35.0068
G01 X31.7750 Y35.0186
G01 X31.7547 Y35.1592
G01 X31.7528 Y35.1709
G01 X31.7502 Y35.1826
G01 X31.7454 Y35.1998
G01 X31.7415 Y35.2110
G01 X31.7347 Y35.2275
G01 X31.6730 Y35.3623
G01 X31.6673 Y35.3734
G01 X31.6610 Y35.3842
G01 X31.6541 Y35.3947
G01 X31.6468 Y35.4048
G01 X31.5760 Y35.4928
G01 X31.5673 Y35.5030
G01 X31.5581 Y35.5127
G01 X30.3929 Y36.6779
G01 X30.3842 Y36.6861
G01 X30.3752 Y36.6939
G01 X30.3659 Y36.7013
G01 X30.2473 Y36.7899
G01 X30.2374 Y36.7967
G01 X30.2272 Y36.8029
G01 X30.2166 Y36.8086
G01 X30.2058 Y36.8139
G01 X30.1892 Y36.8207
G01 X30.1269 Y36.8438
G01 X30.1137 Y36.8509
G01 X30.1026 Y36.8561
G01 X30.0912 Y36.8608
G01 X30.0797 Y36.8649
G01 X29.8572 Y36.9317
G01 X29.6725 Y37.0222
G01 X29.5051 Y37.1416
G01 X29.3594 Y37.2867
G01 X29.2394 Y37.4537
G01 X29.1483 Y37.6381
G01 X29.0807 Y37.8603
G01 X29.0766 Y37.8719
G01 X29.0719 Y37.8832
G01 X29.0631 Y37.9010
G01 X29.0361 Y37.9737
G01 X29.0292 Y37.9903
G01 X29.0240 Y38.0010
G01 X29.0183 Y38.0115
G01 X29.0121 Y38.0217
G01 X29.0055 Y38.0315
G01 X28.9129 Y38.1554
G01 X28.9013 Y38.1690
G01 X28.8931 Y38.1777
G01 X28.2309 Y38.8398
G01 X28.2176 Y38.8516
G01 X28.2082 Y38.8590
G01 X28.0897 Y38.9476
G01 X28.0748 Y38.9574
G01 X28.0645 Y38.9634
G01 X28.0539 Y38.9688
G01 X28.0431 Y38.9738
G01 X28.0321 Y38.9782
G01 X27.8990 Y39.0278
G01 X27.8821 Y39.0335
G01 X27.8706 Y39.0365
G01 X27.8589 Y39.0391
G01 X27.8413 Y39.0418
G01 X27.8295 Y39.0430
G01 X27.6818 Y39.0534
G01 X27.6700 Y39.0537
G01 X27.6521 Y39.0531
G01 X27.6344 Y39.0512
G01 X27.6168 Y39.0480
G01 X27.4722 Y39.0165
G01 X27.4607 Y39.0134
G01 X27.4438 Y39.0078
G01 X27.4328 Y39.0033
G01 X27.4166 Y38.9957
G01 X27.2867 Y38.9249
G01 X27.2764 Y38.9189
G01 X27.2615 Y38.9091
G01 X27.2520 Y38.9020
G01 X27.2383 Y38.8905
G01 X27.2297 Y38.8822
G01 X27.1293 Y38.7818
G01 X27.1171 Y38.7688
G01 X27.1096 Y38.7596
G01 X27.1024 Y38.7500
G01 X27.0958 Y38.7402
G01 X27.0896 Y38.7300
G01 X27.0186 Y38.6002
G01 X27.0106 Y38.5842
G01 X27.0059 Y38.5733
G01 X26.9999 Y38.5565
G01 X26.9951 Y38.5393
G01 X26.9623 Y38.3885
G01 X26.9602 Y38.3759
G01 X26.9588 Y38.3632
G01 X26.9578 Y38.3441
G01 X26.9592 Y38.2513
G01 X26.9605 Y38.2297
G01 X26.9675 Y38.1607
G01 X26.9681 Y38.1432
G01 X26.9596 Y37.9272
G01 X26.9577 Y37.9098
G01 X26.9188 Y37.6972
G01 X26.9145 Y37.6803
G01 X26.9024 Y37.6440
G01 X26.3611 Y38.1853
G01 X26.3599 Y38.2029
G01 X26.3584 Y38.2151
G01 X26.3469 Y38.2928
G01 X26.3448 Y38.3048
G01 X26.3421 Y38.3168
G01 X26.3231 Y38.3930
G01 X26.3198 Y38.4048
G01 X26.3159 Y38.4165
G01 X26.2895 Y38.4904
G01 X26.2851 Y38.5018
G01 X26.2801 Y38.5130
G01 X26.2465 Y38.5840
G01 X26.2410 Y38.5950
G01 X26.2350 Y38.6056
G01 X26.1946 Y38.6730
G01 X26.1880 Y38.6833
G01 X26.1810 Y38.6934
G01 X26.1305 Y38.7613
G01 X26.1186 Y38.7754
G01 X26.0659 Y38.8336
G01 X26.0575 Y38.8425
G01 X26.0486 Y38.8509
G01 X25.9904 Y38.9036
G01 X25.9811 Y38.9117
G01 X25.9714 Y38.9192
G01 X25.9084 Y38.9660
G01 X25.8983 Y38.9730
G01 X25.8880 Y38.9796
G01 X25.8206 Y39.0200
G01 X25.8045 Y39.0288
G01 X25.7280 Y39.0651
G01 X25.7168 Y39.0701
G01 X25.7054 Y39.0745
G01 X25.6315 Y39.1009
G01 X25.6198 Y39.1048
G01 X25.6080 Y39.1081
G01 X25.5318 Y39.1271
G01 X25.5198 Y39.1298
G01 X25.5078 Y39.1319
G01 X25.4301 Y39.1434
G01 X25.4179 Y39.1449
G01 X25.4057 Y39.1458
G01 X25.3273 Y39.1497
G01 X25.3150 Y39.1500
G01 X25.3027 Y39.1497
G01 X25.2243 Y39.1458
G01 X25.2121 Y39.1449
G01 X25.1999 Y39.1434
G01 X25.1222 Y39.1319
G01 X25.1102 Y39.1298
G01 X25.0982 Y39.1271
G01 X25.0220 Y39.1081
G01 X25.0102 Y39.1048
G01 X24.9985 Y39.1009
G01 X24.9246 Y39.0745
G01 X24.9132 Y39.0701
G01 X24.9020 Y39.0651
G01 X24.8310 Y39.0315
G01 X24.8200 Y39.0260
G01 X24.8094 Y39.0200
G01 X24.7420 Y38.9796
G01 X24.7317 Y38.9730
G01 X24.7216 Y38.9660
G01 X24.6586 Y38.9192
G01 X24.6489 Y38.9117
G01 X24.6396 Y38.9036
G01 X24.5769 Y38.8467
G01 X24.5641 Y38.8336
G01 X24.5114 Y38.7754
G01 X24.5033 Y38.7661
G01 X24.4958 Y38.7564
G01 X24.4490 Y38.6934
G01 X24.4420 Y38.6833
G01 X24.4354 Y38.6730
G01 X24.3950 Y38.6056
G01 X24.3890 Y38.5950
G01 X24.3835 Y38.5840
G01 X24.3499 Y38.5130
G01 X24.3449 Y38.5018
G01 X24.3405 Y38.4904
G01 X24.3141 Y38.4165
G01 X24.3102 Y38.4048
G01 X24.3069 Y38.3930
G01 X24.2879 Y38.3168
G01 X24.2852 Y38.3048
G01 X24.2831 Y38.2928
G01 X24.2716 Y38.2151
G01 X24.2701 Y38.2029
G01 X24.2692 Y38.1907
G01 X24.2653 Y38.1123
G01 X24.2650 Y38.1000
G01 X24.2653 Y38.0877
G01 X24.2692 Y38.0093
G01 X24.2701 Y37.9971
G01 X24.2716 Y37.9849
G01 X24.2831 Y37.9072
G01 X24.2852 Y37.8952
G01 X24.2879 Y37.8832
G01 X24.3069 Y37.8070
G01 X24.3102 Y37.7952
G01 X24.3141 Y37.7835
G01 X24.3405 Y37.7096
G01 X24.3449 Y37.6982
G01 X24.3499 Y37.6870
G01 X24.3862 Y37.6105
G01 X24.3950 Y37.5944
G01 X24.4354 Y37.5270
G01 X24.4420 Y37.5167
G01 X24.4490 Y37.5066
G01 X24.4958 Y37.4436
G01 X24.5033 Y37.4339
G01 X24.5114 Y37.4246
G01 X24.5641 Y37.3664
G01 X24.5725 Y37.3575
G01 X24.5814 Y37.3491
G01 X24.6396 Y37.2964
G01 X24.6537 Y37.2845
G01 X24.7216 Y37.2340
G01 X24.7317 Y37.2270
G01 X24.7420 Y37.2204
G01 X24.8094 Y37.1800
G01 X24.8200 Y37.1740
G01 X24.8310 Y37.1685
G01 X24.9020 Y37.1349
G01 X24.9132 Y37.1299
G01 X24.9246 Y37.1255
G01 X24.9985 Y37.0991
G01 X25.0102 Y37.0952
G01 X25.0220 Y37.0919
G01 X25.0982 Y37.0729
G01 X25.1102 Y37.0702
G01 X25.1222 Y37.0681
G01 X25.1999 Y37.0566
G01 X25.2121 Y37.0551
G01 X25.2297 Y37.0539
G01 X25.7701 Y36.5135
G01 X25.6335 Y36.4773
G01 X25.6163 Y36.4740
G01 X25.4017 Y36.4486
G01 X25.3841 Y36.4478
G01 X25.1681 Y36.4529
G01 X25.1507 Y36.4546
G01 X24.9375 Y36.4900
G01 X24.9205 Y36.4941
G01 X24.7144 Y36.5593
G01 X24.6981 Y36.5657
G01 X24.5155 Y36.6534
G01 X24.5047 Y36.6583
G01 X24.4936 Y36.6627
G01 X24.4824 Y36.6665
G01 X24.3412 Y36.7109
G01 X24.3239 Y36.7152
G01 X24.3122 Y36.7174
G01 X24.2945 Y36.7197
G01 X24.2766 Y36.7206
G01 X24.1287 Y36.7234
G01 X24.1109 Y36.7227
G01 X24.0990 Y36.7215
G01 X24.0814 Y36.7187
G01 X24.0640 Y36.7146
G01 X23.9270 Y36.6772
G01 X23.9100 Y36.6719
G01 X23.8988 Y36.6677
G01 X23.8825 Y36.6604
G01 X23.8668 Y36.6520
G01 X23.7357 Y36.5713
G01 X23.7211 Y36.5610
G01 X23.7118 Y36.5536
G01 X23.7029 Y36.5458
G01 X23.6901 Y36.5333
G01 X23.5871 Y36.4189
G01 X23.5796 Y36.4097
G01 X23.5691 Y36.3952
G01 X23.5597 Y36.3801
G01 X23.5514 Y36.3643
G01 X23.4899 Y36.2362
G01 X23.4826 Y36.2193
G01 X23.4784 Y36.2078
G01 X23.4747 Y36.1960
G01 X23.4717 Y36.1841
G01 X23.4692 Y36.1721
G01 X23.4452 Y36.0162
G01 X23.4436 Y36.0036
G01 X23.4426 Y35.9909
G01 X23.4423 Y35.9782
G01 X23.4423 Y35.8322
G01 X23.4429 Y35.8143
G01 X23.4441 Y35.8025
G01 X23.4660 Y35.6501
G01 X23.4696 Y35.6326
G01 X23.4726 Y35.6211
G01 X23.4763 Y35.6098
G01 X23.4827 Y35.5932
G01 X23.5441 Y35.4585
G01 X23.5496 Y35.4473
G01 X23.5588 Y35.4310
G01 X23.5657 Y35.4205
G01 X23.5769 Y35.4055
G01 X23.6438 Y35.3224
G01 X23.6570 Y35.3073
G01 X26.5545 Y32.4097
G01 X26.5631 Y32.4015
G01 X26.5721 Y32.3937
G01 X26.5815 Y32.3863
G01 X26.7003 Y32.2975
G01 X26.7160 Y32.2872
G01 X26.7269 Y32.2810
G01 X26.7381 Y32.2754
G01 X26.7553 Y32.2680
G01 X26.8760 Y32.2216
G01 X26.8872 Y32.2176
G01 X26.9044 Y32.2126
G01 X26.9224 Y32.2088
G01 X27.1183 Y32.1448
G01 X27.3007 Y32.0498
G01 X27.4651 Y31.9263
G01 X27.6072 Y31.7777
G01 X27.7230 Y31.6078
G01 X27.8096 Y31.4213
G01 X27.8646 Y31.2231
G01 X27.8864 Y31.0187
G01 X27.8746 Y30.8134
G01 X27.8294 Y30.6128
G01 X27.7520 Y30.4222
G01 X27.6446 Y30.2469
G01 X27.5099 Y30.0915
G01 X27.3517 Y29.9601
G01 X27.1742 Y29.8564
G01 X26.9821 Y29.7830
G01 X26.7806 Y29.7420
G01 X26.5751 Y29.7345
G01 X26.3711 Y29.7606
G01 X26.1742 Y29.8197
G01 X25.9895 Y29.9102
G01 X25.8221 Y30.0296
G01 X25.6764 Y30.1747
G01 X25.5564 Y30.3417
G01 X25.4653 Y30.5261
G01 X25.3977 Y30.7483
G01 X25.3936 Y30.7599
G01 X25.3889 Y30.7712
G01 X25.3801 Y30.7890
G01 X25.3531 Y30.8617
G01 X25.3487 Y30.8728
G01 X25.3437 Y30.8837
G01 X25.3353 Y30.8995
G01 X25.3291 Y30.9097
G01 X25.3225 Y30.9195
G01 X25.2335 Y31.0386
G01 X25.2262 Y31.0480
G01 X25.2183 Y31.0571
G01 X25.2101 Y31.0657
G01 X21.8600 Y34.4158
G01 X21.8303 Y34.4438
G01 X21.7994 Y34.4711
G01 X21.7488 Y34.5349
G01 X21.7046 Y34.5881
G01 X21.6983 Y34.5980
G01 X21.6916 Y34.6076
G01 X21.6593 Y34.6688
G01 X21.6194 Y34.7406
G01 X21.6150 Y34.7515
G01 X21.6101 Y34.7622
G01 X21.5855 Y34.8406
G01 X21.5633 Y34.9061
G01 X21.5610 Y34.9176
G01 X21.5582 Y34.9290
G01 X21.5500 Y34.9976
G01 X21.5385 Y35.0782
G01 X21.5407 Y35.1343
G01 X21.5413 Y35.1637
G01 X21.5412 Y42.1149
G01 X21.5407 Y42.1268
G01 X21.5388 Y42.1445
G01 X21.5185 Y42.2851
G01 X21.5154 Y42.3027
G01 X21.5110 Y42.3200
G01 X21.5073 Y42.3313
G01 X21.5009 Y42.3479
G01 X21.4395 Y42.4826
G01 X21.4343 Y42.4933
G01 X21.4286 Y42.5037
G01 X21.4224 Y42.5139
G01 X21.4157 Y42.5237
G01 X21.4049 Y42.5379
G01 X21.3080 Y42.6498
G01 X21.3000 Y42.6586
G01 X21.2872 Y42.6710
G01 X21.2736 Y42.6826
G01 X21.2641 Y42.6897
G01 X21.2542 Y42.6964
G01 X21.1348 Y42.7732
G01 X21.1246 Y42.7794
G01 X21.1088 Y42.7877
G01 X21.0980 Y42.7927
G01 X21.0870 Y42.7971
G01 X21.0700 Y42.8027
G01 X20.9337 Y42.8427
G01 X20.9165 Y42.8471
G01 X20.9048 Y42.8494
G01 X20.8871 Y42.8517
G01 X20.8693 Y42.8528
G01 X20.7213 Y42.8529
G01 X20.7094 Y42.8526
G01 X20.6916 Y42.8511
G01 X20.6798 Y42.8494
G01 X20.6681 Y42.8471
G01 X20.6566 Y42.8443
G01 X20.5146 Y42.8027
G01 X20.5031 Y42.7990
G01 X20.4918 Y42.7948
G01 X20.4753 Y42.7875
G01 X20.4199 Y42.7587
G01 X20.2908 Y42.6834
G01 X20.0987 Y42.6100
G01 X19.8972 Y42.5690
G01 X19.8227 Y42.5663
G01 X19.8108 Y42.5656
G01 X19.7990 Y42.5643
G01 X19.7872 Y42.5624
G01 X19.6416 Y42.5360
G01 X19.6300 Y42.5333
G01 X19.6129 Y42.5282
G01 X19.5962 Y42.5220
G01 X19.5853 Y42.5172
G01 X19.4477 Y42.4481
G01 X19.4323 Y42.4392
G01 X19.4175 Y42.4292
G01 X19.4035 Y42.4181
G01 X19.3946 Y42.4102
G01 X19.2864 Y42.3092
G01 X19.2781 Y42.3007
G01 X19.2665 Y42.2872
G01 X19.2592 Y42.2778
G01 X19.2492 Y42.2630
G01 X19.1708 Y42.1305
G01 X19.1653 Y42.1200
G01 X19.1579 Y42.1038
G01 X19.1516 Y42.0870
G01 X19.1466 Y42.0699
G01 X19.1102 Y41.9265
G01 X19.1079 Y41.9148
G01 X19.1060 Y41.9031
G01 X19.1048 Y41.8912
G01 X19.1041 Y41.8794
G01 X19.1041 Y41.8615
G01 X19.1093 Y41.7196
G01 X19.1100 Y41.7076
G01 X19.1113 Y41.6956
G01 X19.1132 Y41.6837
G01 X19.1157 Y41.6719
G01 X19.1254 Y41.6341
G01 X19.1333 Y41.6012
G01 X19.1385 Y41.5841
G01 X19.1408 Y41.5726
G01 X19.1436 Y41.5612
G01 X19.1518 Y41.4926
G01 X19.1633 Y41.4120
G01 X19.1611 Y41.3559
G01 X19.1605 Y41.3265
G01 X19.1605 Y39.1570
G01 X19.1608 Y39.1451
G01 X19.1616 Y39.1332
G01 X19.1630 Y39.1214
G01 X19.1842 Y38.9746
G01 X19.1866 Y38.9624
G01 X19.1896 Y38.9503
G01 X19.1932 Y38.9384
G01 X19.1974 Y38.9266
G01 X19.2048 Y38.9094
G01 X19.2742 Y38.7629
G01 X19.2837 Y38.7458
G01 X19.3010 Y38.7198
G01 X19.3876 Y38.5333
G01 X19.4426 Y38.3351
G01 X19.4644 Y38.1307
G01 X19.4526 Y37.9254
G01 X19.4074 Y37.7248
G01 X19.3300 Y37.5342
G01 X19.2709 Y37.4377
G01 X19.2621 Y37.4222
G01 X19.2545 Y37.4061
G01 X19.1982 Y37.2756
G01 X19.1936 Y37.2640
G01 X19.1895 Y37.2522
G01 X19.1860 Y37.2402
G01 X19.1832 Y37.2281
G01 X19.1809 Y37.2158
G01 X19.1627 Y37.0793
G01 X19.1608 Y37.0596
G01 X19.1605 Y37.0464
G01 X19.1605 Y33.5006
G01 X19.1611 Y33.4828
G01 X19.1623 Y33.4709
G01 X19.1833 Y33.3244
G01 X19.1853 Y33.3121
G01 X19.1880 Y33.3000
G01 X19.1913 Y33.2879
G01 X19.1952 Y33.2761
G01 X19.1997 Y33.2645
G01 X19.2048 Y33.2531
G01 X19.2713 Y33.1124
G01 X19.2772 Y33.1008
G01 X19.2837 Y33.0895
G01 X19.2908 Y33.0785
G01 X19.3410 Y33.0048
G01 X19.4276 Y32.8183
G01 X19.4826 Y32.6201
G01 X19.5044 Y32.4157
G01 X19.4926 Y32.2104
G01 X19.4474 Y32.0098
G01 X19.3700 Y31.8192
G01 X19.2626 Y31.6439
G01 X19.1279 Y31.4885
G01 X18.9697 Y31.3571
G01 X18.7922 Y31.2534
G01 X18.6001 Y31.1800
G01 X18.5505 Y31.1699
G01 X18.5389 Y31.1669
G01 X18.5275 Y31.1635
G01 X18.3882 Y31.1137
G01 X18.3768 Y31.1093
G01 X18.3657 Y31.1044
G01 X18.3548 Y31.0989
G01 X18.3442 Y31.0929
G01 X18.3289 Y31.0830
G01 X18.2043 Y30.9911
G01 X18.1945 Y30.9835
G01 X18.1850 Y30.9754
G01 X18.1760 Y30.9668
G01 X15.6057 Y28.3964
G01 X15.5939 Y28.3831
G01 X15.5865 Y28.3737
G01 X15.5014 Y28.2600
G01 X15.4912 Y28.2453
G01 X15.4821 Y28.2300
G01 X15.4741 Y28.2140
G01 X15.4673 Y28.1976
G01 X15.4177 Y28.0645
G01 X15.4136 Y28.0527
G01 X15.4086 Y28.0346
G01 X15.4060 Y28.0224
G01 X15.4041 Y28.0100
G01 X15.3919 Y27.8978
G01 X15.3909 Y27.8844
G01 X15.3905 Y27.8710
G01 X15.3905 Y23.5126
G01 X15.3917 Y23.4159
G01 X15.3908 Y23.4028
G01 X15.3905 Y23.3894
G01 X15.3905 Y19.7419
G01 X15.3917 Y19.7011
G01 X15.3943 Y19.6600
G01 X15.3849 Y19.5791
G01 X15.3785 Y19.5103
G01 X15.3760 Y19.4988
G01 X15.3740 Y19.4873
G01 X15.3498 Y19.4088
G01 X15.3310 Y19.3422
G01 X15.3264 Y19.3314
G01 X15.3223 Y19.3204
G01 X15.2842 Y19.2476
G01 X15.2536 Y19.1855
G01 X15.2471 Y19.1758
G01 X15.2411 Y19.1657
G01 X15.1982 Y19.1113
G01 X15.1494 Y19.0463
G01 X15.1082 Y19.0081
G01 X15.0870 Y18.9878
G01 X12.4854 Y16.3862
G01 X12.4574 Y16.3564
G01 X12.4301 Y16.3256
G01 X12.4170 Y16.3145
G01 X12.4001 Y16.2985
G01 X12.3844 Y16.2846
G01 X12.3737 Y16.2745
G01 X7.9899 Y11.8907
G01 X7.9777 Y11.8776
G01 X7.9701 Y11.8684
G01 X7.8779 Y11.7452
G01 X7.8681 Y11.7303
G01 X7.8593 Y11.7147
G01 X7.8541 Y11.7040
G01 X7.8473 Y11.6876
G01 X7.7977 Y11.5545
G01 X7.7918 Y11.5367
G01 X7.7886 Y11.5246
G01 X7.7860 Y11.5124
G01 X7.7833 Y11.4938
G01 X7.7719 Y11.3878
G01 X7.7709 Y11.3744
G01 X7.7705 Y11.3610
G01 X7.7705 Y11.3025
G01 X7.7711 Y11.2846
G01 X7.7730 Y11.2669
G01 X7.7933 Y11.1263
G01 X7.7952 Y11.1146
G01 X7.7992 Y11.0972
G01 X7.8026 Y11.0858
G01 X7.8065 Y11.0745
G01 X7.8133 Y11.0580
G01 X7.8748 Y10.9235
G01 X7.8803 Y10.9129
G01 X7.8862 Y10.9026
G01 X7.8961 Y10.8877
G01 X7.9032 Y10.8782
G01 X7.9108 Y10.8690
G01 X8.0077 Y10.7572
G01 X8.0159 Y10.7486
G01 X8.0290 Y10.7364
G01 X8.0429 Y10.7252
G01 X8.0526 Y10.7183
G01 X8.1770 Y10.6383
G01 X8.1872 Y10.6321
G01 X8.2030 Y10.6237
G01 X8.2138 Y10.6188
G01 X8.2248 Y10.6143
G01 X8.2361 Y10.6104
G01 X8.3781 Y10.5687
G01 X8.3895 Y10.5656
G01 X8.4070 Y10.5620
G01 X8.4247 Y10.5597
G01 X8.4425 Y10.5586
G01 X8.5600 Y10.5586
G00 Z5.0000
G00 X11.1497 Y9.7893
G01 F60.00
G01 Z-0.1000
G01 F300.00
G01 X11.0964 Y9.7304
G01 X11.0883 Y9.7211
G01 X11.0808 Y9.7114
G01 X11.0340 Y9.6484
G01 X11.0270 Y9.6383
G01 X11.0204 Y9.6280
G01 X10.9800 Y9.5606
G01 X10.9740 Y9.5500
G01 X10.9685 Y9.5390
G01 X10.9349 Y9.4680
G01 X10.9299 Y9.4568
G01 X10.9255 Y9.4454
G01 X10.8991 Y9.3715
G01 X10.8952 Y9.3598
G01 X10.8919 Y9.3480
G01 X10.8729 Y9.2718
G01 X10.8702 Y9.2598
G01 X10.8681 Y9.2478
G01 X10.8566 Y9.1701
G01 X10.8551 Y9.1579
G01 X10.8542 Y9.1457
G01 X10.8503 Y9.0673
G01 X10.8500 Y9.0550
G01 X10.8501 Y7.4489
G01 X10.8542 Y7.3643
G01 X10.8551 Y7.3521
G01 X10.8566 Y7.3399
G01 X10.8681 Y7.2622
G01 X10.8702 Y7.2502
G01 X10.8729 Y7.2382
G01 X10.8919 Y7.1620
G01 X10.8971 Y7.1444
G01 X10.9255 Y7.0646
G01 X10.9299 Y7.0532
G01 X10.9349 Y7.0420
G01 X10.9685 Y6.9710
G01 X10.9740 Y6.9600
G01 X10.9800 Y6.9494
G01 X11.0204 Y6.8820
G01 X11.0270 Y6.8717
G01 X11.0340 Y6.8616
G01 X11.0808 Y6.7986
G01 X11.0883 Y6.7889
G01 X11.0964 Y6.7796
G01 X11.1491 Y6.7214
G01 X11.1575 Y6.7125
G01 X11.1664 Y6.7041
G01 X11.2246 Y6.6514
G01 X11.2339 Y6.6433
G01 X11.2436 Y6.6358
G01 X11.3066 Y6.5890
G01 X11.3167 Y6.5820
G01 X11.3270 Y6.5754
G01 X11.3944 Y6.5350
G01 X11.4050 Y6.5290
G01 X11.4160 Y6.5235
G01 X11.4870 Y6.4899
G01 X11.4982 Y6.4849
G01 X11.5096 Y6.4805
G01 X11.5835 Y6.4541
G01 X11.5952 Y6.4502
G01 X11.6070 Y6.4469
G01 X11.6832 Y6.4279
G01 X11.6952 Y6.4252
G01 X11.7072 Y6.4231
G01 X11.7849 Y6.4116
G01 X11.7971 Y6.4101
G01 X11.8093 Y6.4092
G01 X11.8877 Y6.4053
G01 X11.9000 Y6.4050
G01 X11.9123 Y6.4053
G01 X11.9907 Y6.4092
G01 X12.0029 Y6.4101
G01 X12.0151 Y6.4116
G01 X12.0928 Y6.4231
G01 X12.1048 Y6.4252
G01 X12.1168 Y6.4279
G01 X12.1930 Y6.4469
G01 X12.2106 Y6.4521
G01 X12.2904 Y6.4805
G01 X12.3018 Y6.4849
G01 X12.3130 Y6.4899
G01 X12.3840 Y6.5235
G01 X12.3950 Y6.5290
G01 X12.4056 Y6.5350
G01 X12.4730 Y6.5754
G01 X12.4833 Y6.5820
G01 X12.4934 Y6.5890
G01 X12.5564 Y6.6358
G01 X12.5661 Y6.6433
G01 X12.5754 Y6.6514
G01 X12.6336 Y6.7041
G01 X12.6425 Y6.7125
G01 X12.6509 Y6.7214
G01 X12.7036 Y6.7796
G01 X12.7117 Y6.7889
G01 X12.7192 Y6.7986
G01 X12.7660 Y6.8616
G01 X12.7730 Y6.8717
G01 X12.7796 Y6.8820
G01 X12.8200 Y6.9494
G01 X12.8260 Y6.9600
G01 X12.8315 Y6.9710
G01 X12.8651 Y7.0420
G01 X12.8701 Y7.0532
G01 X12.8745 Y7.0646
G01 X12.9009 Y7.1385
G01 X12.9048 Y7.1502
G01 X12.9081 Y7.1620
G01 X12.9271 Y7.2382
G01 X12.9298 Y7.2502
G01 X12.9319 Y7.2622
G01 X12.9434 Y7.3399
G01 X12.9449 Y7.3521
G01 X12.9458 Y7.3643
G01 X12.9497 Y7.4427
G01 X12.9500 Y7.4550
G01 X12.9500 Y9.0550
G01 X12.9497 Y9.0673
G01 X12.9458 Y9.1457
G01 X12.9449 Y9.1579
G01 X12.9434 Y9.1701
G01 X12.9319 Y9.2478
G01 X12.9298 Y9.2598
G01 X12.9271 Y9.2718
G01 X12.9081 Y9.3480
G01 X12.9048 Y9.3598
G01 X12.9009 Y9.3715
G01 X12.8745 Y9.4454
G01 X12.8701 Y9.4568
G01 X12.8651 Y9.4680
G01 X12.8315 Y9.5390
G01 X12.8260 Y9.5500
G01 X12.8200 Y9.5606
G01 X12.7796 Y9.6280
G01 X12.7730 Y9.6383
G01 X12.7660 Y9.6484
G01 X12.7192 Y9.7114
G01 X12.7117 Y9.7211
G01 X12.7036 Y9.7304
G01 X12.6503 Y9.7893
G01 X12.6503 Y10.6112
G01 X17.2908 Y15.2517
G01 X29.4260 Y15.2517
G01 X29.4873 Y15.2545
G01 X29.4995 Y15.2554
G01 X29.5117 Y15.2569
G01 X29.5663 Y15.2650
G01 X29.5843 Y15.2689
G01 X29.6320 Y15.2808
G01 X29.6438 Y15.2841
G01 X29.6554 Y15.2879
G01 X29.7131 Y15.3089
G01 X29.7687 Y15.3348
G01 X29.7797 Y15.3403
G01 X29.7903 Y15.3464
G01 X29.8428 Y15.3782
G01 X29.8923 Y15.4145
G01 X29.9066 Y15.4260
G01 X29.9476 Y15.4630
G01 X29.9565 Y15.4715
G01 X30.9613 Y16.4763
G01 X31.0407 Y16.4802
G01 X31.0529 Y16.4811
G01 X31.0651 Y16.4826
G01 X31.1428 Y16.4941
G01 X31.1548 Y16.4962
G01 X31.1668 Y16.4989
G01 X31.2430 Y16.5179
G01 X31.2548 Y16.5212
G01 X31.2665 Y16.5251
G01 X31.3404 Y16.5515
G01 X31.3518 Y16.5559
G01 X31.3630 Y16.5609
G01 X31.4340 Y16.5945
G01 X31.4450 Y16.6000
G01 X31.4556 Y16.6060
G01 X31.5230 Y16.6464
G01 X31.5333 Y16.6530
G01 X31.5434 Y16.6600
G01 X31.6064 Y16.7068
G01 X31.6161 Y16.7143
G01 X31.6254 Y16.7224
G01 X31.6836 Y16.7751
G01 X31.6925 Y16.7835
G01 X31.7009 Y16.7924
G01 X31.7536 Y16.8506
G01 X31.7617 Y16.8599
G01 X31.7692 Y16.8696
G01 X31.8160 Y16.9326
G01 X31.8230 Y16.9427
G01 X31.8296 Y16.9530
G01 X31.8700 Y17.0204
G01 X31.8760 Y17.0310
G01 X31.8815 Y17.0420
G01 X31.9151 Y17.1130
G01 X31.9201 Y17.1242
G01 X31.9245 Y17.1356
G01 X31.9509 Y17.2095
G01 X31.9548 Y17.2212
G01 X31.9581 Y17.2330
G01 X31.9771 Y17.3092
G01 X31.9798 Y17.3212
G01 X31.9819 Y17.3332
G01 X31.9934 Y17.4109
G01 X31.9949 Y17.4231
G01 X31.9958 Y17.4353
G01 X31.9997 Y17.5137
G01 X32.0000 Y17.5260
G01 X31.9997 Y17.5383
G01 X31.9958 Y17.6167
G01 X31.9949 Y17.6289
G01 X31.9934 Y17.6411
G01 X31.9819 Y17.7188
G01 X31.9798 Y17.7308
G01 X31.9771 Y17.7428
G01 X31.9581 Y17.8190
G01 X31.9548 Y17.8308
G01 X31.9509 Y17.8425
G01 X31.9224 Y17.9221
G01 X31.9151 Y17.9390
G01 X31.8815 Y18.0100
G01 X31.8760 Y18.0210
G01 X31.8700 Y18.0316
G01 X31.8296 Y18.0990
G01 X31.8230 Y18.1093
G01 X31.8160 Y18.1194
G01 X31.7692 Y18.1824
G01 X31.7617 Y18.1921
G01 X31.7536 Y18.2014
G01 X31.7009 Y18.2596
G01 X31.6925 Y18.2685
G01 X31.6836 Y18.2769
G01 X31.6254 Y18.3296
G01 X31.6161 Y18.3377
G01 X31.6064 Y18.3452
G01 X31.5434 Y18.3920
G01 X31.5333 Y18.3990
G01 X31.5230 Y18.4056
G01 X31.4556 Y18.4460
G01 X31.4450 Y18.4520
G01 X31.4340 Y18.4575
G01 X31.3630 Y18.4911
G01 X31.3518 Y18.4961
G01 X31.3404 Y18.5005
G01 X31.2665 Y18.5269
G01 X31.2548 Y18.5308
G01 X31.2430 Y18.5341
G01 X31.1668 Y18.5531
G01 X31.1548 Y18.5558
G01 X31.1428 Y18.5579
G01 X31.0651 Y18.5694
G01 X31.0529 Y18.5709
G01 X31.0407 Y18.5718
G01 X30.9623 Y18.5757
G01 X30.9500 Y18.5760
G01 X30.9377 Y18.5757
G01 X30.8593 Y18.5718
G01 X30.8471 Y18.5709
G01 X30.8349 Y18.5694
G01 X30.7572 Y18.5579
G01 X30.7452 Y18.5558
G01 X30.7332 Y18.5531
G01 X30.6570 Y18.5341
G01 X30.6452 Y18.5308
G01 X30.6335 Y18.5269
G01 X30.5596 Y18.5005
G01 X30.5482 Y18.4961
G01 X30.5370 Y18.4911
G01 X30.4660 Y18.4575
G01 X30.4550 Y18.4520
G01 X30.4444 Y18.4460
G01 X30.3770 Y18.4056
G01 X30.3667 Y18.3990
G01 X30.3566 Y18.3920
G01 X30.2936 Y18.3452
G01 X30.2839 Y18.3377
G01 X30.2746 Y18.3296
G01 X30.2164 Y18.2769
G01 X30.2075 Y18.2685
G01 X30.1991 Y18.2596
G01 X30.1464 Y18.2014
G01 X30.1383 Y18.1921
G01 X30.1308 Y18.1824
G01 X30.0840 Y18.1194
G01 X30.0770 Y18.1093
G01 X30.0704 Y18.0990
G01 X30.0300 Y18.0316
G01 X30.0240 Y18.0210
G01 X30.0185 Y18.0100
G01 X29.9849 Y17.9390
G01 X29.9799 Y17.9278
G01 X29.9755 Y17.9164
G01 X29.9491 Y17.8425
G01 X29.9452 Y17.8308
G01 X29.9419 Y17.8190
G01 X29.9229 Y17.7428
G01 X29.9202 Y17.7308
G01 X29.9181 Y17.7188
G01 X29.9066 Y17.6411
G01 X29.9051 Y17.6289
G01 X29.9042 Y17.6167
G01 X29.9003 Y17.5373
G01 X29.1152 Y16.7523
G01 X16.9800 Y16.7523
G01 X16.9187 Y16.7495
G01 X16.9065 Y16.7486
G01 X16.8457 Y16.7399
G01 X16.8336 Y16.7378
G01 X16.8217 Y16.7351
G01 X16.7622 Y16.7199
G01 X16.7506 Y16.7161
G01 X16.6986 Y16.6974
G01 X16.6817 Y16.6902
G01 X16.6263 Y16.6637
G01 X16.5736 Y16.6324
G01 X16.5632 Y16.6258
G01 X16.5137 Y16.5895
G01 X16.5040 Y16.5820
G01 X16.4584 Y16.5410
G01 X16.4495 Y16.5325
G01 X11.3695 Y11.4525
G01 X11.3610 Y11.4436
G01 X11.3200 Y11.3980
G01 X11.2833 Y11.3488
G01 X11.2762 Y11.3388
G01 X11.2444 Y11.2863
G01 X11.2383 Y11.2757
G01 X11.2328 Y11.2647
G01 X11.2069 Y11.2091
G01 X11.1859 Y11.1514
G01 X11.1821 Y11.1398
G01 X11.1669 Y11.0803
G01 X11.1642 Y11.0684
G01 X11.1621 Y11.0563
G01 X11.1534 Y10.9955
G01 X11.1501 Y10.9343
G01 X11.1497 Y10.9220
G01 X11.1497 Y9.7893
G00 Z5.0000
G00 X15.2400 Y10.4987
G01 F60.00
G01 Z-0.1000
G01 F300.00
G01 X15.2400 Y9.7344
G01 X15.2517 Y9.7211
G01 X15.2592 Y9.7114
G01 X15.3060 Y9.6484
G01 X15.3130 Y9.6383
G01 X15.3196 Y9.6280
G01 X15.3600 Y9.5606
G01 X15.3660 Y9.5500
G01 X15.3715 Y9.5390
G01 X15.4051 Y9.4680
G01 X15.4101 Y9.4568
G01 X15.4145 Y9.4454
G01 X15.4409 Y9.3715
G01 X15.4448 Y9.3598
G01 X15.4481 Y9.3480
G01 X15.4671 Y9.2718
G01 X15.4698 Y9.2598
G01 X15.4719 Y9.2478
G01 X15.4834 Y9.1701
G01 X15.4849 Y9.1579
G01 X15.4858 Y9.1457
G01 X15.4897 Y9.0673
G01 X15.4900 Y9.0550
G01 X16.0900 Y9.0550
G01 X16.0898 Y9.1539
G01 X16.0871 Y9.2089
G01 X16.0854 Y9.2240
G01 X16.0468 Y9.4464
G01 X16.0425 Y9.4638
G01 X15.9735 Y9.6742
G01 X15.9667 Y9.6908
G01 X15.8680 Y9.8891
G01 X15.8589 Y9.9046
G01 X15.7327 Y10.0865
G01 X15.7214 Y10.1005
G01 X15.5702 Y10.2623
G01 X15.5571 Y10.2745
G01 X15.3841 Y10.4128
G01 X15.3693 Y10.4230
G01 X15.2400 Y10.4987
G00 Z5.0000
G00 X20.8017 Y9.6623
G01 F60.00
G01 Z-0.1000
G01 F300.00
G01 X20.7484 Y9.6034
G01 X20.7403 Y9.5941
G01 X20.7328 Y9.5844
G01 X20.6860 Y9.5214
G01 X20.6790 Y9.5113
G01 X20.6724 Y9.5010
G01 X20.6320 Y9.4336
G01 X20.6260 Y9.4230
G01 X20.6205 Y9.4120
G01 X20.5869 Y9.3410
G01 X20.5819 Y9.3298
G01 X20.5775 Y9.3184
G01 X20.5511 Y9.2445
G01 X20.5472 Y9.2328
G01 X20.5439 Y9.2210
G01 X20.5249 Y9.1448
G01 X20.5222 Y9.1328
G01 X20.5201 Y9.1208
G01 X20.5086 Y9.0431
G01 X20.5071 Y9.0309
G01 X20.5062 Y9.0187
G01 X20.5023 Y8.9403
G01 X20.5020 Y8.9280
G01 X20.5021 Y7.3219
G01 X20.5062 Y7.2373
G01 X20.5071 Y7.2251
G01 X20.5086 Y7.2129
G01 X20.5201 Y7.1352
G01 X20.5222 Y7.1232
G01 X20.5249 Y7.1112
G01 X20.5439 Y7.0350
G01 X20.5491 Y7.0174
G01 X20.5775 Y6.9376
G01 X20.5819 Y6.9262
G01 X20.5869 Y6.9150
G01 X20.6205 Y6.8440
G01 X20.6260 Y6.8330
G01 X20.6320 Y6.8224
G01 X20.6724 Y6.7550
G01 X20.6790 Y6.7447
G01 X20.6860 Y6.7346
G01 X20.7328 Y6.6716
G01 X20.7403 Y6.6619
G01 X20.7484 Y6.6526
G01 X20.8011 Y6.5944
G01 X20.8095 Y6.5855
G01 X20.8184 Y6.5771
G01 X20.8766 Y6.5244
G01 X20.8859 Y6.5163
G01 X20.8956 Y6.5088
G01 X20.9586 Y6.4620
G01 X20.9687 Y6.4550
G01 X20.9790 Y6.4484
G01 X21.0464 Y6.4080
G01 X21.0570 Y6.4020
G01 X21.0680 Y6.3965
G01 X21.1390 Y6.3629
G01 X21.1502 Y6.3579
G01 X21.1616 Y6.3535
G01 X21.2355 Y6.3271
G01 X21.2472 Y6.3232
G01 X21.2590 Y6.3199
G01 X21.3352 Y6.3009
G01 X21.3472 Y6.2982
G01 X21.3592 Y6.2961
G01 X21.4369 Y6.2846
G01 X21.4491 Y6.2831
G01 X21.4613 Y6.2822
G01 X21.5397 Y6.2783
G01 X21.5520 Y6.2780
G01 X21.5643 Y6.2783
G01 X21.6427 Y6.2822
G01 X21.6549 Y6.2831
G01 X21.6671 Y6.2846
G01 X21.7448 Y6.2961
G01 X21.7568 Y6.2982
G01 X21.7688 Y6.3009
G01 X21.8450 Y6.3199
G01 X21.8626 Y6.3251
G01 X21.9424 Y6.3535
G01 X21.9538 Y6.3579
G01 X21.9650 Y6.3629
G01 X22.0360 Y6.3965
G01 X22.0470 Y6.4020
G01 X22.0576 Y6.4080
G01 X22.1250 Y6.4484
G01 X22.1353 Y6.4550
G01 X22.1454 Y6.4620
G01 X22.2084 Y6.5088
G01 X22.2181 Y6.5163
G01 X22.2274 Y6.5244
G01 X22.2856 Y6.5771
G01 X22.2945 Y6.5855
G01 X22.3029 Y6.5944
G01 X22.3556 Y6.6526
G01 X22.3637 Y6.6619
G01 X22.3712 Y6.6716
G01 X22.4180 Y6.7346
G01 X22.4250 Y6.7447
G01 X22.4316 Y6.7550
G01 X22.4720 Y6.8224
G01 X22.4780 Y6.8330
G01 X22.4835 Y6.8440
G01 X22.5171 Y6.9150
G01 X22.5221 Y6.9262
G01 X22.5265 Y6.9376
G01 X22.5529 Y7.0115
G01 X22.5568 Y7.0232
G01 X22.5601 Y7.0350
G01 X22.5791 Y7.1112
G01 X22.5829 Y7.1292
G01 X22.5954 Y7.2129
G01 X22.5969 Y7.2251
G01 X22.5978 Y7.2373
G01 X22.6017 Y7.3157
G01 X22.6020 Y7.3280
G01 X22.6020 Y8.9280
G01 X22.6017 Y8.9403
G01 X22.5975 Y9.0248
G01 X22.5954 Y9.0431
G01 X22.5839 Y9.1208
G01 X22.5818 Y9.1328
G01 X22.5791 Y9.1448
G01 X22.5601 Y9.2210
G01 X22.5568 Y9.2328
G01 X22.5529 Y9.2445
G01 X22.5265 Y9.3184
G01 X22.5221 Y9.3298
G01 X22.5171 Y9.3410
G01 X22.4835 Y9.4120
G01 X22.4780 Y9.4230
G01 X22.4720 Y9.4336
G01 X22.4316 Y9.5010
G01 X22.4250 Y9.5113
G01 X22.4180 Y9.5214
G01 X22.3712 Y9.5844
G01 X22.3637 Y9.5941
G01 X22.3556 Y9.6034
G01 X22.3023 Y9.6623
G01 X22.3023 Y10.8652
G01 X22.7518 Y11.3147
G01 X32.2200 Y11.3147
G01 X32.2813 Y11.3175
G01 X32.2935 Y11.3184
G01 X32.3543 Y11.3271
G01 X32.3664 Y11.3292
G01 X32.3783 Y11.3319
G01 X32.4260 Y11.3438
G01 X32.4436 Y11.3489
G01 X32.5014 Y11.3696
G01 X32.5183 Y11.3768
G01 X32.5737 Y11.4033
G01 X32.6264 Y11.4346
G01 X32.6419 Y11.4447
G01 X32.6912 Y11.4812
G01 X32.7052 Y11.4931
G01 X32.7461 Y11.5302
G01 X37.1955 Y15.9795
G01 X37.2040 Y15.9884
G01 X37.2450 Y16.0340
G01 X37.2817 Y16.0832
G01 X37.2888 Y16.0932
G01 X37.2954 Y16.1036
G01 X37.3267 Y16.1563
G01 X37.3532 Y16.2117
G01 X37.3581 Y16.2229
G01 X37.3626 Y16.2343
G01 X37.3829 Y16.2922
G01 X37.3981 Y16.3517
G01 X37.4008 Y16.3636
G01 X37.4101 Y16.4243
G01 X37.4116 Y16.4365
G01 X37.4125 Y16.4487
G01 X37.4153 Y16.5100
G01 X37.4153 Y35.5600
G01 X37.4149 Y35.5723
G01 X37.4116 Y35.6335
G01 X37.4101 Y35.6457
G01 X37.4020 Y35.7003
G01 X37.3981 Y35.7183
G01 X37.3862 Y35.7660
G01 X37.3829 Y35.7778
G01 X37.3791 Y35.7894
G01 X37.3581 Y35.8471
G01 X37.3322 Y35.9027
G01 X37.3267 Y35.9137
G01 X37.2954 Y35.9664
G01 X37.2888 Y35.9768
G01 X37.2817 Y35.9868
G01 X37.2450 Y36.0360
G01 X37.2369 Y36.0452
G01 X37.1998 Y36.0861
G01 X33.6053 Y39.6808
G01 X33.6053 Y45.5930
G01 X33.6025 Y45.6543
G01 X33.6016 Y45.6665
G01 X33.6001 Y45.6787
G01 X33.5920 Y45.7333
G01 X33.5881 Y45.7513
G01 X33.5762 Y45.7990
G01 X33.5729 Y45.8108
G01 X33.5691 Y45.8224
G01 X33.5481 Y45.8801
G01 X33.5222 Y45.9357
G01 X33.5167 Y45.9467
G01 X33.4854 Y45.9994
G01 X33.4788 Y46.0098
G01 X33.4717 Y46.0198
G01 X33.4350 Y46.0690
G01 X33.4269 Y46.0782
G01 X33.3898 Y46.1191
G01 X32.6235 Y46.8855
G01 X32.6146 Y46.8940
G01 X32.5736 Y46.9310
G01 X32.5593 Y46.9425
G01 X32.5098 Y46.9788
G01 X32.4573 Y47.0106
G01 X32.4467 Y47.0167
G01 X32.4357 Y47.0222
G01 X32.3801 Y47.0481
G01 X32.3687 Y47.0526
G01 X32.3108 Y47.0729
G01 X32.2513 Y47.0881
G01 X32.2394 Y47.0908
G01 X32.2273 Y47.0929
G01 X32.1665 Y47.1016
G01 X32.1543 Y47.1025
G01 X32.0991 Y47.1052
G01 X30.0841 Y47.1053
G01 X30.0252 Y47.1586
G01 X30.0159 Y47.1667
G01 X30.0062 Y47.1742
G01 X29.9432 Y47.2210
G01 X29.9331 Y47.2280
G01 X29.9228 Y47.2346
G01 X29.8554 Y47.2750
G01 X29.8448 Y47.2810
G01 X29.8338 Y47.2865
G01 X29.7628 Y47.3201
G01 X29.7516 Y47.3251
G01 X29.7402 Y47.3295
G01 X29.6663 Y47.3559
G01 X29.6546 Y47.3598
G01 X29.6428 Y47.3631
G01 X29.5666 Y47.3821
G01 X29.5546 Y47.3848
G01 X29.5426 Y47.3869
G01 X29.4649 Y47.3984
G01 X29.4527 Y47.3999
G01 X29.4405 Y47.4008
G01 X29.3621 Y47.4047
G01 X29.3498 Y47.4050
G01 X29.3375 Y47.4047
G01 X29.2591 Y47.4008
G01 X29.2469 Y47.3999
G01 X29.2347 Y47.3984
G01 X29.1570 Y47.3869
G01 X29.1450 Y47.3848
G01 X29.1330 Y47.3821
G01 X29.0568 Y47.3631
G01 X29.0450 Y47.3598
G01 X29.0333 Y47.3559
G01 X28.9594 Y47.3295
G01 X28.9480 Y47.3251
G01 X28.9368 Y47.3201
G01 X28.8658 Y47.2865
G01 X28.8548 Y47.2810
G01 X28.8442 Y47.2750
G01 X28.7768 Y47.2346
G01 X28.7665 Y47.2280
G01 X28.7564 Y47.2210
G01 X28.6934 Y47.1742
G01 X28.6837 Y47.1667
G01 X28.6744 Y47.1586
G01 X28.6162 Y47.1059
G01 X28.6073 Y47.0975
G01 X28.5989 Y47.0886
G01 X28.5462 Y47.0304
G01 X28.5381 Y47.0211
G01 X28.5306 Y47.0114
G01 X28.4838 Y46.9484
G01 X28.4768 Y46.9383
G01 X28.4702 Y46.9280
G01 X28.4298 Y46.8606
G01 X28.4238 Y46.8500
G01 X28.4183 Y46.8390
G01 X28.3847 Y46.7680
G01 X28.3797 Y46.7568
G01 X28.3753 Y46.7454
G01 X28.3489 Y46.6715
G01 X28.3450 Y46.6598
G01 X28.3417 Y46.6480
G01 X28.3227 Y46.5718
G01 X28.3200 Y46.5598
G01 X28.3179 Y46.5478
G01 X28.3064 Y46.4701
G01 X28.3049 Y46.4579
G01 X28.3040 Y46.4457
G01 X28.3001 Y46.3673
G01 X28.2998 Y46.3550
G01 X28.3001 Y46.3427
G01 X28.3040 Y46.2643
G01 X28.3055 Y46.2460
G01 X28.3179 Y46.1622
G01 X28.3200 Y46.1502
G01 X28.3227 Y46.1382
G01 X28.3417 Y46.0620
G01 X28.3450 Y46.0502
G01 X28.3489 Y46.0385
G01 X28.3753 Y45.9646
G01 X28.3797 Y45.9532
G01 X28.3847 Y45.9420
G01 X28.4183 Y45.8710
G01 X28.4238 Y45.8600
G01 X28.4298 Y45.8494
G01 X28.4702 Y45.7820
G01 X28.4768 Y45.7717
G01 X28.4838 Y45.7616
G01 X28.5306 Y45.6986
G01 X28.5381 Y45.6889
G01 X28.5462 Y45.6796
G01 X28.5989 Y45.6214
G01 X28.6073 Y45.6125
G01 X28.6162 Y45.6041
G01 X28.6744 Y45.5514
G01 X28.6837 Y45.5433
G01 X28.6934 Y45.5358
G01 X28.7564 Y45.4890
G01 X28.7665 Y45.4820
G01 X28.7768 Y45.4754
G01 X28.8442 Y45.4350
G01 X28.8548 Y45.4290
G01 X28.8658 Y45.4235
G01 X28.9368 Y45.3899
G01 X28.9480 Y45.3849
G01 X28.9594 Y45.3805
G01 X29.0333 Y45.3541
G01 X29.0450 Y45.3502
G01 X29.0568 Y45.3469
G01 X29.1330 Y45.3279
G01 X29.1450 Y45.3252
G01 X29.1570 Y45.3231
G01 X29.2347 Y45.3116
G01 X29.2469 Y45.3101
G01 X29.2591 Y45.3092
G01 X29.3375 Y45.3053
G01 X29.3498 Y45.3050
G01 X29.3621 Y45.3053
G01 X29.4405 Y45.3092
G01 X29.4527 Y45.3101
G01 X29.4649 Y45.3116
G01 X29.5426 Y45.3231
G01 X29.5546 Y45.3252
G01 X29.5666 Y45.3279
G01 X29.6428 Y45.3469
G01 X29.6546 Y45.3502
G01 X29.6663 Y45.3541
G01 X29.7402 Y45.3805
G01 X29.7516 Y45.3849
G01 X29.7628 Y45.3899
G01 X29.8338 Y45.4235
G01 X29.8448 Y45.4290
G01 X29.8554 Y45.4350
G01 X29.9228 Y45.4754
G01 X29.9331 Y45.4820
G01 X29.9432 Y45.4890
G01 X30.0062 Y45.5358
G01 X30.0159 Y45.5433
G01 X30.0252 Y45.5514
G01 X30.0841 Y45.6047
G01 X31.7822 Y45.6047
G01 X32.1047 Y45.2822
G01 X32.1047 Y39.3700
G01 X32.1075 Y39.3087
G01 X32.1084 Y39.2965
G01 X32.1171 Y39.2357
G01 X32.1192 Y39.2236
G01 X32.1219 Y39.2117
G01 X32.1371 Y39.1522
G01 X32.1409 Y39.1406
G01 X32.1596 Y39.0886
G01 X32.1668 Y39.0717
G01 X32.1933 Y39.0163
G01 X32.2246 Y38.9636
G01 X32.2312 Y38.9532
G01 X32.2383 Y38.9432
G01 X32.2750 Y38.8940
G01 X32.3160 Y38.8484
G01 X32.3245 Y38.8395
G01 X35.9147 Y35.2492
G01 X35.9147 Y16.8208
G01 X31.9092 Y12.8153
G01 X22.4410 Y12.8153
G01 X22.3797 Y12.8125
G01 X22.3675 Y12.8116
G01 X22.3067 Y12.8029
G01 X22.2946 Y12.8008
G01 X22.2827 Y12.7981
G01 X22.2291 Y12.7847
G01 X22.2116 Y12.7791
G01 X22.1539 Y12.7581
G01 X22.0983 Y12.7322
G01 X22.0873 Y12.7267
G01 X22.0767 Y12.7206
G01 X22.0346 Y12.6954
G01 X22.0191 Y12.6853
G01 X21.9747 Y12.6525
G01 X21.9650 Y12.6450
G01 X21.9558 Y12.6369
G01 X21.9149 Y12.5998
G01 X21.0215 Y11.7065
G01 X21.0130 Y11.6976
G01 X20.9720 Y11.6520
G01 X20.9353 Y11.6028
G01 X20.9282 Y11.5928
G01 X20.8964 Y11.5403
G01 X20.8903 Y11.5297
G01 X20.8638 Y11.4743
G01 X20.8589 Y11.4631
G01 X20.8544 Y11.4517
G01 X20.8341 Y11.3938
G01 X20.8308 Y11.3820
G01 X20.8162 Y11.3224
G01 X20.8141 Y11.3103
G01 X20.8054 Y11.2495
G01 X20.8045 Y11.2373
G01 X20.8018 Y11.1821
G01 X20.8017 Y9.6623
G00 Z5.0000
G00 X17.0121 Y19.8899
G01 F60.00
G01 Z-0.1000
G01 F300.00
G01 X16.9946 Y19.6778
G01 X16.9958 Y19.6309
G01 X17.0235 Y19.4198
G01 X17.0833 Y19.2231
G01 X17.1744 Y19.0387
G01 X17.2944 Y18.8717
G01 X17.4401 Y18.7266
G01 X17.6075 Y18.6072
G01 X17.7922 Y18.5167
G01 X17.9891 Y18.4576
G01 X18.0986 Y18.4435
G01 X18.1116 Y18.4411
G01 X18.1888 Y18.4250
G01 X18.2067 Y18.4205
G01 X18.2243 Y18.4147
G01 X18.2357 Y18.4102
G01 X18.2653 Y18.3968
G01 X18.3467 Y18.4259
G01 X18.3580 Y18.4296
G01 X18.3695 Y18.4328
G01 X18.3811 Y18.4355
G01 X18.6001 Y18.4800
G01 X18.7922 Y18.5534
G01 X18.9270 Y18.6322
G01 X18.9431 Y18.6408
G01 X18.9542 Y18.6459
G01 X19.0653 Y18.6938
G01 X19.0765 Y18.6983
G01 X19.0878 Y18.7023
G01 X19.1052 Y18.7072
G01 X19.1228 Y18.7108
G01 X19.2693 Y18.7320
G01 X19.2871 Y18.7339
G01 X19.3049 Y18.7345
G01 X20.6167 Y18.7345
G01 X20.6473 Y18.7338
G01 X20.6652 Y18.7327
G01 X20.6771 Y18.7313
G01 X20.6889 Y18.7293
G01 X20.8341 Y18.7010
G01 X20.8514 Y18.6966
G01 X20.8683 Y18.6909
G01 X20.8794 Y18.6865
G01 X20.8902 Y18.6815
G01 X20.9449 Y18.6533
G01 X20.9559 Y18.6497
G01 X20.9674 Y18.6453
G01 X20.9841 Y18.6377
G01 X20.9950 Y18.6319
G01 X21.0179 Y18.6183
G01 X21.0350 Y18.6072
G01 X21.2197 Y18.5167
G01 X21.4166 Y18.4576
G01 X21.5261 Y18.4435
G01 X21.5391 Y18.4411
G01 X21.6163 Y18.4250
G01 X21.6342 Y18.4205
G01 X21.6518 Y18.4147
G01 X21.6632 Y18.4102
G01 X21.6928 Y18.3968
G01 X21.7742 Y18.4259
G01 X21.7855 Y18.4296
G01 X21.7970 Y18.4328
G01 X21.8086 Y18.4355
G01 X22.0276 Y18.4800
G01 X22.2197 Y18.5534
G01 X22.3972 Y18.6571
G01 X22.5554 Y18.7885
G01 X22.6901 Y18.9439
G01 X22.7975 Y19.1192
G01 X22.8459 Y19.2385
G01 X22.8516 Y19.2515
G01 X22.8932 Y19.3334
G01 X22.8993 Y19.3446
G01 X22.9093 Y19.3606
G01 X22.9167 Y19.3709
G01 X22.9246 Y19.3808
G01 X23.0198 Y19.4941
G01 X23.0279 Y19.5028
G01 X23.0408 Y19.5152
G01 X23.0545 Y19.5266
G01 X23.0690 Y19.5370
G01 X23.1873 Y19.6156
G01 X23.2025 Y19.6249
G01 X23.2130 Y19.6306
G01 X23.2238 Y19.6357
G01 X23.2347 Y19.6403
G01 X23.2459 Y19.6443
G01 X23.3929 Y19.6899
G01 X23.4103 Y19.6942
G01 X23.4220 Y19.6964
G01 X23.4338 Y19.6980
G01 X23.4516 Y19.6993
G01 X23.5241 Y19.7005
G01 X23.5430 Y19.7031
G01 X23.5614 Y19.7043
G01 X23.5736 Y19.7044
G01 X23.6002 Y19.7033
G01 X23.6206 Y19.7015
G01 X23.8261 Y19.7090
G01 X24.0276 Y19.7500
G01 X24.2197 Y19.8234
G01 X24.3972 Y19.9271
G01 X24.5554 Y20.0585
G01 X24.6901 Y20.2139
G01 X24.7975 Y20.3892
G01 X24.8749 Y20.5798
G01 X24.8950 Y20.6687
G01 X24.8998 Y20.6854
G01 X24.9036 Y20.6963
G01 X24.9524 Y20.8257
G01 X24.9573 Y20.8376
G01 X24.9627 Y20.8492
G01 X24.9687 Y20.8605
G01 X24.9753 Y20.8715
G01 X24.9825 Y20.8822
G01 X25.0713 Y21.0010
G01 X25.0787 Y21.0104
G01 X25.0905 Y21.0237
G01 X25.7550 Y21.6883
G01 X25.7762 Y21.7086
G01 X25.8174 Y21.7468
G01 X25.8662 Y21.8118
G01 X25.9091 Y21.8662
G01 X25.9151 Y21.8763
G01 X25.9216 Y21.8860
G01 X25.9522 Y21.9481
G01 X25.9903 Y22.0209
G01 X25.9944 Y22.0319
G01 X25.9990 Y22.0427
G01 X26.0178 Y22.1093
G01 X26.0420 Y22.1878
G01 X26.0440 Y22.1993
G01 X26.0465 Y22.2108
G01 X26.0529 Y22.2796
G01 X26.0623 Y22.3605
G01 X26.0597 Y22.4016
G01 X26.0585 Y22.4424
G01 X26.0585 Y25.6164
G01 X26.0593 Y25.6362
G01 X26.0607 Y25.6493
G01 X26.0789 Y25.7858
G01 X26.0812 Y25.7981
G01 X26.0840 Y25.8102
G01 X26.0875 Y25.8222
G01 X26.0916 Y25.8340
G01 X26.0962 Y25.8456
G01 X26.1525 Y25.9761
G01 X26.1601 Y25.9922
G01 X26.1689 Y26.0077
G01 X26.2280 Y26.1042
G01 X26.3054 Y26.2948
G01 X26.3506 Y26.4954
G01 X26.3624 Y26.7007
G01 X26.3406 Y26.9051
G01 X26.2856 Y27.1033
G01 X26.1990 Y27.2898
G01 X26.0832 Y27.4597
G01 X25.9411 Y27.6083
G01 X25.7767 Y27.7318
G01 X25.5943 Y27.8268
G01 X25.3988 Y27.8906
G01 X25.1955 Y27.9217
G01 X25.0561 Y27.9200
G01 X24.9899 Y27.9192
G01 X24.7875 Y27.8832
G01 X24.5936 Y27.8145
G01 X24.4136 Y27.7151
G01 X24.2522 Y27.5877
G01 X24.1138 Y27.4356
G01 X24.0021 Y27.2630
G01 X23.9201 Y27.0744
G01 X23.8701 Y26.8749
G01 X23.8526 Y26.6628
G01 X23.8538 Y26.6159
G01 X23.8815 Y26.4048
G01 X23.9413 Y26.2081
G01 X24.0324 Y26.0237
G01 X24.0401 Y26.0125
G01 X24.0505 Y25.9952
G01 X24.0568 Y25.9841
G01 X24.0625 Y25.9727
G01 X24.1162 Y25.8505
G01 X24.1230 Y25.8333
G01 X24.1268 Y25.8216
G01 X24.1301 Y25.8098
G01 X24.1338 Y25.7917
G01 X24.1550 Y25.6451
G01 X24.1569 Y25.6273
G01 X24.1575 Y25.6095
G01 X24.1573 Y23.6075
G01 X24.1553 Y23.5592
G01 X24.1539 Y23.5465
G01 X24.1518 Y23.5339
G01 X24.1190 Y23.3831
G01 X24.1142 Y23.3659
G01 X24.1103 Y23.3547
G01 X24.1034 Y23.3382
G01 X24.0955 Y23.3222
G01 X24.0245 Y23.1924
G01 X24.0183 Y23.1822
G01 X24.0081 Y23.1676
G01 X23.9969 Y23.1537
G01 X23.9847 Y23.1406
G01 X23.8843 Y23.0402
G01 X23.8712 Y23.0280
G01 X23.8621 Y23.0204
G01 X23.8525 Y23.0133
G01 X23.8427 Y23.0066
G01 X23.8325 Y23.0004
G01 X23.6974 Y22.9267
G01 X23.6813 Y22.9191
G01 X23.6702 Y22.9147
G01 X23.6533 Y22.9090
G01 X23.6418 Y22.9059
G01 X23.4972 Y22.8744
G01 X23.4855 Y22.8722
G01 X23.4738 Y22.8705
G01 X23.4527 Y22.8689
G01 X22.7236 Y22.1397
G01 X22.7224 Y22.1221
G01 X22.7209 Y22.1099
G01 X22.7094 Y22.0322
G01 X22.7073 Y22.0202
G01 X22.7046 Y22.0082
G01 X22.6856 Y21.9320
G01 X22.6823 Y21.9202
G01 X22.6784 Y21.9085
G01 X22.6520 Y21.8346
G01 X22.6476 Y21.8232
G01 X22.6426 Y21.8120
G01 X22.6090 Y21.7410
G01 X22.6035 Y21.7300
G01 X22.5975 Y21.7194
G01 X22.5571 Y21.6520
G01 X22.5505 Y21.6417
G01 X22.5435 Y21.6316
G01 X22.4967 Y21.5686
G01 X22.4892 Y21.5589
G01 X22.4811 Y21.5496
G01 X22.4284 Y21.4914
G01 X22.4200 Y21.4825
G01 X22.4111 Y21.4741
G01 X22.3529 Y21.4214
G01 X22.3436 Y21.4133
G01 X22.3339 Y21.4058
G01 X22.2709 Y21.3590
G01 X22.2608 Y21.3520
G01 X22.2505 Y21.3454
G01 X22.1831 Y21.3050
G01 X22.1725 Y21.2990
G01 X22.1615 Y21.2935
G01 X22.0905 Y21.2599
G01 X22.0793 Y21.2549
G01 X22.0679 Y21.2505
G01 X21.9940 Y21.2241
G01 X21.9823 Y21.2202
G01 X21.9705 Y21.2169
G01 X21.8943 Y21.1979
G01 X21.8823 Y21.1952
G01 X21.8703 Y21.1931
G01 X21.7926 Y21.1816
G01 X21.7804 Y21.1801
G01 X21.7682 Y21.1792
G01 X21.6898 Y21.1753
G01 X21.6775 Y21.1750
G01 X21.6652 Y21.1753
G01 X21.5868 Y21.1792
G01 X21.5746 Y21.1801
G01 X21.5624 Y21.1816
G01 X21.4847 Y21.1931
G01 X21.4727 Y21.1952
G01 X21.4607 Y21.1979
G01 X21.3845 Y21.2169
G01 X21.3727 Y21.2202
G01 X21.3610 Y21.2241
G01 X21.2871 Y21.2505
G01 X21.2757 Y21.2549
G01 X21.2645 Y21.2599
G01 X21.1935 Y21.2935
G01 X21.1825 Y21.2990
G01 X21.1719 Y21.3050
G01 X21.1045 Y21.3454
G01 X21.0942 Y21.3520
G01 X21.0841 Y21.3590
G01 X21.0211 Y21.4058
G01 X21.0067 Y21.4173
G01 X20.9439 Y21.4741
G01 X20.9350 Y21.4825
G01 X20.9266 Y21.4914
G01 X20.8739 Y21.5496
G01 X20.8658 Y21.5589
G01 X20.8583 Y21.5686
G01 X20.8115 Y21.6316
G01 X20.8045 Y21.6417
G01 X20.7979 Y21.6520
G01 X20.7575 Y21.7194
G01 X20.7515 Y21.7300
G01 X20.7460 Y21.7410
G01 X20.7124 Y21.8120
G01 X20.7074 Y21.8232
G01 X20.7030 Y21.8346
G01 X20.6766 Y21.9085
G01 X20.6727 Y21.9202
G01 X20.6694 Y21.9320
G01 X20.6504 Y22.0082
G01 X20.6477 Y22.0202
G01 X20.6456 Y22.0322
G01 X20.6341 Y22.1099
G01 X20.6326 Y22.1221
G01 X20.6314 Y22.1397
G01 X19.9024 Y22.8686
G01 X19.8576 Y22.8704
G01 X19.8388 Y22.8727
G01 X19.8202 Y22.8764
G01 X19.8081 Y22.8797
G01 X19.6718 Y22.9197
G01 X19.6604 Y22.9233
G01 X19.6493 Y22.9275
G01 X19.6384 Y22.9321
G01 X19.6277 Y22.9373
G01 X19.6172 Y22.9430
G01 X19.6070 Y22.9492
G01 X19.4826 Y23.0293
G01 X19.4729 Y23.0362
G01 X19.4590 Y23.0474
G01 X19.4459 Y23.0596
G01 X19.4338 Y23.0726
G01 X19.3408 Y23.1800
G01 X19.3332 Y23.1891
G01 X19.3227 Y23.2036
G01 X19.3132 Y23.2187
G01 X19.3048 Y23.2344
G01 X19.2433 Y23.3690
G01 X19.2365 Y23.3855
G01 X19.2326 Y23.3968
G01 X19.2278 Y23.4139
G01 X19.2242 Y23.4314
G01 X19.2030 Y23.5779
G01 X19.2016 Y23.5897
G01 X19.2006 Y23.6075
G01 X19.2005 Y24.9814
G01 X19.2008 Y24.9946
G01 X19.2019 Y25.0077
G01 X19.2209 Y25.1508
G01 X19.2232 Y25.1631
G01 X19.2260 Y25.1752
G01 X19.2295 Y25.1872
G01 X19.2336 Y25.1990
G01 X19.2382 Y25.2106
G01 X19.2945 Y25.3411
G01 X19.3021 Y25.3572
G01 X19.3109 Y25.3727
G01 X19.3700 Y25.4692
G01 X19.4474 Y25.6598
G01 X19.4926 Y25.8604
G01 X19.5044 Y26.0657
G01 X19.4826 Y26.2701
G01 X19.4276 Y26.4683
G01 X19.3410 Y26.6548
G01 X19.2252 Y26.8247
G01 X19.0831 Y26.9733
G01 X18.9187 Y27.0968
G01 X18.7363 Y27.1918
G01 X18.5408 Y27.2556
G01 X18.3375 Y27.2867
G01 X18.1319 Y27.2842
G01 X17.9295 Y27.2482
G01 X17.7356 Y27.1795
G01 X17.5556 Y27.0801
G01 X17.3942 Y26.9527
G01 X17.2558 Y26.8006
G01 X17.1441 Y26.6280
G01 X17.0621 Y26.4394
G01 X17.0121 Y26.2399
G01 X16.9946 Y26.0278
G01 X16.9958 Y25.9809
G01 X17.0235 Y25.7698
G01 X17.0833 Y25.5731
G01 X17.1744 Y25.3887
G01 X17.1821 Y25.3775
G01 X17.1925 Y25.3602
G01 X17.1988 Y25.3491
G01 X17.2045 Y25.3377
G01 X17.2582 Y25.2155
G01 X17.2650 Y25.1983
G01 X17.2688 Y25.1866
G01 X17.2721 Y25.1748
G01 X17.2747 Y25.1628
G01 X17.2767 Y25.1506
G01 X17.2977 Y25.0042
G01 X17.2989 Y24.9923
G01 X17.2995 Y24.9745
G01 X17.2995 Y20.7393
G01 X17.2992 Y20.7272
G01 X17.2983 Y20.7152
G01 X17.2969 Y20.7033
G01 X17.2753 Y20.5554
G01 X17.2730 Y20.5436
G01 X17.2702 Y20.5320
G01 X17.2649 Y20.5149
G01 X17.2607 Y20.5037
G01 X17.2560 Y20.4927
G01 X17.1966 Y20.3637
G01 X17.1913 Y20.3530
G01 X17.1825 Y20.3375
G01 X17.1441 Y20.2780
G01 X17.0621 Y20.0894
G01 X17.0121 Y19.8899
G00 Z5.0000
G00 X17.4997 Y25.3007
G01 F60.00
G01 Z-0.1000
G01 F300.00
G01 X17.4997 Y20.4193
G01 X17.4464 Y20.3604
G01 X17.4383 Y20.3511
G01 X17.4308 Y20.3414
G01 X17.3840 Y20.2784
G01 X17.3770 Y20.2683
G01 X17.3704 Y20.2580
G01 X17.3300 Y20.1906
G01 X17.3240 Y20.1800
G01 X17.3185 Y20.1690
G01 X17.2849 Y20.0980
G01 X17.2799 Y20.0868
G01 X17.2755 Y20.0754
G01 X17.2491 Y20.0015
G01 X17.2452 Y19.9898
G01 X17.2419 Y19.9780
G01 X17.2229 Y19.9018
G01 X17.2202 Y19.8898
G01 X17.2181 Y19.8778
G01 X17.2066 Y19.8001
G01 X17.2051 Y19.7879
G01 X17.2042 Y19.7757
G01 X17.2003 Y19.6973
G01 X17.2000 Y19.6850
G01 X17.2003 Y19.6727
G01 X17.2042 Y19.5943
G01 X17.2051 Y19.5821
G01 X17.2066 Y19.5699
G01 X17.2181 Y19.4922
G01 X17.2202 Y19.4802
G01 X17.2229 Y19.4682
G01 X17.2419 Y19.3920
G01 X17.2452 Y19.3802
G01 X17.2491 Y19.3685
G01 X17.2755 Y19.2946
G01 X17.2799 Y19.2832
G01 X17.2849 Y19.2720
G01 X17.3185 Y19.2010
G01 X17.3240 Y19.1900
G01 X17.3300 Y19.1794
G01 X17.3704 Y19.1120
G01 X17.3770 Y19.1017
G01 X17.3840 Y19.0916
G01 X17.4308 Y19.0286
G01 X17.4383 Y19.0189
G01 X17.4464 Y19.0096
G01 X17.4991 Y18.9514
G01 X17.5075 Y18.9425
G01 X17.5164 Y18.9341
G01 X17.5746 Y18.8814
G01 X17.5839 Y18.8733
G01 X17.5936 Y18.8658
G01 X17.6566 Y18.8190
G01 X17.6667 Y18.8120
G01 X17.6770 Y18.8054
G01 X17.7444 Y18.7650
G01 X17.7550 Y18.7590
G01 X17.7660 Y18.7535
G01 X17.8370 Y18.7199
G01 X17.8482 Y18.7149
G01 X17.8596 Y18.7105
G01 X17.9335 Y18.6841
G01 X17.9452 Y18.6802
G01 X17.9570 Y18.6769
G01 X18.0332 Y18.6579
G01 X18.0452 Y18.6552
G01 X18.0572 Y18.6531
G01 X18.1349 Y18.6416
G01 X18.1471 Y18.6401
G01 X18.1593 Y18.6392
G01 X18.2439 Y18.6351
G01 X18.2623 Y18.6353
G01 X18.3407 Y18.6392
G01 X18.3529 Y18.6401
G01 X18.3651 Y18.6416
G01 X18.4428 Y18.6531
G01 X18.4548 Y18.6552
G01 X18.4668 Y18.6579
G01 X18.5430 Y18.6769
G01 X18.5548 Y18.6802
G01 X18.5665 Y18.6841
G01 X18.6404 Y18.7105
G01 X18.6518 Y18.7149
G01 X18.6630 Y18.7199
G01 X18.7340 Y18.7535
G01 X18.7450 Y18.7590
G01 X18.7556 Y18.7650
G01 X18.8230 Y18.8054
G01 X18.8333 Y18.8120
G01 X18.8434 Y18.8190
G01 X18.9064 Y18.8658
G01 X18.9161 Y18.8733
G01 X18.9254 Y18.8814
G01 X18.9843 Y18.9347
G01 X20.9432 Y18.9347
G01 X21.0021 Y18.8814
G01 X21.0114 Y18.8733
G01 X21.0211 Y18.8658
G01 X21.0841 Y18.8190
G01 X21.0942 Y18.8120
G01 X21.1045 Y18.8054
G01 X21.1719 Y18.7650
G01 X21.1825 Y18.7590
G01 X21.1935 Y18.7535
G01 X21.2645 Y18.7199
G01 X21.2757 Y18.7149
G01 X21.2871 Y18.7105
G01 X21.3610 Y18.6841
G01 X21.3727 Y18.6802
G01 X21.3845 Y18.6769
G01 X21.4607 Y18.6579
G01 X21.4727 Y18.6552
G01 X21.4847 Y18.6531
G01 X21.5624 Y18.6416
G01 X21.5746 Y18.6401
G01 X21.5868 Y18.6392
G01 X21.6714 Y18.6351
G01 X21.6898 Y18.6353
G01 X21.7682 Y18.6392
G01 X21.7804 Y18.6401
G01 X21.7926 Y18.6416
G01 X21.8703 Y18.6531
G01 X21.8823 Y18.6552
G01 X21.8943 Y18.6579
G01 X21.9705 Y18.6769
G01 X21.9823 Y18.6802
G01 X21.9940 Y18.6841
G01 X22.0679 Y18.7105
G01 X22.0793 Y18.7149
G01 X22.0905 Y18.7199
G01 X22.1615 Y18.7535
G01 X22.1725 Y18.7590
G01 X22.1831 Y18.7650
G01 X22.2505 Y18.8054
G01 X22.2608 Y18.8120
G01 X22.2709 Y18.8190
G01 X22.3339 Y18.8658
G01 X22.3436 Y18.8733
G01 X22.3529 Y18.8814
G01 X22.4111 Y18.9341
G01 X22.4200 Y18.9425
G01 X22.4284 Y18.9514
G01 X22.4811 Y19.0096
G01 X22.4892 Y19.0189
G01 X22.4967 Y19.0286
G01 X22.5435 Y19.0916
G01 X22.5505 Y19.1017
G01 X22.5571 Y19.1120
G01 X22.5975 Y19.1794
G01 X22.6035 Y19.1900
G01 X22.6090 Y19.2010
G01 X22.6426 Y19.2720
G01 X22.6476 Y19.2832
G01 X22.6520 Y19.2946
G01 X22.6784 Y19.3685
G01 X22.6823 Y19.3802
G01 X22.6856 Y19.3920
G01 X22.7046 Y19.4682
G01 X22.7073 Y19.4802
G01 X22.7094 Y19.4922
G01 X22.7209 Y19.5699
G01 X22.7224 Y19.5821
G01 X22.7233 Y19.5943
G01 X22.7272 Y19.6727
G01 X22.7275 Y19.6850
G01 X22.7272 Y19.6973
G01 X22.7233 Y19.7757
G01 X22.7224 Y19.7879
G01 X22.7209 Y19.8001
G01 X22.7094 Y19.8778
G01 X22.7073 Y19.8898
G01 X22.7046 Y19.9018
G01 X22.6856 Y19.9780
G01 X22.6823 Y19.9898
G01 X22.6784 Y20.0015
G01 X22.6520 Y20.0754
G01 X22.6476 Y20.0868
G01 X22.6426 Y20.0980
G01 X22.6090 Y20.1690
G01 X22.6035 Y20.1800
G01 X22.5975 Y20.1906
G01 X22.5571 Y20.2580
G01 X22.5505 Y20.2683
G01 X22.5435 Y20.2784
G01 X22.4967 Y20.3414
G01 X22.4892 Y20.3511
G01 X22.4811 Y20.3604
G01 X22.4284 Y20.4186
G01 X22.4200 Y20.4275
G01 X22.4111 Y20.4359
G01 X22.3529 Y20.4886
G01 X22.3436 Y20.4967
G01 X22.3339 Y20.5042
G01 X22.2709 Y20.5510
G01 X22.2608 Y20.5580
G01 X22.2505 Y20.5646
G01 X22.1831 Y20.6050
G01 X22.1725 Y20.6110
G01 X22.1615 Y20.6165
G01 X22.0905 Y20.6501
G01 X22.0793 Y20.6551
G01 X22.0679 Y20.6595
G01 X21.9940 Y20.6859
G01 X21.9823 Y20.6898
G01 X21.9705 Y20.6931
G01 X21.8943 Y20.7121
G01 X21.8823 Y20.7148
G01 X21.8703 Y20.7169
G01 X21.7926 Y20.7284
G01 X21.7804 Y20.7299
G01 X21.7682 Y20.7308
G01 X21.6898 Y20.7347
G01 X21.6775 Y20.7350
G01 X21.6652 Y20.7347
G01 X21.5868 Y20.7308
G01 X21.5746 Y20.7299
G01 X21.5624 Y20.7284
G01 X21.4847 Y20.7169
G01 X21.4727 Y20.7148
G01 X21.4607 Y20.7121
G01 X21.3845 Y20.6931
G01 X21.3727 Y20.6898
G01 X21.3610 Y20.6859
G01 X21.2871 Y20.6595
G01 X21.2757 Y20.6551
G01 X21.2645 Y20.6501
G01 X21.1935 Y20.6165
G01 X21.1825 Y20.6110
G01 X21.1719 Y20.6050
G01 X21.1045 Y20.5646
G01 X21.0942 Y20.5580
G01 X21.0841 Y20.5510
G01 X21.0211 Y20.5042
G01 X21.0114 Y20.4967
G01 X21.0021 Y20.4886
G01 X20.9432 Y20.4353
G01 X19.0003 Y20.4353
G01 X19.0003 Y25.3007
G01 X19.0536 Y25.3596
G01 X19.0617 Y25.3689
G01 X19.0692 Y25.3786
G01 X19.1160 Y25.4416
G01 X19.1230 Y25.4517
G01 X19.1296 Y25.4620
G01 X19.1700 Y25.5294
G01 X19.1760 Y25.5400
G01 X19.1815 Y25.5510
G01 X19.2151 Y25.6220
G01 X19.2201 Y25.6332
G01 X19.2245 Y25.6446
G01 X19.2509 Y25.7185
G01 X19.2548 Y25.7302
G01 X19.2581 Y25.7420
G01 X19.2771 Y25.8182
G01 X19.2798 Y25.8302
G01 X19.2819 Y25.8422
G01 X19.2934 Y25.9199
G01 X19.2949 Y25.9321
G01 X19.2958 Y25.9443
G01 X19.2997 Y26.0227
G01 X19.3000 Y26.0350
G01 X19.2997 Y26.0473
G01 X19.2958 Y26.1257
G01 X19.2949 Y26.1379
G01 X19.2934 Y26.1501
G01 X19.2819 Y26.2278
G01 X19.2798 Y26.2398
G01 X19.2771 Y26.2518
G01 X19.2581 Y26.3280
G01 X19.2548 Y26.3398
G01 X19.2509 Y26.3515
G01 X19.2245 Y26.4254
G01 X19.2201 Y26.4368
G01 X19.2151 Y26.4480
G01 X19.1815 Y26.5190
G01 X19.1760 Y26.5300
G01 X19.1700 Y26.5406
G01 X19.1296 Y26.6080
G01 X19.1230 Y26.6183
G01 X19.1160 Y26.6284
G01 X19.0692 Y26.6914
G01 X19.0617 Y26.7011
G01 X19.0536 Y26.7104
G01 X19.0009 Y26.7686
G01 X18.9925 Y26.7775
G01 X18.9836 Y26.7859
G01 X18.9254 Y26.8386
G01 X18.9161 Y26.8467
G01 X18.9064 Y26.8542
G01 X18.8434 Y26.9010
G01 X18.8333 Y26.9080
G01 X18.8230 Y26.9146
G01 X18.7556 Y26.9550
G01 X18.7450 Y26.9610
G01 X18.7340 Y26.9665
G01 X18.6630 Y27.0001
G01 X18.6518 Y27.0051
G01 X18.6404 Y27.0095
G01 X18.5665 Y27.0359
G01 X18.5548 Y27.0398
G01 X18.5430 Y27.0431
G01 X18.4668 Y27.0621
G01 X18.4548 Y27.0648
G01 X18.4428 Y27.0669
G01 X18.3651 Y27.0784
G01 X18.3529 Y27.0799
G01 X18.3407 Y27.0808
G01 X18.2623 Y27.0847
G01 X18.2500 Y27.0850
G01 X18.2377 Y27.0847
G01 X18.1593 Y27.0808
G01 X18.1471 Y27.0799
G01 X18.1349 Y27.0784
G01 X18.0572 Y27.0669
G01 X18.0452 Y27.0648
G01 X18.0332 Y27.0621
G01 X17.9570 Y27.0431
G01 X17.9452 Y27.0398
G01 X17.9335 Y27.0359
G01 X17.8596 Y27.0095
G01 X17.8482 Y27.0051
G01 X17.8370 Y27.0001
G01 X17.7660 Y26.9665
G01 X17.7550 Y26.9610
G01 X17.7444 Y26.9550
G01 X17.6770 Y26.9146
G01 X17.6667 Y26.9080
G01 X17.6566 Y26.9010
G01 X17.5936 Y26.8542
G01 X17.5839 Y26.8467
G01 X17.5746 Y26.8386
G01 X17.5164 Y26.7859
G01 X17.5075 Y26.7775
G01 X17.4991 Y26.7686
G01 X17.4464 Y26.7104
G01 X17.4383 Y26.7011
G01 X17.4308 Y26.6914
G01 X17.3840 Y26.6284
G01 X17.3770 Y26.6183
G01 X17.3704 Y26.6080
G01 X17.3300 Y26.5406
G01 X17.3240 Y26.5300
G01 X17.3185 Y26.5190
G01 X17.2849 Y26.4480
G01 X17.2799 Y26.4368
G01 X17.2755 Y26.4254
G01 X17.2491 Y26.3515
G01 X17.2452 Y26.3398
G01 X17.2419 Y26.3280
G01 X17.2229 Y26.2518
G01 X17.2202 Y26.2398
G01 X17.2181 Y26.2278
G01 X17.2066 Y26.1501
G01 X17.2051 Y26.1379
G01 X17.2042 Y26.1257
G01 X17.2003 Y26.0473
G01 X17.2000 Y26.0350
G01 X17.2003 Y26.0227
G01 X17.2042 Y25.9443
G01 X17.2051 Y25.9321
G01 X17.2066 Y25.9199
G01 X17.2181 Y25.8422
G01 X17.2202 Y25.8302
G01 X17.2229 Y25.8182
G01 X17.2419 Y25.7420
G01 X17.2452 Y25.7302
G01 X17.2491 Y25.7185
G01 X17.2755 Y25.6446
G01 X17.2799 Y25.6332
G01 X17.2849 Y25.6220
G01 X17.3185 Y25.5510
G01 X17.3240 Y25.5400
G01 X17.3300 Y25.5294
G01 X17.3704 Y25.4620
G01 X17.3770 Y25.4517
G01 X17.3840 Y25.4416
G01 X17.4308 Y25.3786
G01 X17.4383 Y25.3689
G01 X17.4464 Y25.3596
G01 X17.4997 Y25.3007
G00 Z5.0000
G00 X21.2209 Y23.8130
G01 F60.00
G01 Z-0.1000
G01 F300.00
G01 X21.6775 Y23.3564
G01 X22.1345 Y23.8134
G01 X22.1223 Y23.8177
G01 X22.1054 Y23.8223
G01 X21.8934 Y23.8645
G01 X21.8761 Y23.8667
G01 X21.6603 Y23.8785
G01 X21.6428 Y23.8783
G01 X21.4275 Y23.8596
G01 X21.4102 Y23.8569
G01 X21.2209 Y23.8130
G00 Z5.0000
G00 X23.6662 Y22.0047
G01 F60.00
G01 Z-0.1000
G01 F300.00
G01 X23.5868 Y22.0008
G01 X23.5746 Y21.9999
G01 X23.5624 Y21.9984
G01 X23.4847 Y21.9869
G01 X23.4727 Y21.9848
G01 X23.4607 Y21.9821
G01 X23.3845 Y21.9631
G01 X23.3727 Y21.9598
G01 X23.3610 Y21.9559
G01 X23.2871 Y21.9295
G01 X23.2757 Y21.9251
G01 X23.2645 Y21.9201
G01 X23.1935 Y21.8865
G01 X23.1825 Y21.8810
G01 X23.1719 Y21.8750
G01 X23.1045 Y21.8346
G01 X23.0942 Y21.8280
G01 X23.0841 Y21.8210
G01 X23.0211 Y21.7742
G01 X23.0114 Y21.7667
G01 X23.0021 Y21.7586
G01 X22.9439 Y21.7059
G01 X22.9350 Y21.6975
G01 X22.9266 Y21.6886
G01 X22.8739 Y21.6304
G01 X22.8658 Y21.6211
G01 X22.8583 Y21.6114
G01 X22.8115 Y21.5484
G01 X22.8045 Y21.5383
G01 X22.7979 Y21.5280
G01 X22.7575 Y21.4606
G01 X22.7515 Y21.4500
G01 X22.7460 Y21.4390
G01 X22.7124 Y21.3680
G01 X22.7074 Y21.3568
G01 X22.7030 Y21.3454
G01 X22.6766 Y21.2715
G01 X22.6727 Y21.2598
G01 X22.6694 Y21.2480
G01 X22.6504 Y21.1718
G01 X22.6477 Y21.1598
G01 X22.6456 Y21.1478
G01 X22.6341 Y21.0701
G01 X22.6326 Y21.0579
G01 X22.6317 Y21.0457
G01 X22.6278 Y20.9673
G01 X22.6275 Y20.9550
G01 X22.6278 Y20.9427
G01 X22.6317 Y20.8643
G01 X22.6326 Y20.8521
G01 X22.6341 Y20.8399
G01 X22.6456 Y20.7622
G01 X22.6477 Y20.7502
G01 X22.6504 Y20.7382
G01 X22.6694 Y20.6620
G01 X22.6727 Y20.6502
G01 X22.6766 Y20.6385
G01 X22.7030 Y20.5646
G01 X22.7074 Y20.5532
G01 X22.7124 Y20.5420
G01 X22.7460 Y20.4710
G01 X22.7515 Y20.4600
G01 X22.7575 Y20.4494
G01 X22.7979 Y20.3820
G01 X22.8045 Y20.3717
G01 X22.8115 Y20.3616
G01 X22.8583 Y20.2986
G01 X22.8658 Y20.2889
G01 X22.8739 Y20.2796
G01 X22.9266 Y20.2214
G01 X22.9350 Y20.2125
G01 X22.9439 Y20.2041
G01 X23.0021 Y20.1514
G01 X23.0114 Y20.1433
G01 X23.0211 Y20.1358
G01 X23.0841 Y20.0890
G01 X23.0942 Y20.0820
G01 X23.1045 Y20.0754
G01 X23.1719 Y20.0350
G01 X23.1825 Y20.0290
G01 X23.1935 Y20.0235
G01 X23.2645 Y19.9899
G01 X23.2757 Y19.9849
G01 X23.2871 Y19.9805
G01 X23.3610 Y19.9541
G01 X23.3727 Y19.9502
G01 X23.3845 Y19.9469
G01 X23.4607 Y19.9279
G01 X23.4727 Y19.9252
G01 X23.4847 Y19.9231
G01 X23.5624 Y19.9116
G01 X23.5746 Y19.9101
G01 X23.5868 Y19.9092
G01 X23.6652 Y19.9053
G01 X23.6775 Y19.9050
G01 X23.6898 Y19.9053
G01 X23.7682 Y19.9092
G01 X23.7804 Y19.9101
G01 X23.7926 Y19.9116
G01 X23.8703 Y19.9231
G01 X23.8823 Y19.9252
G01 X23.8943 Y19.9279
G01 X23.9705 Y19.9469
G01 X23.9823 Y19.9502
G01 X23.9940 Y19.9541
G01 X24.0679 Y19.9805
G01 X24.0793 Y19.9849
G01 X24.0905 Y19.9899
G01 X24.1615 Y20.0235
G01 X24.1725 Y20.0290
G01 X24.1831 Y20.0350
G01 X24.2505 Y20.0754
G01 X24.2608 Y20.0820
G01 X24.2709 Y20.0890
G01 X24.3339 Y20.1358
G01 X24.3436 Y20.1433
G01 X24.3529 Y20.1514
G01 X24.4111 Y20.2041
G01 X24.4242 Y20.2169
G01 X24.4811 Y20.2796
G01 X24.4892 Y20.2889
